G21         ; Set units to mm
G90         ; Absolute positioning


; Pass 0

; First Move
G0 X54.52 Y19.84 ; Generated by LaserWeb (lw.raster-to-gcode.js)
; Size       : 0 x 0 mm
; PPI        : x: 300 - y: 300
; PPM        : x: 0.0846666667 - y: 0.0846666667
; Tool diam. : 0.2 mm
; Feed rate  : 80 mm/min
; Beam range : 0 to 1
; Beam power : 0 to 100 %
; Options    : trimLine, joinPixel

G1 F80

G0 X54.52 Y19.84 S0.0000
G1 S0.0863
G0 X55.52 S0.0000
G1 S0.0078
G0 X52.32 Y20.04 S0.0000
G1 S0.0902
G0 X51.32 S0.0000
G1 S0.0549
G0 X50.92 S0.0000
G1 X50.82 S0.0431
X50.72 S0.0039
G0 X49.72 Y20.24 S0.0000
G1 X49.82 S0.0157
X49.92 S0.0353
G0 X50.92 S0.0000
G1 S0.0039
G0 X51.32 S0.0000
G1 X51.42 S0.0039
X51.62 S0.0667
X51.82 S0.4471
X52.42 S0.1255
X52.62 S0.0392
X55.62 S0.0549
X55.72 S0.0471
G0 X56.32 S0.0000
G1 S0.0353
G0 X56.92 S0.0000
G1 S0.0275
G0 X55.52 Y20.44 S0.0000
G1 S0.1608
G0 X55.12 S0.0000
G1 S0.1725
G0 X54.72 S0.0000
G1 S0.0235
G0 X50.72 S0.0000
G1 X50.62 S0.1294
X50.52 S0.0588
G0 X48.52 Y20.64 S0.0000
G1 X48.62 S0.0039
X48.82 S0.0667
X48.92 S0.0078
G0 X50.52 S0.0000
G1 S0.0275
G0 X50.92 S0.0000
G1 X51.02 S0.0392
X51.22 S0.0039
X51.42 S0.1098
X51.62 S0.1137
X51.72 S0.0039
G0 X58.12 Y20.84 S0.0000
G1 S0.0078
G0 X55.72 S0.0000
G1 S0.0039
G0 X53.92 S0.0000
G1 X53.42 S0.0235
X53.22 S0.0314
X53.02 S0.1882
X52.92 S0.1020
G0 X52.32 S0.0000
G1 X52.22 S0.0510
X52.12 S0.1137
G0 X51.72 S0.0000
G1 X51.62 S0.0039
X51.42 S0.0235
X51.32 S0.0784
G0 X50.52 S0.0000
G1 X50.42 S0.0078
X50.22 S0.0118
X50.02 S0.0235
X49.82 S0.1882
X49.62 S0.3137
X49.52 S0.0157
G0 X48.32 Y21.04 S0.0000
G1 S0.0078
G0 X48.72 S0.0000
G1 X48.82 S0.0078
X49.02 S0.0275
X49.22 S0.0353
X49.32 S0.0471
G0 X50.12 S0.0000
G1 X50.22 S0.0157
X50.42 S0.0392
X50.62 S0.0824
X50.82 S0.1765
X51.02 S0.1961
X51.22 S0.0196
X51.32 S0.0157
G0 X52.52 S0.0000
G1 X52.62 S0.0039
X52.72 S0.0157
G0 X53.72 S0.0000
G1 S0.0157
G0 X54.92 S0.0000
G1 X55.02 S0.0314
X55.22 S0.0392
X55.32 S0.0235
G0 X55.72 S0.0000
G1 X55.82 S0.0157
X55.92 S0.0039
G0 X57.52 S0.0000
G1 X57.62 S0.0627
X57.72 S0.0039
G0 X58.12 S0.0000
G1 X58.22 S0.0078
X58.32 S0.0314
G0 Y21.24 S0.0000
G1 S0.0196
G0 X57.92 S0.0000
G1 S0.0118
G0 X56.92 S0.0000
G1 S0.0824
G0 X56.32 S0.0000
G1 X56.22 S0.0706
X56.02 S0.0314
X55.82 S0.0118
X55.72 S0.0314
G0 X52.72 S0.0000
G1 X52.42 S0.0314
X52.02 S0.0706
X51.82 S0.0588
X51.42 S0.1294
X51.22 S0.1216
X51.02 S0.0039
X50.92 S0.0118
G0 X50.12 S0.0000
G1 X50.02 S0.0314
X49.82 S0.0392
X49.72 S0.0471
G0 X49.32 S0.0000
G1 S0.0078
G0 X48.92 S0.0000
G1 X48.82 S0.0039
X48.62 S0.0235
X48.52 S0.0078
G0 X47.72 S0.0000
G1 S0.0039
G0 X47.32 S0.0000
G1 S0.0078
G0 X47.12 Y21.44 S0.0000
G1 X47.22 S0.0118
X47.42 S0.0039
X47.62 S0.0078
X47.72 S0.0039
G0 X49.32 S0.0000
G1 S0.0039
G0 X49.92 S0.0000
G1 X50.02 S0.1529
X50.22 S0.2000
X50.42 S0.0196
X50.52 S0.0353
G0 X50.92 S0.0000
G1 S0.0078
G0 X52.72 S0.0000
G1 X52.92 S0.2039
G0 X53.32 S0.0000
G1 X53.42 S0.0314
X53.52 S0.0353
G0 X54.92 S0.0000
G1 X55.02 S0.0314
X55.12 S0.0078
G0 X55.52 S0.0000
G1 S0.1765
G0 X56.72 S0.0000
G1 S0.0078
G0 X57.12 S0.0000
G1 S0.0549
G0 X58.52 S0.0000
G1 X58.62 S0.0078
X58.72 S0.0510
G0 X58.92 Y21.64 S0.0000
G1 X58.82 S0.0039
X58.72 S0.0235
G0 X58.12 S0.0000
G1 X58.02 S0.0471
X57.92 S0.0039
G0 X57.52 S0.0000
G1 X57.42 S0.3451
X57.22 S0.0118
X57.02 S0.0039
X56.92 S0.0353
G0 X56.32 S0.0000
G1 X56.22 S0.0196
X56.02 S0.0588
X55.92 S0.0196
G0 X55.12 S0.0000
G1 X53.32 S0.0039
G0 X51.52 S0.0000
G1 X51.22 S0.0588
X51.02 S0.0941
X50.82 S0.1137
X50.62 S0.0863
X50.42 S0.1176
X50.32 S0.0039
G0 X49.52 S0.0000
G1 X49.42 S0.0588
X49.22 S0.0235
X49.12 S0.0039
G0 X48.72 S0.0000
G1 X48.62 S0.0078
X48.52 S0.0039
G0 X49.72 Y21.84 S0.0000
G1 X49.82 S0.0353
X49.92 S0.0784
G0 X50.32 S0.0000
G1 X50.42 S0.0431
X50.52 S0.0118
G0 X51.52 S0.0000
G1 X51.62 S0.0157
X52.02 S0.1412
X52.22 S0.1373
X53.02 S0.0627
X53.22 S0.0118
X55.02 S0.0431
X55.12 S0.0392
G0 X55.52 S0.0000
G1 S0.0078
G0 X56.52 S0.0000
G1 S0.0353
G0 X57.12 S0.0000
G1 S0.0549
G0 X57.52 S0.0000
G1 X57.62 S0.0196
X57.72 S0.1216
G0 X58.12 S0.0000
G1 X58.22 S0.0235
X58.32 S0.0392
G0 X59.32 Y22.04 S0.0000
G1 X59.22 S0.0039
X59.12 S0.0627
G0 X57.92 S0.0000
G1 S0.1216
G0 X57.52 S0.0000
G1 X57.42 S0.0196
X57.32 S0.0078
G0 X56.92 S0.0000
G1 S0.0471
G0 X56.32 S0.0000
G1 X56.22 S0.0824
X56.12 S0.0471
G0 X55.32 S0.0000
G1 S0.0039
G0 X53.52 S0.0000
G1 S0.0314
G0 X51.92 S0.0000
G1 S0.0157
G0 X51.12 S0.0000
G1 X51.02 S0.0157
X50.82 S0.0824
X50.62 S0.1098
X50.42 S0.1529
X50.32 S0.0078
G0 X49.52 S0.0000
G1 X49.42 S0.0314
X49.22 S0.1176
X49.12 S0.0039
G0 X45.72 S0.0000
G1 S0.0078
G0 X45.52 Y22.24 S0.0000
G1 S0.0275
G0 X45.92 S0.0000
G1 X46.02 S0.0667
X46.12 S0.0118
G0 X48.52 S0.0000
G1 X48.62 S0.0039
X48.82 S0.0431
X48.92 S0.0118
G0 X49.72 S0.0000
G1 X49.82 S0.0196
X50.02 S0.0549
X50.12 S0.0431
G0 X50.92 S0.0000
G1 X51.02 S0.0627
X51.22 S0.0157
X51.42 S0.0824
X51.62 S0.0078
X51.82 S0.0824
X51.92 S0.0627
G0 X55.52 S0.0000
G1 X55.62 S0.0706
X55.82 S0.0824
X55.92 S0.0549
G0 X56.52 S0.0000
G1 S0.0235
G0 X57.12 S0.0000
G1 S0.0431
G0 X57.52 S0.0000
G1 X57.62 S0.0353
X57.82 S0.0196
X58.02 S0.0039
X58.12 S0.0824
G0 X59.32 S0.0000
G1 S0.0588
G0 X59.52 Y22.44 S0.0000
G1 S0.0549
G0 X58.32 S0.0000
G1 S0.1020
G0 X57.92 S0.0000
G1 X57.82 S0.3490
X57.62 S0.0392
X57.52 S0.0549
G0 X57.12 S0.0000
G1 X57.02 S0.0314
X56.92 S0.0471
G0 X56.12 S0.0000
G1 S0.0196
G0 X55.52 S0.0000
G1 X55.42 S0.0471
X55.22 S0.1137
X55.02 S0.0784
X54.92 S0.0588
G0 X51.92 S0.0000
G1 S0.0471
G0 X50.52 S0.0000
G1 S0.0314
G0 X49.12 S0.0000
G1 X48.92 S0.0157
G0 X47.72 S0.0000
G1 S0.0235
G0 X45.32 Y22.64 S0.0000
G1 S0.0627
G0 X46.32 S0.0000
G1 S0.0784
G0 X48.12 S0.0000
G1 S0.0196
G0 X48.52 S0.0000
G1 S0.1098
G0 X49.32 S0.0000
G1 S0.0196
G0 X50.72 S0.0000
G1 X50.82 S0.0392
X50.92 S0.0667
G0 X51.92 S0.0000
G1 S0.0235
G0 X53.52 S0.0000
G1 X53.62 S0.0157
X53.92 S0.1294
G0 X54.32 S0.0000
G1 S0.0902
G0 X54.72 S0.0000
G1 X54.82 S0.0235
X54.92 S0.0078
G0 X55.72 S0.0000
G1 X55.82 S0.0196
X56.02 S0.1137
X56.12 S0.0314
G0 X56.72 S0.0000
G1 S0.0275
G0 X57.32 S0.0000
G1 X57.42 S0.0902
X57.62 S0.0118
X57.82 S0.0392
X58.02 S0.0314
X58.12 S0.1137
G0 X58.52 S0.0000
G1 S0.0392
G0 X59.12 S0.0000
G1 S0.0118
G0 X59.52 S0.0000
G1 X59.62 S0.0039
X59.72 S0.0784
G0 X59.92 Y22.84 S0.0000
G1 X59.82 S0.0549
X59.72 S0.0431
G0 X59.12 S0.0000
G1 S0.0392
G0 X58.72 S0.0000
G1 X58.62 S0.0902
X58.22 S0.0235
X58.12 S0.0510
G0 X57.52 S0.0000
G1 X57.42 S0.0667
X57.22 S0.0039
X57.02 S0.0235
X56.92 S0.0353
G0 X56.52 S0.0000
G1 X56.42 S0.0706
X56.32 S0.0980
G0 X55.32 S0.0000
G1 X55.22 S0.0275
X55.12 S0.0078
G0 X51.32 S0.0000
G1 X51.22 S0.0118
X51.02 S0.0745
X50.82 S0.0706
X50.72 S0.0039
G0 X49.32 S0.0000
G1 X49.22 S0.0235
X49.12 S0.0627
G0 X45.12 S0.0000
G1 X45.02 S0.3765
X44.92 S0.0157
G0 X44.32 Y23.04 S0.0000
G1 S0.0588
G0 X44.72 S0.0000
G1 X44.82 S0.0353
X44.92 S0.0667
G0 X45.32 S0.0000
G1 S0.0510
G0 X47.72 S0.0000
G1 S0.0314
G0 X48.72 S0.0000
G1 X48.82 S0.0078
X48.92 S0.0157
G0 X49.92 S0.0000
G1 X50.02 S0.0588
X50.22 S0.0392
X50.42 S0.1255
X50.72 S0.0275
G0 X51.52 S0.0000
G1 X51.62 S0.0706
X51.82 S0.0784
X52.02 S0.1059
X52.22 S0.1294
X52.32 S0.0353
G0 X54.52 S0.0000
G1 S0.0392
G0 X56.12 S0.0000
G1 S0.0353
G0 X56.72 S0.0000
G1 X56.82 S0.0627
X57.02 S0.0471
X57.12 S0.0392
G0 X57.72 S0.0000
G1 X57.82 S0.1020
X58.02 S0.0039
X58.22 S0.0157
X58.32 S0.0275
G0 X58.72 S0.0000
G1 X58.82 S0.1294
X58.92 S0.0039
G0 X59.32 S0.0000
G1 S0.1020
G0 X59.92 S0.0000
G1 S0.1647
G0 X60.12 Y23.24 S0.0000
G1 S0.5373
G0 X59.52 S0.0000
G1 X59.42 S0.0196
X59.32 S0.0549
G0 X58.92 S0.0000
G1 X58.82 S0.3333
X58.62 S0.0078
X58.42 S0.0863
X58.22 S0.0039
X58.02 S0.4157
X57.92 S0.5882
G0 X57.52 S0.0000
G1 X57.42 S0.0627
X57.32 S0.0118
G0 X56.72 S0.0000
G1 X56.62 S0.0275
X56.52 S0.1098
G0 X56.12 S0.0000
G1 X56.02 S0.0196
X55.92 S0.0980
G0 X55.32 S0.0000
G1 X55.22 S0.0157
X55.02 S0.0275
X54.82 S0.0353
X54.42 S0.0549
X54.22 S0.0353
X54.02 S0.1451
X53.02 S0.1608
X52.92 S0.0863
G0 X52.32 S0.0000
G1 X52.22 S0.0157
X52.02 S0.0549
X51.92 S0.0039
G0 X51.52 S0.0000
G1 X51.32 S0.0275
G0 X50.92 S0.0000
G1 X50.82 S0.0863
X50.62 S0.0471
X50.42 S0.0549
X50.32 S0.0235
G0 X49.52 S0.0000
G1 X49.42 S0.0588
X49.22 S0.0824
X49.02 S0.0118
X48.92 S0.0078
G0 X48.52 S0.0000
G1 X48.42 S0.1373
X48.22 S0.0157
X48.12 S0.0039
G0 X47.52 S0.0000
G1 S0.0275
G0 X45.12 S0.0000
G1 X45.02 S0.0039
X44.92 S0.1725
G0 X44.52 S0.0000
G1 S0.0902
G0 X44.12 Y23.44 S0.0000
G1 X44.22 S0.0039
X44.32 S0.0941
G0 X44.72 S0.0000
G1 X44.82 S0.1137
X44.92 S0.0510
G0 X47.72 S0.0000
G1 X47.82 S0.0118
X48.12 S0.0863
G0 X48.72 S0.0000
G1 S0.0431
G0 X49.52 S0.0000
G1 X49.62 S0.0471
X49.82 S0.0745
X50.02 S0.0667
X50.22 S0.0549
X50.42 S0.0039
X50.52 S0.0353
G0 X51.32 S0.0000
G1 X51.52 S0.0039
G0 X52.52 S0.0000
G1 X53.32 S0.0510
G0 X54.92 S0.0000
G1 X55.22 S0.0039
X55.62 S0.0431
X55.72 S0.0353
G0 X56.32 S0.0000
G1 X56.42 S0.1020
X56.62 S0.0627
X56.72 S0.0039
G0 X57.52 S0.0000
G1 X57.62 S0.5137
X57.82 S0.0549
X58.02 S0.0039
X58.22 S0.0510
X58.32 S0.0235
G0 X59.12 S0.0000
G1 S0.0471
G0 X59.52 S0.0000
G1 S0.1490
G0 X60.12 S0.0000
G1 X60.22 S0.0275
X60.32 S0.2588
G0 X60.52 Y23.64 S0.0000
G1 X60.42 S0.1804
X60.32 S0.0431
G0 X59.72 S0.0000
G1 S0.1961
G0 X58.92 S0.0000
G1 S0.1020
G0 X58.52 S0.0000
G1 X58.42 S0.0784
X58.22 S0.0588
X57.82 S0.0078
X57.72 S0.2000
G0 X56.72 S0.0000
G1 X56.62 S0.0549
X56.42 S0.0039
X56.32 S0.0157
G0 X55.52 S0.0000
G1 X55.42 S0.0039
X55.22 S0.0275
X55.02 S0.0392
X54.92 S0.1333
G0 X54.52 S0.0000
G1 S0.0118
G0 X53.32 S0.0000
G1 X52.42 S0.0039
X52.12 S0.0118
G0 X51.72 S0.0000
G1 X51.62 S0.1922
X51.42 S0.1725
X51.22 S0.0314
X51.12 S0.0353
G0 X50.52 S0.0000
G1 X50.42 S0.0039
X50.22 S0.0118
X50.02 S0.1059
X49.92 S0.0078
G0 X49.52 S0.0000
G1 X49.42 S0.0039
X49.22 S0.0118
X49.02 S0.1882
X48.92 S0.0353
G0 X47.12 S0.0000
G1 S0.0706
G0 X44.72 S0.0000
G1 X44.62 S0.0039
X44.52 S0.0627
G0 X44.12 S0.0000
G1 S0.1059
G0 X43.32 Y23.84 S0.0000
G1 S0.0314
G0 X43.72 S0.0000
G1 X43.82 S0.0235
X44.02 S0.0314
X44.22 S0.0039
X44.32 S0.0667
G0 X44.72 S0.0000
G1 X44.82 S0.0353
X44.92 S0.0627
G0 X47.52 S0.0000
G1 S0.0078
G0 X48.12 S0.0000
G1 X48.22 S0.0078
X48.42 S0.1255
X48.62 S0.0078
X48.72 S0.0039
G0 X49.12 S0.0000
G1 X49.22 S0.0157
X49.42 S0.0118
X49.62 S0.0078
X49.72 S0.0039
G0 X50.12 S0.0000
G1 X50.22 S0.0235
X50.42 S0.0471
X50.62 S0.1216
X50.82 S0.0039
X51.02 S0.0078
X51.22 S0.0196
X51.42 S0.0235
X51.62 S0.0275
X51.82 S0.0471
X52.02 S0.0510
X52.22 S0.1647
X52.32 S0.0431
G0 X52.92 S0.0000
G1 X53.52 S0.0118
G0 X54.72 S0.0000
G1 S0.1059
G0 X55.52 S0.0000
G1 X55.82 S0.0275
X56.02 S0.0706
X56.12 S0.0235
G0 X56.72 S0.0000
G1 S0.0078
G0 X57.12 S0.0000
G1 X57.22 S0.0275
X57.42 S0.0039
X57.62 S0.0549
X57.72 S0.0039
G0 X58.32 S0.0000
G1 S0.1137
G0 X58.72 S0.0000
G1 S0.0078
G0 X59.12 S0.0000
G1 S0.0078
G0 X59.72 S0.0000
G1 X59.82 S0.0039
X59.92 S0.0784
G0 X60.32 S0.0000
G1 X60.62 S0.0078
X60.72 S0.0471
G0 X60.52 Y24.04 S0.0000
G1 X60.02 S0.0157
X59.92 S0.0314
G0 X59.32 S0.0000
G1 X59.22 S0.0471
X59.02 S0.0235
X58.82 S0.0157
X58.62 S0.0353
X58.52 S0.0902
G0 X57.72 S0.0000
G1 X57.62 S0.0118
X57.42 S0.0039
X57.22 S0.0667
X57.02 S0.0039
X56.82 S0.0353
X56.42 S0.0078
X56.22 S0.0980
X56.02 S0.0196
X55.92 S0.0078
G0 X55.52 S0.0000
G1 S0.0196
G0 X55.12 S0.0000
G1 X55.02 S0.0196
X54.82 S0.0431
X54.22 S0.1412
X54.12 S0.0392
G0 X53.52 S0.0000
G1 X53.42 S0.0392
X53.02 S0.3647
X52.22 S0.1412
X52.02 S0.4353
X51.62 S0.0196
X51.42 S0.0392
X51.22 S0.0235
X51.02 S0.0275
X50.82 S0.0627
X50.62 S0.0039
X50.52 S0.0471
G0 X50.12 S0.0000
G1 X50.02 S0.0235
X49.82 S0.3020
X49.62 S0.2706
X49.52 S0.0784
G0 X49.12 S0.0000
G1 X49.02 S0.0039
X48.82 S0.0118
X48.62 S0.0784
X48.52 S0.0235
G0 X47.92 S0.0000
G1 S0.0275
G0 X47.52 S0.0000
G1 X47.42 S0.0392
X47.32 S0.1333
G0 X44.92 S0.0000
G1 X44.82 S0.0039
X44.72 S0.0157
G0 X44.12 S0.0000
G1 S0.0980
G0 X43.72 S0.0000
G1 X43.62 S0.0275
X43.42 S0.0196
X43.22 S0.0157
X43.12 S0.0510
G0 X43.92 Y24.24 S0.0000
G1 X44.02 S0.0824
X44.22 S0.0039
X44.32 S0.6863
G0 X44.92 S0.0000
G1 S0.0941
G0 X46.12 S0.0000
G1 S0.1569
G0 X46.72 S0.0000
G1 S0.5176
G0 X48.12 S0.0000
G1 X48.22 S0.0863
X48.32 S0.0314
G0 X48.92 S0.0000
G1 X49.02 S0.0039
X49.22 S0.1804
X49.42 S0.0157
X49.62 S0.8627
X49.82 S0.0039
X50.02 S0.0196
X50.12 S0.0039
G0 X50.52 S0.0000
G1 X50.62 S0.0039
X50.82 S0.2039
X51.02 S0.2235
X51.22 S0.2314
X51.52 S0.0196
G0 X52.12 S0.0000
G1 X53.02 S0.0039
X53.22 S0.4824
X53.42 S0.7922
X53.62 S0.4863
X54.32 S0.0039
G0 X55.52 S0.0000
G1 X55.62 S0.0078
X55.72 S0.1843
G0 X56.12 S0.0000
G1 S0.0078
G0 X56.52 S0.0000
G1 X56.62 S0.0078
X56.72 S0.1608
G0 X57.52 S0.0000
G1 X57.62 S0.0314
X57.82 S0.0196
X58.02 S0.0078
X58.12 S0.1255
G0 X58.72 S0.0000
G1 X58.82 S0.0039
X58.92 S0.0118
G0 X59.32 S0.0000
G1 X59.42 S0.0078
X59.52 S0.0039
G0 X60.12 S0.0000
G1 X60.32 S0.0157
G0 X60.92 Y24.44 S0.0000
G1 S0.0039
G0 X60.32 S0.0000
G1 S0.0157
G0 X59.72 S0.0000
G1 X59.62 S0.0471
X59.42 S0.0157
X59.22 S0.0039
X59.12 S0.0196
G0 X58.52 S0.0000
G1 X58.42 S0.0039
X58.32 S0.0118
G0 X57.92 S0.0000
G1 X57.82 S0.0196
X57.72 S0.0353
G0 X57.32 S0.0000
G1 X57.22 S0.0392
X57.02 S0.0235
X56.92 S0.0667
G0 X56.52 S0.0000
G1 X56.42 S0.0627
X56.22 S0.0078
X56.02 S0.1843
X55.92 S0.0314
G0 X55.52 S0.0000
G1 X55.42 S0.0196
X55.22 S0.2196
X55.02 S0.1098
X54.42 S0.0431
X54.22 S0.0314
X53.82 S0.0078
X53.62 S0.2353
X53.42 S0.3059
X53.22 S0.2510
X52.82 S0.0078
X52.62 S0.0157
X52.52 S0.0235
G0 X51.92 S0.0000
G1 X51.82 S0.0314
X51.62 S0.0431
X51.42 S0.1294
X51.22 S0.1098
X51.02 S0.1882
X50.82 S0.1490
X50.72 S0.0353
G0 X50.32 S0.0000
G1 X50.22 S0.0431
X50.02 S0.1804
X49.82 S0.0941
X49.62 S0.0275
X49.42 S0.0157
X49.22 S0.2000
X49.12 S0.2745
G0 X48.72 S0.0000
G1 S0.0353
G0 X48.12 S0.0000
G1 S0.0039
G0 X47.72 S0.0000
G1 S0.0549
G0 X47.12 S0.0000
G1 X47.02 S0.1059
X46.82 S0.0078
X46.72 S0.0235
G0 X46.12 S0.0000
G1 X45.92 S0.0039
G0 X44.72 S0.0000
G1 X44.62 S0.0784
X44.42 S0.0039
X44.22 S0.0157
X44.12 S0.1490
G0 X43.32 S0.0000
G1 X43.22 S0.0157
X43.12 S0.0314
G0 X42.72 S0.0000
G1 X42.62 S0.0039
X42.52 S0.0078
G0 X42.32 Y24.64 S0.0000
G1 S0.0039
G0 X42.72 S0.0000
G1 S0.0314
G0 X43.12 S0.0000
G1 S0.0275
G0 X43.92 S0.0000
G1 S0.0824
G0 X44.52 S0.0000
G1 S0.0588
G0 X46.72 S0.0000
G1 X46.82 S0.4549
X47.02 S0.0706
X47.12 S0.0627
G0 X47.72 S0.0000
G1 X47.82 S0.0431
X48.02 S0.1412
X48.12 S0.0471
G0 X48.72 S0.0000
G1 X48.82 S0.1294
X49.02 S0.0471
X49.12 S0.1098
G0 X49.52 S0.0000
G1 X49.62 S0.0471
X49.72 S0.0235
G0 X50.12 S0.0000
G1 X50.22 S0.0039
X50.42 S0.3569
X50.62 S0.3451
X50.82 S0.1686
X51.02 S0.0314
X51.12 S0.0039
G0 X51.72 S0.0000
G1 X51.82 S0.5098
X52.02 S0.5569
X52.22 S0.3137
X52.42 S0.0549
X52.62 S0.1333
X52.82 S0.0588
X54.22 S0.0314
X54.42 S0.1569
X54.62 S0.0549
X54.82 S0.1373
X54.92 S0.1608
G0 X55.52 S0.0000
G1 X55.62 S0.0275
X55.72 S0.1804
G0 X56.12 S0.0000
G1 X56.22 S0.0118
X56.32 S0.0784
G0 X56.72 S0.0000
G1 S0.0157
G0 X57.12 S0.0000
G1 S0.0980
G0 X57.92 S0.0000
G1 S0.0275
G0 X58.52 S0.0000
G1 X58.62 S0.0275
X58.72 S0.0392
G0 X59.32 S0.0000
G1 S0.0863
G0 X59.72 S0.0000
G1 X59.82 S0.0196
X59.92 S0.0392
G0 X60.92 S0.0000
G1 S0.0157
G0 X61.72 Y24.84 S0.0000
G1 S0.0078
G0 X60.92 S0.0000
G1 X60.82 S0.0039
X60.72 S0.0667
G0 X60.12 S0.0000
G1 X60.02 S0.4510
X59.92 S0.0157
G0 X59.52 S0.0000
G1 S0.0941
G0 X58.92 S0.0000
G1 S0.0118
G0 X57.52 S0.0000
G1 X57.42 S0.0235
X57.22 S0.0078
X57.02 S0.0157
X56.82 S0.0392
X56.62 S0.0039
X56.42 S0.0667
X56.22 S0.0039
X56.02 S0.2980
X55.82 S0.0471
X55.62 S0.0039
X55.42 S0.2745
X55.22 S0.3176
X54.82 S0.0039
X54.62 S0.0392
X54.42 S0.5412
X52.62 S0.1529
X52.42 S0.1059
X52.02 S0.0235
X51.62 S0.0039
X51.42 S0.0706
X51.22 S0.3412
X51.02 S0.9882
X50.82 S0.7137
X50.62 S0.1294
X50.42 S0.0784
X50.32 S0.0078
G0 X49.92 S0.0000
G1 X49.82 S0.0706
X49.62 S0.3176
X49.42 S0.5569
X49.22 S0.3294
X49.02 S0.0039
X48.82 S0.4431
X48.62 S0.1294
X48.42 S0.0118
X48.22 S0.0353
X48.12 S0.0039
G0 X47.52 S0.0000
G1 S0.0549
G0 X46.92 S0.0000
G1 S0.0039
G0 X46.12 S0.0000
G1 X46.02 S0.0157
X45.82 S0.1882
X45.72 S0.0118
G0 X44.92 S0.0000
G1 S0.0275
G0 X44.32 S0.0000
G1 X44.22 S0.0784
X44.12 S0.0941
G0 X43.72 S0.0000
G1 S0.0824
