G21         ; Set units to mm
G90         ; Absolute positioning


; Pass 0

; First Move
G0 X50.71 Y19.48 ; Generated by LaserWeb (lw.raster-to-gcode.js)
; Size       : 0 x 0 mm
; PPI        : x: 300 - y: 300
; PPM        : x: 0.0846666667 - y: 0.0846666667
; Tool diam. : 0.2 mm
; Feed rate  : 80 mm/min
; Beam range : 0 to 1
; Beam power : 0 to 100 %
; Options    : trimLine, joinPixel

G1 F80

G0 X50.71 Y19.48 S0.0000
G1 S0.2118
G0 X50.31 Y20.08 S0.0000
G1 S0.0667
G0 X48.71 S0.0000
G1 S0.1412
G0 X49.91 Y20.28 S0.0000
G1 S0.0392
G0 X50.11 Y20.88 S0.0000
G1 S0.0157
G0 X49.51 S0.0000
G1 S0.0353
G0 X50.91 Y21.28 S0.0000
G1 S0.0078
G0 X44.11 Y22.08 S0.0000
G1 S0.1686
G0 X43.91 Y22.48 S0.0000
G1 S0.1098
G0 X56.91 S0.0000
G1 X57.01 S0.4588
X57.11 S0.1647
G0 X56.51 Y22.68 S0.0000
G1 S0.2392
G0 X43.91 S0.0000
G1 X43.81 S0.0039
X43.71 S0.0275
G0 X48.51 Y23.28 S0.0000
G1 X48.61 S0.0275
X48.81 S0.1608
X48.91 S0.1451
G0 X50.51 S0.0000
G1 S0.0196
G0 X51.11 S0.0000
G1 S0.3569
G0 X52.11 S0.0000
G1 X52.21 S0.1922
X52.31 S0.1647
G0 Y23.48 S0.0000
G1 X52.21 S0.6745
X52.11 S0.4118
G0 X50.11 S0.0000
G1 S0.0235
G0 X49.71 S0.0000
G1 S0.1059
G0 X48.51 S0.0000
G1 S0.2941
G0 X43.31 S0.0000
G1 S0.4863
G0 X43.11 Y23.68 S0.0000
G1 S0.0353
G0 X45.91 S0.0000
G1 X46.01 S0.0039
X46.11 S0.0078
G0 X48.11 S0.0000
G1 X48.21 S0.2392
X48.31 S0.0588
G0 X49.11 S0.0000
G1 S0.0392
G0 X49.71 S0.0000
G1 X49.81 S0.0275
X50.01 S0.1176
X50.11 S0.0902
G0 X50.51 S0.0000
G1 S0.0314
G0 X51.51 S0.0000
G1 X51.61 S0.0196
X51.71 S0.0039
G0 X52.31 S0.0000
G1 X52.41 S0.2078
X52.61 S0.2549
X52.71 S0.1098
G0 X53.31 S0.0000
G1 S0.0235
G0 Y23.88 S0.0000
G1 S0.0784
G0 X51.71 S0.0000
G1 X51.61 S0.0118
X51.51 S0.0667
G0 X51.11 S0.0000
G1 X51.01 S0.1294
X50.81 S0.4353
X50.71 S0.4392
G0 X49.71 S0.0000
G1 X49.61 S0.0980
X49.41 S0.1373
X49.21 S0.1529
X49.11 S0.0039
G0 X48.11 S0.0000
G1 S0.0392
G0 X46.11 S0.0000
G1 X46.01 S0.0196
X45.81 S0.0157
X45.71 S0.2627
G0 X43.11 Y24.08 S0.0000
G1 S0.0510
G0 X44.71 S0.0000
G1 X44.81 S0.0039
X44.91 S0.0510
G0 X47.51 S0.0000
G1 X47.61 S0.0078
X47.81 S0.1255
X47.91 S0.0941
G0 X48.31 S0.0000
G1 X48.41 S0.2627
X48.61 S0.3608
X48.71 S0.1333
G0 X49.31 S0.0000
G1 X49.41 S0.0078
X49.61 S0.0784
X49.81 S0.1176
X50.01 S0.7137
X50.21 S0.9882
X50.31 S0.1176
G0 X53.51 S0.0000
G1 S0.0039
G0 X54.31 S0.0000
G1 X54.41 S0.0706
X54.51 S0.1020
G0 X54.91 Y24.28 S0.0000
G1 S0.0941
G0 X52.91 S0.0000
G1 X51.61 S0.3020
X51.51 S0.2118
G0 X50.31 S0.0000
G1 X50.21 S0.2078
X50.01 S0.7608
X49.81 S0.8980
X49.61 S0.0980
X49.41 S0.3412
X49.21 S0.4941
X49.01 S0.6078
X48.81 S0.3020
X48.71 S0.2549
G0 X47.71 S0.0000
G1 X47.61 S0.2000
X47.41 S0.5020
X47.31 S0.3137
G0 X45.11 Y24.48 S0.0000
G1 S0.1843
G0 X46.91 S0.0000
G1 X47.01 S0.2118
X47.21 S0.0353
X47.31 S0.0039
G0 X48.11 S0.0000
G1 X48.21 S0.2549
X48.41 S0.2471
X48.61 S0.1608
X48.71 S0.0863
G0 X49.11 S0.0000
G1 X49.21 S0.6745
X49.41 S0.3961
X49.61 S0.2196
X49.71 S0.0863
G0 X50.31 S0.0000
G1 X50.41 S0.0275
X50.61 S0.3059
X50.81 S0.1647
X51.01 S0.0275
X51.11 S0.0314
G0 X53.11 S0.0000
G1 X53.21 S0.0941
X53.41 S0.1137
X53.61 S0.2431
X53.71 S0.0549
G0 X55.31 Y24.68 S0.0000
G1 S0.0471
G0 X53.91 S0.0000
G1 S0.2275
G0 X53.51 S0.0000
G1 X53.41 S0.0039
X53.21 S0.0353
X53.01 S0.0824
X52.81 S0.0039
X52.71 S0.3333
G0 X51.91 S0.0000
G1 X51.81 S0.2549
X51.61 S0.3333
X51.41 S0.2314
X51.21 S0.0510
X51.01 S0.2941
X50.81 S0.0745
X50.71 S0.1059
G0 X50.11 S0.0000
G1 X50.01 S0.2039
X49.81 S0.4000
X49.61 S0.4824
X49.51 S0.1176
G0 X48.91 S0.0000
G1 X48.81 S0.2863
X48.61 S0.1882
X48.41 S0.3451
X48.31 S0.1255
G0 X47.51 S0.0000
G1 X47.41 S0.3176
X47.21 S0.4784
X47.11 S0.1373
G0 X46.71 S0.0000
G1 X46.61 S0.0706
X46.51 S0.5059
G0 X43.71 S0.0000
G1 S0.2902
G0 X44.11 Y24.88 S0.0000
G1 S0.0118
G0 X46.71 S0.0000
G1 X46.81 S0.2275
X47.01 S0.2627
X47.21 S0.0745
X47.31 S0.1529
G0 X47.91 S0.0000
G1 X48.01 S0.2549
X48.21 S0.5294
X48.31 S0.2118
G0 X48.91 S0.0000
G1 X49.01 S0.2627
X49.21 S0.5686
X49.41 S0.5529
X49.51 S0.2275
G0 X49.91 S0.0000
G1 X50.01 S0.0510
X50.21 S0.2000
X50.41 S0.2235
X50.61 S0.2471
X50.71 S0.0078
G0 X51.51 S0.0000
G1 S0.0510
G0 X52.71 S0.0000
G1 X52.81 S0.1490
X52.91 S0.2627
G0 X53.51 S0.0000
G1 X53.61 S0.0039
X53.81 S0.1804
X53.91 S0.0471
G0 X54.51 S0.0000
G1 S0.1882
G0 X54.71 Y25.08 S0.0000
G1 S0.1843
G0 X53.51 S0.0000
G1 X53.41 S0.0039
X53.21 S0.1255
X53.11 S0.0431
G0 X51.11 S0.0000
G1 X51.01 S0.0078
X50.81 S0.0157
X50.61 S0.2745
X50.41 S0.0980
X50.31 S0.0196
G0 X49.91 S0.0000
G1 X49.81 S0.0431
X49.61 S0.3373
X49.51 S0.0824
G0 X48.91 S0.0000
G1 X48.81 S0.1333
X48.61 S0.5647
X48.51 S0.6667
G0 X47.91 S0.0000
G1 X47.81 S0.0118
X47.71 S0.0039
G0 X47.31 S0.0000
G1 X47.21 S0.2196
X47.01 S0.7020
X46.81 S0.0314
X46.61 S0.2039
X46.51 S0.4235
G0 X45.31 S0.0000
G1 S0.5020
G0 X44.11 S0.0000
G1 S0.0039
G0 X45.11 Y25.28 S0.0000
G1 X45.21 S0.1882
X45.41 S0.0118
X45.51 S0.0510
G0 X46.71 S0.0000
G1 X46.81 S0.2471
X46.91 S0.2235
G0 X47.71 S0.0000
G1 X47.81 S0.3765
X48.01 S0.3608
X48.21 S0.6588
X48.31 S0.1686
G0 X48.91 S0.0000
G1 X49.01 S0.0196
X49.11 S0.1294
G0 X49.51 S0.0000
G1 X49.61 S0.0392
X50.01 S0.0549
X50.11 S0.0078
G0 X50.51 S0.0000
G1 X50.61 S0.0667
X50.81 S0.0118
X51.01 S0.1725
X51.21 S0.3569
X51.41 S0.4235
X51.51 S0.0824
G0 X52.31 S0.0000
G1 X52.41 S0.3490
X52.61 S0.4235
X52.81 S0.4314
X53.01 S0.6314
X53.21 S0.3176
X53.31 S0.0627
G0 X53.71 S0.0000
G1 X53.81 S0.3529
X53.91 S0.0588
G0 X54.91 S0.0000
G1 S0.1569
G0 X55.31 Y25.48 S0.0000
G1 S0.0588
G0 X54.31 S0.0000
G1 X54.21 S0.2118
X54.11 S0.2000
G0 X53.71 S0.0000
G1 X53.61 S0.0235
X53.41 S0.5647
X53.31 S0.3020
G0 X52.71 S0.0000
G1 X52.61 S0.1137
X52.41 S0.2196
X51.21 S0.1922
X51.01 S0.2588
X50.91 S0.0118
G0 X50.51 S0.0000
G1 X50.41 S0.0157
X50.21 S0.0431
X50.01 S0.2549
X49.91 S0.0902
G0 X49.51 S0.0000
G1 X49.41 S0.1412
X49.21 S0.2549
X49.11 S0.1647
G0 X48.71 S0.0000
G1 X48.61 S0.0667
X48.41 S0.0588
X48.31 S0.0353
G0 X47.91 S0.0000
G1 X47.81 S0.0118
X47.61 S0.3725
X47.51 S0.0118
G0 X47.11 S0.0000
G1 X47.01 S0.1098
X46.91 S0.0314
G0 X46.31 S0.0000
G1 X46.21 S0.0784
X46.11 S0.2980
G0 X45.51 S0.0000
G1 X45.41 S0.1098
X45.31 S0.0980
G0 X45.51 Y25.68 S0.0000
G1 S0.3804
G0 X47.71 S0.0000
G1 X47.91 S0.0078
G0 X48.71 S0.0000
G1 X48.81 S0.1922
X48.91 S0.1020
G0 X49.51 S0.0000
G1 X49.61 S0.0784
X49.71 S0.2784
G0 X50.31 S0.0000
G1 X50.41 S0.0353
X50.61 S0.2471
X50.81 S0.6431
X50.91 S0.3176
G0 X52.71 S0.0000
G1 X52.81 S0.1451
X53.01 S0.6824
X53.11 S0.1373
G0 X53.71 S0.0000
G1 X53.81 S0.0392
X53.91 S0.2824
G0 X54.51 S0.0000
G1 S0.1647
G0 X55.11 Y25.88 S0.0000
G1 S0.0039
G0 X54.71 S0.0000
G1 S0.2196
G0 X54.31 S0.0000
G1 X54.21 S0.0784
X54.11 S0.3412
G0 X53.71 S0.0000
G1 X53.61 S0.0902
X53.41 S0.3333
X53.21 S0.4863
X53.11 S0.0039
G0 X52.71 S0.0000
G1 X52.61 S0.1020
X52.41 S0.1451
X52.21 S0.2196
X52.11 S0.2824
G0 X51.31 S0.0000
G1 X51.21 S0.2196
X51.01 S0.1373
X50.91 S0.0392
G0 X50.51 S0.0000
G1 X50.41 S0.0039
X50.21 S0.2588
X50.01 S0.7020
X49.81 S0.4078
X49.71 S0.1490
G0 X49.31 S0.0000
G1 X49.21 S0.0078
X49.01 S0.2745
X48.91 S0.1216
G0 X48.51 S0.0000
G1 X48.41 S0.0078
X48.21 S0.3098
X48.11 S0.0471
G0 X45.71 S0.0000
G1 S0.2118
G0 X45.31 S0.0000
G1 S0.2157
G0 X43.51 S0.0000
G1 S0.0941
G0 Y26.08 S0.0000
G1 X43.61 S0.0157
X43.71 S0.0549
G0 X45.11 S0.0000
G1 S0.1333
G0 X45.51 S0.0000
G1 X45.61 S0.6157
X45.71 S0.1294
G0 X46.71 S0.0000
G1 S0.6353
G0 X47.51 S0.0000
G1 X47.61 S0.1020
X47.81 S0.3686
X48.01 S0.1176
X48.11 S0.0078
G0 X48.51 S0.0000
G1 X48.61 S0.3137
X48.81 S0.0902
X48.91 S0.0196
G0 X49.31 S0.0000
G1 X49.41 S0.2588
X49.61 S0.5843
X49.81 S0.2196
X49.91 S0.0353
G0 X50.31 S0.0000
G1 X50.41 S0.0235
X50.61 S0.4510
X50.81 S0.9137
X51.01 S0.9059
X51.21 S0.8627
X51.41 S0.8824
X51.61 S0.7020
X51.81 S0.7176
X52.01 S0.1216
X52.11 S0.0471
G0 X52.51 S0.0000
G1 X52.61 S0.0196
X52.81 S0.2078
X53.01 S0.6627
X53.21 S0.1216
X53.41 S0.0078
X53.61 S0.0471
X53.81 S0.3961
X53.91 S0.7412
G0 X54.31 S0.0000
G1 X54.41 S0.0824
X54.51 S0.1961
G0 X57.11 Y26.28 S0.0000
G1 S0.0118
G0 X55.51 S0.0000
G1 S0.0078
G0 X54.91 S0.0000
G1 X54.81 S0.0078
X54.71 S0.3137
G0 X54.31 S0.0000
G1 X54.21 S0.0431
X54.01 S0.8902
X53.81 S0.0196
X53.61 S0.0039
X53.41 S0.0902
X53.21 S0.8510
X53.11 S0.1020
G0 X52.71 S0.0000
G1 X52.61 S0.0235
X52.41 S0.0824
X52.21 S0.9255
X52.01 S0.7686
X51.81 S0.1569
X51.71 S0.0235
G0 X51.11 S0.0000
G1 X51.01 S0.0157
X50.81 S0.0078
X50.61 S0.0314
X50.41 S0.5373
X50.01 S0.9137
X49.91 S0.0549
G0 X49.31 S0.0000
G1 X49.21 S0.0196
X49.01 S0.5647
X48.81 S0.4275
X48.71 S0.0235
G0 X48.31 S0.0000
G1 X48.21 S0.1137
X48.01 S0.5020
X47.91 S0.0157
G0 X45.91 S0.0000
G1 X45.81 S0.3922
X45.61 S0.0549
X45.41 S0.0039
X45.31 S0.6157
G0 X43.51 S0.0000
G1 S0.1412
G0 X43.11 S0.0000
G1 S0.1725
G0 X41.91 Y26.48 S0.0000
G1 S0.0275
G0 X42.91 S0.0000
G1 S0.0941
G0 X43.71 S0.0000
G1 X43.81 S0.1804
X43.91 S0.0078
G0 X44.91 S0.0000
G1 X45.01 S0.0275
X45.21 S0.5098
X45.41 S0.0196
X45.61 S0.2039
X45.81 S0.2353
X45.91 S0.0235
G0 X47.31 S0.0000
G1 X47.41 S0.0078
X47.61 S0.3843
X47.81 S0.2824
X48.01 S0.0824
X48.21 S0.0118
X48.41 S0.3412
X48.61 S0.6078
X48.81 S0.1922
X48.91 S0.0157
G0 X49.51 S0.0000
G1 X49.61 S0.0471
X49.81 S0.7765
X50.01 S0.4157
X50.21 S0.0745
X50.41 S0.0784
X50.61 S0.4314
X50.81 S0.7216
X51.01 S0.7647
X51.21 S0.8157
X51.41 S0.7765
X51.61 S0.8314
X51.81 S0.8000
X52.01 S0.4000
X52.21 S0.0471
X52.41 S0.0078
X52.61 S0.1843
X52.81 S0.6078
X53.01 S0.4667
X53.11 S0.0471
G0 X53.51 S0.0000
G1 X53.61 S0.4392
X53.81 S0.6275
X54.01 S0.0667
X54.21 S0.0078
X54.41 S0.5255
X54.51 S0.2667
G0 X54.91 S0.0000
G1 X55.01 S0.2353
X55.11 S0.0667
G0 Y26.68 S0.0000
G1 S0.0902
G0 X54.71 S0.0000
G1 X54.61 S0.6471
X54.51 S0.1490
G0 X54.11 S0.0000
G1 X54.01 S0.1569
X53.81 S0.5647
X53.71 S0.0314
G0 X53.31 S0.0000
G1 X53.21 S0.2980
X53.01 S0.4510
X52.91 S0.0627
G0 X52.51 S0.0000
G1 X52.41 S0.2235
X52.21 S0.8353
X52.01 S0.9451
X51.81 S0.4549
X51.61 S0.1176
X51.41 S0.0588
X51.31 S0.0118
G0 X50.71 S0.0000
G1 X50.61 S0.0039
X50.41 S0.0980
X50.21 S0.5882
X50.01 S0.8706
X49.81 S0.2314
X49.61 S0.0235
X49.41 S0.3137
X49.31 S0.4314
G0 X48.31 S0.0000
G1 X48.21 S0.0549
X48.01 S0.2157
X47.91 S0.4431
G0 X47.51 S0.0000
G1 X47.41 S0.0392
X47.31 S0.0549
G0 X45.91 S0.0000
G1 S0.7059
G0 X45.51 S0.0000
G1 X45.41 S0.5765
X45.21 S0.0980
X45.01 S0.0353
X44.91 S0.0824
G0 X43.91 S0.0000
G1 X43.81 S0.2980
X43.71 S0.0275
G0 X41.91 S0.0000
G1 S0.0431
G0 X41.31 S0.0000
G1 X41.21 S0.0039
X41.11 S0.0118
G0 X43.31 Y26.88 S0.0000
G1 S0.1176
G0 X43.71 S0.0000
G1 X43.81 S0.0941
X43.91 S0.0706
G0 X45.11 S0.0000
G1 X45.21 S0.0157
X45.41 S0.6275
X45.61 S0.5373
X45.71 S0.6118
G0 X47.31 S0.0000
G1 X47.41 S0.0235
X47.61 S0.4118
X47.71 S0.1373
G0 X48.91 S0.0000
G1 X49.01 S0.0863
X49.21 S0.7765
X49.41 S0.0784
X49.61 S0.1529
X49.81 S0.8706
X50.01 S0.5529
X50.21 S0.0314
X50.41 S0.1765
X50.61 S0.7451
X50.81 S0.8902
X51.01 S0.8510
X51.21 S0.7686
X51.41 S0.7608
X51.61 S0.6627
X51.81 S0.2118
X52.01 S0.0510
X52.21 S0.0078
X52.41 S0.1373
X52.61 S0.7647
X52.81 S0.9255
X53.01 S0.3843
X53.21 S0.0157
X53.41 S0.1098
X53.61 S0.8902
X53.81 S0.1176
X54.01 S0.0039
X54.21 S0.1725
X54.41 S0.5451
X54.61 S0.0039
X54.81 S0.1020
X55.01 S0.4980
X55.21 S0.0039
X55.41 S0.1255
X55.51 S0.0471
G0 X55.71 Y27.08 S0.0000
G1 X55.61 S0.0118
X55.51 S0.1216
G0 X55.11 S0.0000
G1 X55.01 S0.5529
X54.91 S0.0627
G0 X54.51 S0.0000
G1 X54.41 S0.4510
X54.31 S0.0706
G0 X53.91 S0.0000
G1 X53.81 S0.5961
X53.71 S0.5137
G0 X53.31 S0.0000
G1 X53.21 S0.3176
X53.01 S0.9098
X52.81 S0.5647
X52.71 S0.1333
G0 X52.31 S0.0000
G1 X52.21 S0.5529
X52.01 S0.8667
X51.81 S0.9059
X51.61 S0.4902
X51.41 S0.2902
X51.21 S0.1647
X51.01 S0.0471
X50.81 S0.0510
X50.61 S0.1608
X50.41 S0.2392
X50.21 S0.8667
X50.01 S0.8549
X49.81 S0.3294
X49.61 S0.0824
X49.41 S0.5451
X49.31 S0.5922
G0 X48.91 S0.0000
G1 X48.81 S0.7020
X48.71 S0.6667
G0 X47.31 S0.0000
G1 X47.21 S0.1020
X47.01 S0.0392
X46.91 S0.0039
G0 X45.91 S0.0000
G1 S0.4627
G0 X45.51 S0.0000
G1 X45.41 S0.3412
X45.21 S0.5333
X45.11 S0.3020
G0 X43.11 S0.0000
G1 S0.0118
G0 X42.91 Y27.28 S0.0000
G1 S0.0510
G0 X43.31 S0.0000
G1 X43.41 S0.0471
X43.51 S0.0039
G0 X44.11 S0.0000
G1 S0.0314
G0 X45.31 S0.0000
G1 S0.7804
G0 X45.71 S0.0000
G1 X45.81 S0.7333
X45.91 S0.1294
G0 X48.31 S0.0000
G1 X48.41 S0.6471
X48.61 S0.9961
X48.81 S0.7725
X49.01 S0.0118
X49.21 S0.8353
X49.41 S0.1451
X49.61 S0.1529
X49.81 S0.9137
X50.21 S1.0000
X50.41 S0.9647
X50.81 S0.9294
X51.01 S0.9176
X51.21 S0.6980
X51.41 S0.6078
X51.51 S0.0471
G0 X52.11 S0.0000
G1 X52.21 S0.0784
X52.41 S0.5608
X52.61 S0.9804
X52.81 S0.6039
X53.01 S0.0039
X53.21 S0.0824
X53.41 S0.7098
X53.51 S0.7765
G0 X53.91 S0.0000
G1 X54.01 S0.1922
X54.21 S0.9059
X54.31 S0.1529
G0 X54.71 S0.0000
G1 S0.5647
G0 X55.11 S0.0000
G1 X55.21 S0.0235
X55.31 S0.2627
G0 X55.71 S0.0000
G1 S0.0980
G0 X56.11 Y27.48 S0.0000
G1 X56.01 S0.0745
X55.81 S0.1098
X55.61 S0.0039
X55.51 S0.4941
G0 X55.11 S0.0000
G1 X55.01 S0.0196
X54.91 S0.5020
G0 X54.51 S0.0000
G1 X54.41 S0.1451
X54.21 S0.8196
X54.01 S0.0196
X53.81 S0.1765
X53.61 S0.8157
X53.41 S0.2157
X53.21 S0.0039
X53.01 S0.3725
X52.81 S0.9725
X52.61 S0.6039
X52.41 S0.0745
X52.21 S0.0196
X52.01 S0.3569
X51.81 S0.7843
X51.41 S1.0000
X51.21 S0.9686
X51.01 S0.8510
X50.81 S0.6667
X50.61 S0.4471
X50.41 S0.5020
X50.21 S0.6431
X50.01 S0.6941
X49.81 S0.7765
X49.61 S0.9412
X49.41 S0.9882
X49.21 S0.6314
X49.01 S0.7804
X48.81 S0.8784
X48.61 S0.5451
X48.41 S0.8235
X48.31 S0.1451
G0 X46.51 S0.0000
G1 S0.1059
G0 X45.91 S0.0000
G1 X45.81 S0.0706
X45.61 S0.1216
X45.41 S0.7333
X45.31 S0.4471
G0 X43.91 S0.0000
G1 X43.81 S0.1490
X43.71 S0.0157
G0 X42.71 S0.0000
G1 S0.1216
G0 X40.71 S0.0000
G1 S0.1059
G0 X43.71 Y27.68 S0.0000
G1 S0.1294
G0 X44.11 S0.0000
G1 S0.0078
G0 X45.31 S0.0000
G1 X45.41 S0.7686
X45.61 S0.0941
X45.71 S0.2392
G0 X47.91 S0.0000
G1 X48.01 S0.3255
X48.11 S0.0667
G0 X48.71 S0.0000
G1 X48.81 S0.4941
X49.21 S1.0000
X49.41 S0.3882
X49.51 S0.1020
G0 X50.51 S0.0000
G1 S0.0078
G0 X51.31 S0.0000
G1 X51.41 S0.0275
X51.61 S0.2196
X51.81 S0.4902
X52.01 S0.8863
X52.21 S1.0000
X52.41 S0.9529
X52.51 S0.5098
G0 X52.91 S0.0000
G1 X53.01 S0.2000
X53.21 S0.8980
X53.41 S0.7882
X53.61 S0.0784
X53.81 S0.0196
X54.01 S0.5569
X54.21 S0.4235
X54.41 S0.0196
X54.61 S0.7098
X54.71 S0.3569
G0 X55.11 S0.0000
G1 S0.1961
G0 X55.71 S0.0000
G1 S0.2510
G0 X56.11 S0.0000
G1 S0.4196
G0 X56.51 S0.0000
G1 X56.61 S0.0863
X56.71 S0.0627
G0 Y27.88 S0.0000
G1 S0.0078
G0 X56.31 S0.0000
G1 S0.3961
G0 X55.91 S0.0000
G1 S0.6353
G0 X55.31 S0.0000
G1 S0.3412
G0 X54.91 S0.0000
G1 X54.81 S0.4549
X54.71 S0.6353
G0 X54.31 S0.0000
G1 X54.21 S0.5922
X54.11 S0.2784
G0 X53.71 S0.0000
G1 X53.61 S0.4745
X53.41 S1.0000
X53.21 S0.6118
X53.01 S0.0039
X52.81 S0.2863
X52.61 S0.9765
X52.41 S1.0000
X52.21 S0.7725
X52.11 S0.0902
G0 X51.71 S0.0000
G1 X51.61 S0.1137
X51.41 S0.5098
X51.21 S0.9686
X51.01 S0.9922
X49.81 S1.0000
X49.61 S0.9922
X49.41 S0.9843
X49.21 S0.9686
X49.01 S1.0000
X48.91 S0.5137
G0 X48.31 S0.0000
G1 X48.21 S0.3373
X48.01 S0.7725
X47.81 S0.0275
X47.71 S0.1098
G0 X47.31 S0.0000
G1 X47.21 S0.4431
X47.11 S0.0510
G0 X45.71 S0.0000
G1 X45.61 S0.8235
X45.51 S0.1961
G0 X43.51 S0.0000
G1 S0.1725
G0 X40.71 Y28.08 S0.0000
G1 S0.1765
G0 X43.11 S0.0000
G1 X43.21 S0.0118
X43.31 S0.1294
G0 X43.91 S0.0000
