G21         ; Set units to mm
G90         ; Absolute positioning


; Pass 0

; First Move
G0 X52.74 Y19.21 ; Generated by LaserWeb (lw.raster-to-gcode.js)
; Size       : 0 x 0 mm
; PPI        : x: 300 - y: 300
; PPM        : x: 0.0846666667 - y: 0.0846666667
; Tool diam. : 0.2 mm
; Feed rate  : 80 mm/min
; Beam range : 0 to 1
; Beam power : 0 to 100 %
; Options    : trimLine, joinPixel

G1 F80

G0 X52.74 Y19.21 S0.0000
G1 S0.0196
G0 X56.34 Y19.41 S0.0000
G1 S0.0824
G0 X54.94 S0.0000
G1 S0.0275
G0 X53.94 S0.0000
G1 S0.2667
G0 X50.14 Y19.61 S0.0000
G1 X50.24 S0.0118
X50.34 S0.1373
G0 X50.74 S0.0000
G1 S0.1686
G0 X51.74 S0.0000
G1 S0.2706
G0 X56.34 Y19.81 S0.0000
G1 S0.0824
G0 X55.74 S0.0000
G1 S0.1059
G0 X55.14 S0.0000
G1 X55.04 S0.1412
X52.04 S0.1647
X51.84 S0.1137
X51.64 S0.3725
X51.24 S0.3765
X51.04 S0.6392
X50.84 S0.2000
X50.74 S0.0157
G0 X50.34 S0.0000
G1 S0.0078
G0 X49.34 S0.0000
G1 X49.24 S0.1137
X49.14 S0.0510
G0 X49.94 Y20.01 S0.0000
G1 X50.04 S0.1804
X50.14 S0.3882
G0 X54.14 S0.0000
G1 S0.0745
G0 X54.54 S0.0000
G1 S0.5255
G0 X54.94 S0.0000
G1 S0.4863
G0 X51.14 Y20.21 S0.0000
G1 X51.04 S0.0118
X50.84 S0.3490
X50.64 S0.3412
X50.44 S0.0078
X50.34 S0.1176
G0 X49.94 S0.0000
G1 S0.0902
G0 X48.34 S0.0000
G1 X48.24 S0.0275
X48.04 S0.2000
X47.94 S0.0118
G0 X48.94 Y20.41 S0.0000
G1 X49.04 S0.0471
X49.24 S0.4863
X49.44 S0.5686
X49.64 S0.0745
X49.84 S0.0353
X49.94 S0.0235
G0 X50.54 S0.0000
G1 X50.64 S0.0039
X50.84 S0.0941
X51.04 S0.0745
X51.14 S0.0078
G0 X51.54 S0.0000
G1 X51.64 S0.3451
X51.74 S0.1490
G0 X52.34 S0.0000
G1 X52.44 S0.3098
X52.64 S0.5686
X52.84 S0.0980
X53.34 S0.0745
G0 X55.14 S0.0000
G1 S0.0118
G0 X57.54 S0.0000
G1 S0.0235
G0 X57.74 Y20.61 S0.0000
G1 X57.64 S0.1020
X57.54 S0.0275
G0 X57.14 S0.0000
G1 X57.04 S0.0157
X56.94 S0.2000
G0 X55.34 S0.0000
G1 X55.24 S0.0157
X55.14 S0.0471
G0 X54.74 S0.0000
G1 X54.64 S0.0667
X54.44 S0.1137
X54.34 S0.1020
G0 X53.14 S0.0000
G1 S0.0510
G0 X52.14 S0.0000
G1 X52.04 S0.0471
X51.94 S0.0157
G0 X50.74 S0.0000
G1 X50.64 S0.0549
X50.44 S0.0588
X50.24 S0.4980
X50.04 S0.5255
X49.84 S0.2471
X49.64 S0.1137
X49.54 S0.0471
G0 X48.94 S0.0000
G1 X48.84 S0.0039
X48.64 S0.1412
X48.44 S0.1059
X48.24 S0.0941
X48.14 S0.0235
G0 X47.74 S0.0000
G1 S0.0235
G0 X46.74 Y20.81 S0.0000
G1 S0.0235
G0 X47.14 S0.0000
G1 S0.0157
G0 X47.94 S0.0000
G1 X48.04 S0.0235
X48.24 S0.0745
X48.34 S0.0078
G0 X48.74 S0.0000
G1 X48.84 S0.0196
X49.04 S0.0039
X49.24 S0.1412
X49.44 S0.1216
X49.54 S0.0941
G0 X50.14 S0.0000
G1 X50.24 S0.0039
X50.44 S0.0392
X50.64 S0.0078
X50.84 S0.3882
X51.24 S0.3961
X51.44 S0.1804
X51.84 S0.2196
X52.04 S0.0980
X52.14 S0.0941
G0 X55.14 S0.0000
G1 X55.24 S0.0941
X55.44 S0.0314
X55.64 S0.0941
X55.74 S0.2078
G0 X56.34 S0.0000
G1 S0.2510
G0 X57.34 S0.0000
G1 S0.0353
G0 X57.74 S0.0000
G1 S0.0627
G0 X58.14 Y21.01 S0.0000
G1 X58.04 S0.1608
X57.94 S0.0235
G0 X56.54 S0.0000
G1 X56.44 S0.1647
X56.24 S0.0039
X56.14 S0.0196
G0 X54.94 S0.0000
G1 S0.5412
G0 X54.54 S0.0000
G1 X54.44 S0.0196
X54.34 S0.0941
G0 X52.94 S0.0000
G1 X52.84 S0.1059
X52.74 S0.0863
G0 X52.34 S0.0000
G1 X52.14 S0.6235
G0 X50.54 S0.0000
G1 X50.44 S0.0039
X50.34 S0.0196
G0 X49.94 S0.0000
G1 X49.84 S0.1059
X49.64 S0.0549
X49.44 S0.6157
X49.34 S0.4667
G0 X48.74 S0.0000
G1 S0.0118
G0 X47.14 S0.0000
G1 X47.04 S0.0078
X46.84 S0.0196
X46.64 S0.0118
X46.54 S0.0392
G0 X45.94 S0.0000
G1 S0.0196
G0 X47.94 Y21.21 S0.0000
G1 X48.04 S0.0078
X48.14 S0.0235
G0 X48.54 S0.0000
G1 X48.64 S0.0078
X48.84 S0.0745
X48.94 S0.1725
G0 X49.74 S0.0000
G1 X49.84 S0.0157
X50.04 S0.2392
X50.24 S0.2588
X50.44 S0.3490
X50.64 S0.2353
X51.04 S0.1725
X51.14 S0.0078
G0 X52.54 S0.0000
G1 X52.64 S0.0039
X54.54 S0.0157
G0 X55.34 S0.0000
G1 X55.44 S0.0627
X55.64 S0.1765
X55.84 S0.0667
X55.94 S0.0039
G0 X56.34 S0.0000
G1 X56.44 S0.1098
X56.64 S0.0118
X56.84 S0.0275
X56.94 S0.4863
G0 X57.34 S0.0000
G1 X57.44 S0.0118
X57.54 S0.1412
G0 X58.14 S0.0000
G1 X58.24 S0.0784
X58.34 S0.0157
G0 X57.74 Y21.41 S0.0000
G1 X57.64 S0.1137
X57.54 S0.0667
G0 X57.14 S0.0000
G1 X57.04 S0.3647
X56.94 S0.0549
G0 X56.54 S0.0000
G1 S0.1608
G0 X55.94 S0.0000
G1 S0.1059
G0 X54.94 S0.0000
G1 S0.0235
G0 X54.54 S0.0000
G1 X54.44 S0.1255
X52.64 S0.1333
X52.44 S0.0392
X51.64 S0.1882
X51.44 S0.4235
X51.04 S0.4275
X50.94 S0.0431
G0 X49.94 S0.0000
G1 X49.84 S0.0353
X49.74 S0.1333
G0 X49.34 S0.0000
G1 X49.24 S0.2392
X49.14 S0.1098
G0 X44.54 Y21.61 S0.0000
G1 S0.0078
G0 X45.14 S0.0000
G1 S0.0196
G0 X48.54 S0.0000
G1 X48.64 S0.0118
X48.84 S0.3608
X48.94 S0.0902
G0 X49.74 S0.0000
G1 X49.84 S0.0235
X50.04 S0.4667
X50.24 S0.3412
X50.44 S0.2588
X50.54 S0.0471
G0 X51.34 S0.0000
G1 S0.0235
G0 X52.94 S0.0000
G1 S0.1020
G0 X54.74 S0.0000
G1 X54.84 S0.0078
X54.94 S0.0039
G0 X55.54 S0.0000
G1 X55.64 S0.1412
X55.74 S0.2471
G0 X56.34 S0.0000
G1 S0.1569
G0 X56.74 S0.0000
G1 X56.84 S0.0275
X56.94 S0.0549
G0 X57.34 S0.0000
G1 S0.3725
G0 X58.54 S0.0000
G1 X58.64 S0.1922
X58.74 S0.0078
G0 Y21.81 S0.0000
G1 S0.1922
G0 X57.54 S0.0000
G1 X57.44 S0.2471
X57.24 S0.0078
X57.04 S0.0549
X56.94 S0.1059
G0 X56.54 S0.0000
G1 S0.1294
G0 X55.94 S0.0000
G1 S0.0706
G0 X55.34 S0.0000
G1 X55.24 S0.1725
X55.04 S0.2510
X54.94 S0.2235
G0 X51.34 S0.0000
G1 X51.24 S0.1882
X51.04 S0.2471
X50.84 S0.0235
X50.64 S0.2471
X50.44 S0.0431
X50.34 S0.1961
G0 X49.54 S0.0000
G1 X49.44 S0.1373
X49.24 S0.1725
X49.14 S0.0627
G0 X48.34 S0.0000
G1 X48.24 S0.0353
X48.04 S0.1294
X47.94 S0.0118
G0 X45.54 S0.0000
G1 X45.44 S0.0314
X45.34 S0.2039
G0 X44.94 S0.0000
G1 S0.0784
G0 X47.14 Y22.01 S0.0000
G1 S0.0667
G0 X48.34 S0.0000
G1 X48.44 S0.0510
X48.54 S0.0549
G0 X49.94 S0.0000
G1 S0.0980
G0 X51.34 S0.0000
G1 S0.1412
G0 X54.34 S0.0000
G1 X54.44 S0.1804
X54.64 S0.2431
X54.84 S0.3529
X54.94 S0.1412
G0 X55.54 S0.0000
G1 S0.0627
G0 X56.34 S0.0000
G1 X56.44 S0.1451
X56.54 S0.0941
G0 X56.94 S0.0000
G1 X57.04 S0.1725
X57.24 S0.1137
X57.34 S0.4353
G0 X57.74 S0.0000
G1 S0.3098
G0 X58.94 S0.0000
G1 S0.1686
G0 X59.34 S0.0000
G1 S0.0353
G0 X59.14 Y22.21 S0.0000
G1 X59.04 S0.1843
X58.94 S0.0118
G0 X58.54 S0.0000
G1 S0.0314
G0 X57.94 S0.0000
G1 S0.1451
G0 X57.54 S0.0000
G1 X57.44 S0.1961
X57.24 S0.0667
X57.04 S0.1255
X56.84 S0.0392
X56.74 S0.2627
G0 X56.14 S0.0000
G1 S0.0902
G0 X55.54 S0.0000
G1 X55.44 S0.0941
X55.24 S0.3490
X55.14 S0.0549
G0 X54.34 S0.0000
G1 X54.24 S0.0235
X54.04 S0.0706
X53.84 S0.0039
X53.74 S0.2706
G0 X53.34 S0.0000
G1 X53.04 S0.3922
X52.94 S0.0431
G0 X51.34 S0.0000
G1 S0.0667
G0 X50.34 S0.0000
G1 X50.24 S0.2039
X50.14 S0.1176
G0 X48.74 S0.0000
G1 X48.64 S0.0196
X48.54 S0.0039
G0 X47.94 S0.0000
G1 S0.3333
G0 X47.54 S0.0000
G1 S0.0588
G0 X45.74 S0.0000
G1 S0.2392
G0 X44.74 S0.0000
G1 S0.1882
G0 X43.54 S0.0000
G1 S0.0235
G0 X44.34 Y22.41 S0.0000
G1 X44.44 S0.0471
X44.54 S0.5804
G0 X47.34 S0.0000
G1 X47.54 S0.0039
G0 X48.54 S0.0000
G1 X48.64 S0.1922
X48.74 S0.0667
G0 X50.14 S0.0000
G1 X50.24 S0.0118
X50.44 S0.2157
X50.64 S0.2235
X50.74 S0.0353
G0 X54.54 S0.0000
G1 X54.64 S0.0196
X54.74 S0.0784
G0 X55.74 S0.0000
G1 X55.84 S0.2980
X55.94 S0.2157
G0 X56.34 S0.0000
G1 X56.44 S0.1020
X56.64 S0.0667
X56.84 S0.0078
X57.04 S0.2039
X57.14 S0.0078
G0 X57.54 S0.0000
G1 X57.64 S0.1569
X57.84 S0.0706
X58.04 S0.0667
X58.14 S0.1412
G0 X58.54 S0.0000
G1 S0.1176
G0 X59.14 S0.0000
G1 X59.24 S0.1255
X59.34 S0.0667
G0 Y22.61 S0.0000
G1 S0.3686
G0 X58.74 S0.0000
G1 S0.2392
G0 X58.34 S0.0000
G1 X58.24 S0.0118
X58.14 S0.2784
G0 X57.74 S0.0000
G1 X57.64 S0.0784
X57.44 S0.0471
X57.24 S0.0078
X57.14 S0.3137
G0 X56.54 S0.0000
G1 X56.44 S0.1255
X56.24 S0.1529
X56.14 S0.1882
G0 X55.54 S0.0000
G1 S0.1059
G0 X53.94 S0.0000
G1 S0.1137
G0 X51.74 S0.0000
G1 X51.64 S0.1020
X51.44 S0.3882
X51.24 S0.3216
X51.04 S0.2431
X50.94 S0.2196
G0 X50.14 S0.0000
G1 X50.04 S0.0784
X49.84 S0.0863
X49.64 S0.3843
X49.44 S0.1294
X49.34 S0.1804
G0 X48.34 S0.0000
G1 X48.24 S0.0471
X48.14 S0.0275
G0 X47.14 S0.0000
G1 S0.0980
G0 X44.74 S0.0000
G1 S0.1569
G0 X44.34 S0.0000
G1 X44.24 S0.2078
X44.14 S0.1098
G0 X43.74 S0.0000
G1 S0.1882
G0 X43.94 Y22.81 S0.0000
G1 S0.2667
G0 X44.34 S0.0000
G1 X44.44 S0.2314
X44.54 S0.0078
G0 X46.94 S0.0000
G1 S0.0902
G0 X47.54 S0.0000
G1 X47.64 S0.0118
X47.84 S0.0431
X48.04 S0.4196
X48.24 S0.0078
X48.44 S0.0196
X48.64 S0.0314
X48.84 S0.2510
X48.94 S0.1725
G0 X49.74 S0.0000
G1 X49.84 S0.0667
X50.04 S0.1686
X50.24 S0.1451
X50.34 S0.2588
G0 X50.74 S0.0000
G1 X50.84 S0.0863
X50.94 S0.0784
G0 X51.34 S0.0000
G1 X51.44 S0.0078
X51.64 S0.1725
X51.74 S0.0471
G0 X52.34 S0.0000
G1 X52.44 S0.2667
X53.44 S0.4902
X53.64 S0.4392
X53.84 S0.1020
X54.24 S0.1725
X54.44 S0.1137
X54.64 S0.0863
X54.74 S0.0510
G0 X55.34 S0.0000
G1 X55.44 S0.3020
X55.54 S0.0588
G0 X55.94 S0.0000
G1 X56.04 S0.3451
X56.14 S0.0863
G0 X56.74 S0.0000
G1 X56.84 S0.0392
X56.94 S0.0706
G0 X57.34 S0.0000
G1 X57.44 S0.7922
X57.64 S0.5333
X57.84 S0.0078
X58.04 S0.2627
X58.24 S0.0235
X58.34 S0.4392
G0 X58.74 S0.0000
G1 X58.84 S0.1725
X58.94 S0.0588
G0 X59.54 S0.0000
G1 S0.7059
G0 X59.74 Y23.01 S0.0000
G1 X59.64 S0.3490
X59.54 S0.0431
G0 X58.94 S0.0000
G1 S0.2314
G0 X58.54 S0.0000
G1 S0.1412
G0 X58.14 S0.0000
G1 S0.0039
G0 X57.74 S0.0000
G1 X57.64 S0.0745
X57.44 S0.1451
X57.24 S0.0118
X57.04 S0.0706
X56.94 S0.6902
G0 X56.14 S0.0000
G1 X56.04 S0.0118
X55.84 S0.1961
X55.64 S0.3059
X55.54 S0.0039
G0 X55.14 S0.0000
G1 X55.04 S0.1020
X54.84 S0.1255
X54.64 S0.1373
X54.44 S0.0118
X54.34 S0.0078
G0 X52.74 S0.0000
G1 X51.94 S0.1529
G0 X50.94 S0.0000
G1 X50.84 S0.0078
X50.74 S0.0118
G0 X49.94 S0.0000
G1 X49.84 S0.1137
X49.64 S0.0078
X49.44 S0.1647
X49.24 S0.2078
X49.04 S0.2275
X48.94 S0.1451
G0 X48.14 S0.0000
G1 S0.1294
G0 X47.74 S0.0000
G1 X47.64 S0.0039
X47.24 S0.2667
X47.14 S0.0431
G0 X44.34 S0.0000
G1 X44.24 S0.1451
X44.14 S0.2510
G0 X43.74 S0.0000
G1 X43.64 S0.2863
X43.54 S0.0196
G0 Y23.21 S0.0000
G1 S0.3176
G0 X43.94 S0.0000
G1 X44.04 S0.1961
X44.14 S0.0078
G0 X46.54 S0.0000
G1 S0.2196
G0 X47.14 S0.0000
G1 S0.0039
G0 X48.34 S0.0000
G1 X48.44 S0.0980
X48.64 S0.5765
X48.84 S0.0392
X49.04 S0.0157
X49.24 S0.0039
X49.44 S0.0275
X49.64 S0.3137
X49.84 S0.0314
X49.94 S0.0078
G0 X50.54 S0.0000
G1 X50.64 S0.1020
X50.84 S0.0863
X51.04 S0.5294
X51.14 S0.5922
G0 X51.54 S0.0000
G1 X51.84 S0.0392
X52.74 S0.0118
G0 X53.94 S0.0000
G1 X54.04 S0.0392
X54.24 S0.0039
X54.44 S0.4078
X54.64 S0.1216
X54.84 S0.0784
X54.94 S0.0157
G0 X55.74 S0.0000
G1 X55.84 S0.0549
X56.04 S0.0078
X56.14 S0.1647
G0 X56.94 S0.0000
G1 X57.04 S0.0039
X57.24 S0.5137
X57.44 S0.0157
X57.64 S0.0196
X57.84 S0.0745
X57.94 S0.2431
G0 X58.34 S0.0000
G1 S0.3098
G0 X59.14 S0.0000
G1 S0.2549
G0 X59.74 S0.0000
G1 X59.84 S0.1098
X59.94 S0.2353
G0 X60.14 Y23.41 S0.0000
G1 X60.04 S0.1529
X59.74 S0.0275
G0 X59.34 S0.0000
G1 X59.24 S0.2078
X59.14 S0.0078
G0 X58.54 S0.0000
G1 S0.0235
G0 X58.14 S0.0000
G1 S0.0196
G0 X57.74 S0.0000
G1 S0.3490
G0 X57.14 S0.0000
G1 X57.04 S0.0078
X56.84 S0.1686
X56.64 S0.0157
X56.44 S0.0863
X56.24 S0.0078
X56.14 S0.0235
G0 X55.54 S0.0000
G1 X55.44 S0.0667
X55.24 S0.2157
X54.94 S0.0824
G0 X54.14 S0.0000
G1 S0.3294
G0 X52.94 S0.0000
G1 X52.34 S0.0314
G0 X51.74 S0.0000
G1 X51.64 S0.1333
X51.44 S0.4980
X51.24 S0.1608
X51.04 S0.1451
X50.84 S0.0863
X50.64 S0.0745
X50.44 S0.0588
X50.24 S0.0157
X50.04 S0.0118
X49.84 S0.3725
X49.64 S0.1451
X49.54 S0.0745
G0 X49.14 S0.0000
G1 X49.04 S0.0118
X48.84 S0.0275
X48.64 S0.0314
X48.54 S0.0471
G0 X48.14 S0.0000
G1 X48.04 S0.0157
X47.84 S0.0196
X47.64 S0.3843
X47.54 S0.0196
G0 X46.94 S0.0000
G1 S0.0196
G0 X46.34 S0.0000
G1 S0.0078
G0 X44.34 S0.0000
G1 X44.24 S0.1961
X44.14 S0.1020
G0 X43.74 S0.0000
G1 X43.64 S0.2078
X43.44 S0.0078
X43.24 S0.0941
X43.14 S0.0745
G0 X42.74 S0.0000
G1 S0.1020
G0 X42.54 Y23.61 S0.0000
G1 X42.64 S0.1647
X42.84 S0.0471
X43.04 S0.0627
X43.14 S0.0863
G0 X43.54 S0.0000
G1 S0.2941
G0 X44.14 S0.0000
G1 X44.24 S0.0431
X44.34 S0.0118
G0 X46.74 S0.0000
G1 X46.84 S0.4000
X46.94 S0.1216
G0 X47.34 S0.0000
G1 S0.0824
G0 X47.94 S0.0000
G1 X48.04 S0.0745
X48.24 S0.2353
X48.44 S0.0392
X48.54 S0.0157
G0 X48.94 S0.0000
G1 X49.04 S0.0784
X49.24 S0.4824
X49.44 S0.4588
X49.54 S0.0706
G0 X49.94 S0.0000
G1 X50.04 S0.1373
X50.24 S0.0118
X50.44 S0.1922
X50.64 S0.0902
X50.84 S0.0706
X51.04 S0.0510
X51.44 S0.0627
X51.64 S0.5373
X52.44 S0.4235
X52.84 S0.6784
X52.94 S0.1176
G0 X53.54 S0.0000
G1 X53.64 S0.1176
X54.24 S0.4235
X54.44 S0.1294
X54.54 S0.0627
G0 X54.94 S0.0000
G1 S0.0588
G0 X55.34 S0.0000
G1 X55.44 S0.0235
X55.64 S0.0627
X55.84 S0.3020
X56.04 S0.0235
X56.24 S0.0196
X56.44 S0.1059
X56.64 S0.0157
X56.84 S0.2039
X57.04 S0.0118
X57.14 S0.0314
G0 X57.94 S0.0000
G1 X58.04 S0.2706
X58.24 S0.1059
X58.44 S0.0471
X58.64 S0.0667
X58.74 S0.1451
G0 X59.34 S0.0000
G1 X59.44 S0.0627
X59.84 S0.0510
X59.94 S0.0549
G0 X59.74 Y23.81 S0.0000
G1 X59.54 S0.0471
G0 X58.94 S0.0000
G1 X58.84 S0.0078
X58.74 S0.0196
G0 X58.34 S0.0000
G1 X58.24 S0.0314
X58.14 S0.0157
G0 X57.54 S0.0000
G1 X57.44 S0.3529
X57.24 S0.0235
X57.04 S0.0588
X56.84 S0.0941
X56.74 S0.0039
G0 X56.34 S0.0000
G1 X56.24 S0.0039
X56.04 S0.4902
X55.84 S0.0196
X55.64 S0.0039
X55.44 S0.0275
X55.24 S0.0039
X55.04 S0.5725
X54.94 S0.0235
G0 X54.34 S0.0000
G1 X53.84 S0.0039
X53.04 S0.0078
X52.84 S0.5569
X52.64 S0.9098
X52.44 S0.5569
X51.44 S0.0078
X51.04 S0.0039
X50.84 S0.0588
X50.64 S0.0627
X50.44 S0.6196
X50.24 S0.6745
X50.04 S0.2706
X49.84 S0.0078
X49.44 S0.0039
X49.24 S0.0627
X49.04 S0.0157
X48.84 S0.9412
X48.64 S0.0471
X48.44 S0.5412
X48.24 S0.0078
X48.14 S0.0039
G0 X47.74 S0.0000
G1 X47.64 S0.0980
X47.54 S0.2627
G0 X46.14 S0.0000
G1 S0.5216
G0 X45.54 S0.0000
G1 S0.4667
G0 X44.34 S0.0000
G1 S0.2902
G0 X43.74 S0.0000
G1 X43.64 S0.8667
X43.44 S0.0039
X43.34 S0.2627
G0 X41.74 Y24.01 S0.0000
G1 X41.84 S0.0039
X42.04 S0.0196
X42.14 S0.0157
G0 X42.54 S0.0000
G1 X42.64 S0.0980
X42.74 S0.0510
G0 X43.54 S0.0000
G1 X43.64 S0.3373
X43.84 S0.0510
X44.04 S0.0118
X44.14 S0.2392
G0 X45.34 S0.0000
G1 X45.44 S0.0078
X45.54 S0.0157
G0 X46.14 S0.0000
G1 X46.24 S0.0784
X46.44 S0.0078
X46.54 S0.1255
G0 X47.14 S0.0000
G1 S0.1686
G0 X47.54 S0.0000
G1 S0.0118
G0 X48.14 S0.0000
G1 S0.1098
G0 X48.54 S0.0000
G1 X48.64 S0.2980
X48.84 S0.4118
X49.04 S0.0471
X49.24 S0.0863
X49.44 S0.2863
X49.64 S0.4078
X49.74 S0.1373
G0 X50.14 S0.0000
G1 X50.24 S0.0392
X50.44 S0.1882
X50.64 S0.3490
X50.84 S0.3294
X51.04 S0.2902
X51.24 S0.1373
X51.34 S0.0980
G0 X51.94 S0.0000
G1 X52.04 S0.0275
X52.24 S0.0314
X52.64 S0.0275
X52.84 S0.3059
X53.04 S0.3686
X53.24 S0.2863
X53.64 S0.0275
X53.84 S0.0392
X54.04 S0.1333
X54.44 S0.1373
X54.64 S0.3333
X54.84 S0.4235
X54.94 S0.0588
G0 X55.34 S0.0000
G1 X55.44 S0.0941
X55.64 S0.3137
X55.84 S0.0235
X55.94 S0.1882
G0 X56.34 S0.0000
G1 X56.44 S0.1961
X56.64 S0.0392
X56.74 S0.1216
G0 X57.14 S0.0000
G1 X57.24 S0.1098
X57.34 S0.0588
G0 X57.74 S0.0000
G1 X57.84 S0.0314
X57.94 S0.0118
G0 X58.54 S0.0000
G1 X58.64 S0.0588
X58.84 S0.0078
X59.04 S0.0510
X59.14 S0.1451
G0 X59.74 S0.0000
G1 S0.0471
G0 X60.34 S0.0000
G1 S0.0157
G0 X60.54 Y24.21 S0.0000
G1 X60.44 S0.0039
X60.34 S0.0549
G0 X59.34 S0.0000
G1 X59.24 S0.1569
X59.14 S0.0588
G0 X58.74 S0.0000
G1 S0.2588
G0 X58.14 S0.0000
G1 X58.04 S0.1255
X57.94 S0.0784
G0 X57.34 S0.0000
G1 S0.0863
G0 X56.54 S0.0000
G1 S0.2000
G0 X56.14 S0.0000
G1 S0.0471
G0 X55.74 S0.0000
G1 X55.64 S0.2353
X55.54 S0.0431
G0 X55.14 S0.0000
G1 X55.04 S0.3882
