G21         ; Set units to mm
G90         ; Absolute positioning


; Pass 0

; First Move
G0 X52.27 Y-16.52 
; Generated by LaserWeb (lw.raster-to-gcode.js)
; Size       : 0 x 0 mm
; PPI        : x: 300 - y: 300
; PPM        : x: 0.0846666667 - y: 0.0846666667
; Tool diam. : 0.2 mm
; Feed rate  : 4999 mm/min
; Beam range : 0 to 1
; Beam power : 0 to 100 %
; Options    : trimLine, joinPixel

G1 F4999

G0 X52.27 Y-16.52 S0.0000
G1 X52.37 S0.1373
X54.97 S0.3765
X55.07 S0.2314
G0 X80.67 S0.0000
G1 X80.77 S0.2824
X83.37 S0.3765
X83.47 S0.0824
G0 X108.87 S0.0000
G1 X108.97 S0.2157
X111.57 S0.3765
X111.67 S0.1569
G0 X137.07 S0.0000
G1 X137.17 S0.1451
X139.77 S0.3765
X139.87 S0.2235
G0 X165.27 S0.0000
G1 X165.37 S0.0784
X168.17 S0.3765
X168.27 S0.1098
G0 X168.87 Y-16.32 S0.0000
G1 X168.77 S0.0275
X168.57 S0.1020
X168.37 S0.8824
X168.17 S0.9176
X165.37 S1.0000
X165.17 S0.9059
X164.97 S0.8824
X164.77 S0.1176
X164.67 S0.0235
G0 X140.47 S0.0000
G1 X140.37 S0.0588
X140.17 S0.3686
X139.97 S0.8824
X139.77 S0.9529
X137.17 S1.0000
X136.97 S0.9294
X136.77 S0.8824
X136.57 S0.1333
X136.37 S0.0824
X136.27 S0.0078
G0 X112.27 S0.0000
G1 X112.17 S0.0392
X111.97 S0.2784
X111.77 S0.8824
X111.57 S0.9333
X108.97 S1.0000
X108.77 S0.9490
X108.57 S0.8824
X108.37 S0.8667
X108.17 S0.0863
X108.07 S0.0118
G0 X84.07 S0.0000
G1 X83.97 S0.0863
X83.77 S0.1725
X83.57 S0.8824
X83.37 S0.9098
X80.77 S1.0000
X80.57 S0.9686
X80.37 S0.8824
X80.17 S0.8745
X79.97 S0.1686
X79.87 S0.0196
G0 X55.47 S0.0000
G1 X55.37 S0.3490
X55.17 S0.8824
X54.97 S0.9569
X52.37 S1.0000
X52.17 S0.9255
X51.97 S0.8824
X51.77 S0.2510
X51.67 S0.0863
G0 X51.27 Y-16.12 S0.0000
G1 X51.37 S0.1294
X51.57 S0.6118
X55.57 S1.0000
X55.97 S0.6118
X56.07 S0.2510
G0 X79.67 S0.0000
G1 X79.77 S0.3529
X79.97 S0.6941
X84.17 S1.0000
X84.37 S0.6118
X84.47 S0.0980
G0 X107.87 S0.0000
G1 X107.97 S0.2353
X108.17 S0.6588
X112.17 S1.0000
X112.37 S0.7961
X112.47 S0.5176
G0 X136.07 S0.0000
G1 X136.17 S0.1020
X136.37 S0.6431
X136.57 S0.9961
X140.37 S1.0000
X140.57 S0.8745
X140.77 S0.6118
X140.87 S0.2588
G0 X164.47 S0.0000
G1 X164.57 S0.3333
X164.77 S0.7216
X168.77 S1.0000
X168.97 S0.7490
X169.17 S0.6118
X169.27 S0.0196
G0 X169.67 Y-15.92 S0.0000
G1 X169.57 S0.0157
X169.37 S0.2980
X169.17 S0.9373
X164.57 S1.0000
X164.37 S0.9804
X164.17 S0.8941
X163.97 S0.2824
X163.87 S0.0118
G0 X141.27 S0.0000
G1 X141.17 S0.2706
X140.97 S0.8078
X140.77 S0.9765
X136.17 S1.0000
X135.97 S0.9647
X135.77 S0.6196
X135.67 S0.2275
G0 X113.07 S0.0000
G1 X112.97 S0.0235
X112.77 S0.3137
X112.57 S0.9137
X112.37 S0.9922
X107.97 S1.0000
X107.77 S0.9725
X107.57 S0.7451
X107.47 S0.2941
G0 X84.67 S0.0000
G1 X84.57 S0.5176
X84.37 S0.9647
X79.77 S1.0000
X79.57 S0.9804
X79.37 S0.8196
X79.27 S0.3020
G0 X56.47 S0.0000
G1 X56.37 S0.0471
X56.17 S0.3176
X55.97 S0.9686
X51.37 S1.0000
X51.17 S0.9647
X50.97 S0.6353
X50.87 S0.2392
G0 X50.47 Y-15.72 S0.0000
G1 X50.57 S0.0588
X50.77 S0.2549
X50.97 S0.9569
X52.17 S1.0000
X52.37 S0.9804
X54.77 S0.9490
X54.97 S0.9451
X55.17 S0.9765
X55.37 S0.9961
X56.37 S1.0000
X56.57 S0.8275
X56.77 S0.4392
X56.97 S0.1020
X57.07 S0.0196
G0 X78.67 S0.0000
G1 X78.77 S0.0392
X78.97 S0.2118
X79.17 S0.7961
X80.37 S1.0000
X80.57 S0.9961
X80.77 S0.9569
X83.37 S0.9490
X83.57 S0.9922
X84.77 S1.0000
X84.97 S0.7961
X85.07 S0.2196
G0 X107.07 S0.0000
G1 X107.17 S0.1255
X107.37 S0.7765
X107.57 S0.9961
X108.77 S1.0000
X108.97 S0.9804
X109.17 S0.9451
X111.57 S0.9490
X111.77 S0.9725
X112.97 S1.0000
X113.17 S0.8118
X113.37 S0.2863
X113.47 S0.0627
G0 X135.27 S0.0000
G1 X135.37 S0.0549
X135.57 S0.7529
X135.77 S0.9529
X136.97 S1.0000
X137.17 S0.9843
X137.37 S0.9451
X139.77 S0.9490
X139.97 S0.9725
X141.17 S1.0000
X141.37 S0.9765
X141.47 S0.4431
G0 X163.47 S0.0000
G1 X163.57 S0.0353
X163.77 S0.1255
X163.97 S0.8039
X164.17 S0.9882
X165.17 S1.0000
X165.37 S0.9843
X165.57 S0.9451
X167.97 S0.9490
X168.17 S0.9529
X168.37 S0.9922
X169.37 S1.0000
X169.57 S0.9961
X169.77 S0.5686
X169.87 S0.0941
G0 X170.27 Y-15.52 S0.0000
G1 X170.17 S0.0275
X169.97 S0.5412
X169.77 S0.9686
X168.77 S1.0000
X168.57 S0.9922
X168.37 S0.8118
X168.17 S0.6863
X167.97 S0.3098
X165.37 S0.2706
X165.17 S0.6118
X164.97 S0.7529
X164.77 S0.9686
X163.57 S1.0000
X163.37 S0.7059
X163.27 S0.3451
G0 X141.87 S0.0000
G1 X141.77 S0.1569
X141.57 S0.5412
X140.57 S1.0000
X140.37 S0.9961
X140.17 S0.9216
X139.97 S0.7490
X139.77 S0.4706
X137.17 S0.2706
X136.97 S0.5804
X136.77 S0.7843
X136.57 S0.9725
X136.37 S0.9961
X135.37 S1.0000
X135.17 S0.7961
X135.07 S0.0314
G0 X113.67 S0.0000
G1 X113.57 S0.0784
X113.37 S0.8275
X112.37 S1.0000
X112.17 S0.9961
X111.97 S0.9294
X111.77 S0.7647
X111.57 S0.4863
X109.17 S0.2706
X108.97 S0.2667
X108.77 S0.5882
X108.57 S0.7529
X108.37 S0.8392
X107.17 S1.0000
X106.97 S0.8627
X106.87 S0.5412
G0 X85.27 S0.0000
G1 X85.17 S0.5451
X84.97 S0.9333
X84.17 S1.0000
X83.97 S0.9922
X83.77 S0.9843
X83.57 S0.8000
X83.37 S0.7098
X83.17 S0.2980
X80.77 S0.2706
X80.57 S0.3647
X80.37 S0.7490
X80.17 S0.7608
X79.97 S0.9647
X78.77 S1.0000
X78.57 S0.7098
X78.47 S0.3843
G0 X57.07 S0.0000
G1 X56.97 S0.6235
X55.57 S1.0000
X55.37 S0.9333
X55.17 S0.7569
X54.97 S0.4941
X54.77 S0.2627
X52.57 S0.2706
X52.37 S0.2745
X52.17 S0.5882
X51.97 S0.7647
X51.77 S0.9529
X51.57 S0.9922
X50.57 S1.0000
X50.37 S0.8078
X50.27 S0.0745
G0 X50.07 Y-15.32 S0.0000
G1 X50.17 S0.4314
X50.37 S0.9843
X51.17 S1.0000
X51.37 S0.9843
X51.57 S0.8980
X51.77 S0.5137
X51.97 S0.3647
X52.17 S0.0235
X52.27 S0.0078
G0 X54.87 S0.0000
G1 X55.17 S0.0039
X55.37 S0.0353
X55.57 S0.2784
X55.77 S0.7216
X55.97 S0.8745
X56.17 S0.9804
X57.17 S1.0000
X57.37 S0.6235
X57.47 S0.0275
G0 X78.27 S0.0000
G1 X78.37 S0.3020
X78.57 S0.9961
X79.37 S1.0000
X79.57 S0.9961
X79.77 S0.9412
X79.97 S0.8000
X80.17 S0.3608
X80.37 S0.0314
X80.57 S0.0078
X80.67 S0.0039
G0 X83.47 S0.0000
G1 X83.57 S0.0078
X83.77 S0.0824
X83.97 S0.4235
X84.17 S0.6196
X84.37 S0.9333
X84.57 S0.9922
X85.37 S1.0000
X85.57 S0.9843
X85.67 S0.3451
G0 X106.47 S0.0000
G1 X106.57 S0.1529
X106.77 S0.5804
X107.77 S1.0000
X107.97 S0.9843
X108.17 S0.8941
X108.37 S0.5569
X108.57 S0.1412
X108.87 S0.0078
G0 X111.67 S0.0000
G1 X111.77 S0.0039
X111.97 S0.0157
X112.17 S0.2902
X112.37 S0.6863
X112.57 S0.9098
X112.77 S0.9961
X113.57 S1.0000
X113.77 S0.9843
X113.87 S0.4667
G0 X134.67 S0.0000
G1 X134.77 S0.0039
X134.97 S0.4471
X135.17 S0.9843
X135.97 S1.0000
X136.17 S0.9882
X136.37 S0.8745
X136.57 S0.5608
X136.77 S0.3843
X136.97 S0.0627
X137.17 S0.0078
X137.27 S0.0039
G0 X139.87 S0.0000
G1 X139.97 S0.0039
X140.17 S0.0118
X140.37 S0.2902
X140.57 S0.6588
X140.77 S0.8784
X140.97 S0.9686
X141.77 S1.0000
X141.97 S0.9216
X142.17 S0.2275
X142.27 S0.0039
G0 X163.07 S0.0000
G1 X163.17 S0.2941
X163.37 S0.9922
X164.17 S1.0000
X164.37 S0.9961
X164.57 S0.9412
X164.77 S0.7529
X164.97 S0.4000
X165.27 S0.0078
G0 X168.07 S0.0000
G1 X168.17 S0.0039
X168.37 S0.0078
X168.57 S0.1216
X168.77 S0.4196
X168.97 S0.8431
X169.17 S0.9137
X170.17 S1.0000
X170.37 S0.7725
X170.47 S0.1882
G0 X170.87 Y-15.12 S0.0000
G1 X170.77 S0.0039
X170.57 S0.4157
X170.37 S0.9765
X169.57 S1.0000
X169.37 S0.9647
X169.17 S0.8706
X168.97 S0.2588
X168.77 S0.1176
X168.67 S0.0118
G0 X164.67 S0.0000
G1 X164.57 S0.0941
X164.37 S0.3294
X164.17 S0.6549
X163.97 S0.9451
X163.77 S0.9961
X163.17 S1.0000
X162.97 S0.9765
X162.77 S0.7333
X162.67 S0.0941
G0 X142.47 S0.0000
G1 X142.37 S0.0314
X142.17 S0.6745
X141.37 S1.0000
X141.17 S0.9686
X140.97 S0.8000
X140.77 S0.4353
X140.57 S0.1412
X140.37 S0.0588
X140.27 S0.0039
G0 X136.47 S0.0000
G1 X136.37 S0.0392
X136.17 S0.1961
X135.97 S0.4902
X135.77 S0.8863
X135.57 S0.9843
X134.97 S1.0000
X134.77 S0.9843
X134.57 S0.4863
X134.47 S0.0941
G0 X114.27 S0.0000
G1 X114.17 S0.0824
X113.97 S0.5412
X113.17 S1.0000
X112.97 S0.9961
X112.77 S0.9373
X112.57 S0.6157
X112.37 S0.2392
X112.27 S0.0667
G0 X108.27 S0.0000
G1 X108.17 S0.0235
X107.97 S0.1725
X107.77 S0.5373
X107.57 S0.8588
X107.37 S0.9804
X106.57 S1.0000
X106.37 S0.9333
X106.27 S0.2392
G0 X86.07 S0.0000
G1 X85.97 S0.0039
X85.77 S0.4000
X85.57 S0.9765
X84.77 S1.0000
X84.57 S0.9412
X84.37 S0.6235
X84.17 S0.2392
X84.07 S0.0471
G0 X80.07 S0.0000
G1 X79.97 S0.0039
X79.77 S0.0941
X79.57 S0.3490
X79.37 S0.6902
X79.17 S0.9451
X78.37 S1.0000
X78.17 S0.9765
X77.97 S0.7216
X77.87 S0.1059
G0 X57.67 S0.0000
G1 X57.57 S0.0235
X57.37 S0.6196
X56.57 S1.0000
X56.37 S0.9961
X56.17 S0.9373
X55.97 S0.6157
X55.77 S0.1412
X55.67 S0.0745
G0 X51.67 S0.0000
G1 X51.57 S0.0196
X51.37 S0.1686
X51.17 S0.5176
X50.97 S0.8549
X50.77 S0.9804
X50.57 S1.0000
X50.37 S0.9922
X50.17 S0.9882
X49.97 S0.9961
X49.77 S0.5098
X49.67 S0.0824
G0 X49.47 Y-14.92 S0.0000
G1 X49.57 S0.1686
X49.77 S0.9098
X49.97 S1.0000
X50.17 S0.9765
X50.37 S0.9294
X50.57 S0.9608
X50.77 S0.8863
X50.97 S0.5451
X51.17 S0.1647
X51.27 S0.0078
G0 X56.07 S0.0000
G1 X56.17 S0.0784
X56.37 S0.2784
X56.57 S0.6510
X56.77 S0.9608
X56.97 S0.9882
X57.57 S1.0000
X57.77 S0.6078
X57.87 S0.2863
G0 X77.67 S0.0000
G1 X77.77 S0.0627
X77.97 S0.8510
X78.57 S1.0000
X78.77 S0.9961
X78.97 S0.9686
X79.17 S0.7373
X79.37 S0.3216
X79.47 S0.0784
G0 X84.47 S0.0000
G1 X84.57 S0.0431
X84.77 S0.4588
X84.97 S0.8275
X85.17 S0.9843
X85.77 S1.0000
X85.97 S0.9961
X86.07 S0.3961
G0 X106.07 S0.0000
G1 X106.17 S0.2627
X106.37 S0.9882
X106.97 S1.0000
X107.17 S0.9922
X107.37 S0.8784
X107.57 S0.5529
X107.77 S0.1882
X107.87 S0.0118
G0 X112.67 S0.0000
G1 X112.77 S0.0431
X112.97 S0.2667
X113.17 S0.6902
X113.37 S0.9412
X113.57 S0.9961
X114.17 S1.0000
X114.37 S0.9216
X114.47 S0.1922
G0 X134.27 S0.0000
G1 X134.37 S0.1804
X134.57 S0.9765
X135.17 S1.0000
X135.37 S0.9922
X135.57 S0.8824
X135.77 S0.5882
X135.97 S0.1647
X136.07 S0.0078
G0 X141.07 S0.0000
G1 X141.17 S0.1216
X141.37 S0.4902
X141.57 S0.9569
X142.37 S1.0000
X142.57 S0.6353
X142.67 S0.2863
G0 X162.47 S0.0000
G1 X162.57 S0.1020
X162.77 S0.8510
X163.57 S1.0000
X163.77 S0.9843
X163.97 S0.7333
X164.17 S0.3294
X164.27 S0.0392
G0 X169.27 S0.0000
G1 X169.37 S0.1804
X169.57 S0.4863
X169.77 S0.7961
X169.97 S0.9843
X170.77 S1.0000
X170.87 S0.4039
G0 X171.27 Y-14.72 S0.0000
G1 X171.17 S0.0745
X170.97 S0.9255
X170.37 S1.0000
X170.17 S0.9961
X169.97 S0.8902
X169.77 S0.3961
X169.67 S0.0941
G0 X163.87 S0.0000
G1 X163.77 S0.0353
X163.57 S0.3098
X163.37 S0.7961
X163.17 S0.9725
X162.57 S1.0000
X162.37 S0.9059
X162.27 S0.0588
G0 X142.87 S0.0000
G1 X142.77 S0.2078
X141.97 S1.0000
X141.77 S0.9647
X141.57 S0.8078
X141.37 S0.2353
X141.27 S0.0275
G0 X135.47 S0.0000
G1 X135.37 S0.1882
X135.17 S0.5255
X134.97 S0.9843
X134.37 S1.0000
X134.17 S0.9608
X133.97 S0.1686
X133.87 S0.0118
G0 X114.87 S0.0000
G1 X114.77 S0.0275
X114.57 S0.1216
X113.77 S1.0000
X113.57 S0.9922
X113.37 S0.6980
X113.17 S0.2431
X113.07 S0.0118
G0 X107.47 S0.0000
G1 X107.37 S0.0039
X107.17 S0.1451
X106.97 S0.5882
X106.77 S0.9255
X106.57 S0.9961
X105.97 S1.0000
X105.87 S0.1882
G0 X86.47 S0.0000
G1 X86.37 S0.0667
X85.57 S1.0000
X85.37 S0.9922
X85.17 S0.8902
X84.97 S0.4863
X84.87 S0.0941
G0 X84.57 S0.0000
G1 X84.47 S0.0039
G0 X79.07 S0.0000
G1 X78.97 S0.0353
X78.77 S0.3137
X78.57 S0.7922
X78.37 S0.9647
X77.57 S1.0000
X77.37 S0.1176
X77.27 S0.0118
G0 X58.07 S0.0000
G1 X57.97 S0.2235
X57.37 S1.0000
X57.17 S0.9961
X56.97 S0.9608
X56.77 S0.4039
X56.57 S0.2549
X56.37 S0.0078
X56.27 S0.0039
G0 X50.87 S0.0000
G1 X50.77 S0.0039
X50.57 S0.1255
X50.37 S0.5490
X50.17 S0.9725
X49.97 S1.0000
X49.77 S0.9020
X49.37 S1.0000
X49.17 S0.1216
X49.07 S0.0235
G0 X48.87 Y-14.52 S0.0000
G1 X48.97 S0.0314
X49.17 S0.6784
X49.77 S1.0000
X49.97 S0.9137
X50.17 S0.8235
X50.37 S0.3843
X50.47 S0.0471
G0 X56.87 S0.0000
G1 X56.97 S0.0196
X57.17 S0.3569
X57.37 S0.6627
X57.57 S0.8902
X57.77 S1.0000
X57.97 S0.9412
X58.17 S0.9137
X58.37 S0.2745
X58.47 S0.0471
G0 X77.07 S0.0000
G1 X77.17 S0.0157
X77.37 S0.5647
X77.57 S0.9961
X78.17 S1.0000
X78.37 S0.9490
X78.57 S0.4353
X78.77 S0.0784
X78.87 S0.0078
G0 X85.07 S0.0000
G1 X85.17 S0.0235
X85.37 S0.1686
X85.57 S0.4510
X85.77 S0.9098
X86.37 S1.0000
X86.57 S0.8549
X86.67 S0.1255
G0 X105.67 S0.0000
G1 X105.77 S0.2627
X105.97 S0.9412
X106.37 S1.0000
X106.57 S0.9725
X106.77 S0.7961
X106.97 S0.1804
X107.07 S0.0314
G0 X107.47 S0.0000
G1 X107.57 S0.0039
G0 X113.47 S0.0000
G1 X113.57 S0.1137
X113.77 S0.4863
X113.97 S0.8902
X114.77 S1.0000
X114.97 S0.6941
X115.07 S0.0392
G0 X133.67 S0.0000
G1 X133.77 S0.0275
X133.97 S0.6941
X134.57 S1.0000
X134.77 S0.9961
X134.97 S0.7804
X135.17 S0.4196
X135.27 S0.0392
G0 X141.47 S0.0000
G1 X141.57 S0.0039
X141.77 S0.0667
X141.97 S0.3843
X142.17 S0.9059
X142.77 S1.0000
X142.97 S0.9608
X143.17 S0.6941
X143.27 S0.0549
G0 X162.07 S0.0000
G1 X162.17 S0.0627
X162.37 S0.8353
X162.97 S1.0000
X163.17 S0.9647
X163.37 S0.4784
X163.57 S0.0784
X163.67 S0.0039
G0 X169.87 S0.0000
G1 X169.97 S0.0078
X170.17 S0.1176
X170.37 S0.6627
X170.57 S0.9451
X170.77 S0.9922
X170.97 S1.0000
X171.17 S0.9922
X171.37 S0.8627
X171.47 S0.0667
G0 X171.67 Y-14.32 S0.0000
G1 X171.57 S0.1451
X171.37 S0.9255
X171.17 S1.0000
X170.97 S0.9451
X170.77 S1.0000
X170.57 S0.8549
X170.37 S0.3059
X170.27 S0.0549
G0 X163.27 S0.0000
G1 X163.17 S0.0392
X162.97 S0.4549
X162.77 S0.8157
X162.57 S0.9961
X162.17 S1.0000
X161.97 S0.8706
X161.87 S0.1216
G0 X143.47 S0.0000
G1 X143.37 S0.0824
X143.17 S0.8000
X142.37 S1.0000
X142.17 S0.7137
X141.97 S0.1490
X141.87 S0.0196
G0 X135.07 S0.0000
G1 X134.97 S0.0078
X134.77 S0.1569
X134.57 S0.7843
X134.37 S0.9804
X133.77 S1.0000
X133.57 S0.6510
X133.47 S0.0275
G0 X115.27 S0.0000
G1 X115.17 S0.0039
X114.97 S0.6824
X114.77 S0.9961
X114.37 S1.0000
X114.17 S0.9961
X113.97 S0.9059
X113.77 S0.3373
X113.67 S0.0196
G0 X106.67 S0.0000
G1 X106.57 S0.0784
X106.37 S0.4902
X106.17 S0.9686
X105.77 S1.0000
X105.57 S0.9569
X105.47 S0.2706
G0 X86.87 S0.0000
G1 X86.77 S0.1098
X86.57 S0.8549
X85.97 S1.0000
X85.77 S0.9255
X85.57 S0.3451
X85.47 S0.0078
G0 X78.47 S0.0000
G1 X78.37 S0.0353
X78.17 S0.4157
X77.97 S0.7922
X77.77 S0.9922
X77.37 S1.0000
X77.17 S0.9922
X77.07 S0.5451
G0 X58.67 S0.0000
G1 X58.57 S0.0588
X58.37 S0.7922
X58.17 S0.9804
X57.97 S0.9137
X57.77 S0.9961
X57.57 S0.9922
X57.37 S0.6549
X57.17 S0.0667
X57.07 S0.0039
G0 X50.27 S0.0000
G1 X50.17 S0.0078
X49.97 S0.1490
X49.77 S0.8157
X49.57 S0.9882
X49.17 S1.0000
X48.97 S0.9961
X48.77 S0.6627
X48.67 S0.0078
G0 X48.47 Y-14.12 S0.0000
G1 X48.57 S0.0157
X48.77 S0.7529
X49.37 S1.0000
X49.57 S0.9804
X49.77 S0.4235
X49.87 S0.0667
G0 X57.47 S0.0000
G1 X57.57 S0.0627
X57.77 S0.6863
X57.97 S0.9373
X58.57 S1.0000
X58.77 S0.8745
X58.87 S0.0353
G0 X76.67 S0.0000
G1 X76.77 S0.0118
X76.97 S0.5765
X77.57 S1.0000
X77.77 S0.9961
X77.97 S0.7765
X78.17 S0.1333
X78.27 S0.0039
G0 X85.67 S0.0000
G1 X85.77 S0.0039
X85.97 S0.3529
X86.17 S0.9569
X86.77 S1.0000
X86.97 S0.9725
X87.07 S0.0549
G0 X105.27 S0.0000
G1 X105.37 S0.1529
X105.57 S0.9882
X105.97 S1.0000
X106.17 S0.9804
X106.37 S0.5490
X106.47 S0.0078
G0 X113.87 S0.0000
G1 X113.97 S0.0039
X114.17 S0.1216
X114.37 S0.6471
X114.57 S0.9922
X115.17 S1.0000
X115.37 S0.8078
X115.47 S0.0196
G0 X133.27 S0.0000
G1 X133.37 S0.0157
X133.57 S0.6941
X134.17 S1.0000
X134.37 S0.9686
X134.57 S0.3373
X134.67 S0.0667
G0 X142.27 S0.0000
G1 X142.37 S0.0392
X142.57 S0.7255
X142.77 S0.9412
X143.37 S1.0000
X143.57 S0.8510
X143.67 S0.0353
G0 X161.67 S0.0000
G1 X161.77 S0.0549
X161.97 S0.8902
X162.37 S1.0000
X162.57 S0.9961
X162.77 S0.8431
X162.97 S0.1137
X163.07 S0.0039
G0 X170.47 S0.0000
G1 X170.57 S0.0039
X170.77 S0.2863
X170.97 S0.9569
X171.17 S0.9765
X171.37 S0.8745
X171.57 S1.0000
X171.77 S0.9255
X171.87 S0.0863
G0 X172.07 Y-13.92 S0.0000
G1 X171.97 S0.0588
X171.77 S0.8667
X171.37 S1.0000
X171.17 S0.9412
X170.97 S0.6471
X170.77 S0.2314
X170.67 S0.0039
G0 X162.67 S0.0000
G1 X162.57 S0.1294
X162.37 S0.4784
X162.17 S0.9725
X161.77 S1.0000
X161.57 S0.8471
X161.37 S0.0196
X161.27 S0.0078
G0 X143.87 S0.0000
G1 X143.77 S0.0157
X143.57 S0.8078
X142.97 S1.0000
X142.77 S0.9373
X142.57 S0.2824
X142.47 S0.0196
G0 X134.47 S0.0000
G1 X134.37 S0.0039
X134.17 S0.4078
X133.97 S0.9373
X133.37 S1.0000
X133.17 S0.6863
X133.07 S0.0078
G0 X115.67 S0.0000
G1 X115.57 S0.0039
X115.37 S0.7176
X114.77 S1.0000
X114.57 S0.9725
X114.37 S0.6471
X114.27 S0.0980
G0 X106.27 S0.0000
G1 X106.17 S0.0039
X105.97 S0.2980
X105.77 S0.8353
X105.37 S1.0000
X105.17 S0.9647
X104.97 S0.6431
X104.87 S0.0392
G0 X87.27 S0.0000
G1 X87.17 S0.1176
X86.97 S0.8706
X86.37 S1.0000
X86.17 S0.7412
X86.07 S0.2667
G0 X77.87 S0.0000
G1 X77.77 S0.1647
X77.57 S0.7804
X77.37 S0.9804
X76.77 S1.0000
X76.67 S0.5725
G0 X59.07 S0.0000
G1 X58.97 S0.0392
X58.77 S0.7922
X58.17 S1.0000
X57.97 S0.8471
X57.77 S0.2706
X57.67 S0.0157
G0 X49.67 S0.0000
G1 X49.57 S0.0196
X49.37 S0.4235
X49.17 S0.9725
X48.97 S0.9922
X48.57 S1.0000
X48.37 S0.7020
X48.27 S0.0118
G0 X48.07 Y-13.72 S0.0000
G1 X48.17 S0.0353
X48.37 S0.6667
X48.97 S1.0000
X49.17 S0.7373
X49.37 S0.1176
X49.47 S0.0157
G0 X57.87 S0.0000
G1 X57.97 S0.0039
X58.17 S0.2980
X58.37 S0.9059
X58.57 S0.9922
X58.97 S1.0000
X59.17 S0.7922
X59.27 S0.0392
G0 X76.47 S0.0000
G1 X76.57 S0.1020
X76.77 S0.8667
X77.17 S1.0000
X77.37 S0.9333
X77.57 S0.4353
X77.77 S0.0275
X77.87 S0.0039
G0 X86.27 S0.0000
G1 X86.37 S0.0235
X86.57 S0.7098
X86.77 S0.9922
X87.17 S1.0000
X87.37 S0.8549
X87.47 S0.1216
G0 X104.67 S0.0000
G1 X104.77 S0.0196
X104.97 S0.7608
X105.57 S1.0000
X105.77 S0.8275
X105.87 S0.1255
G0 X114.47 S0.0000
G1 X114.57 S0.0196
X114.77 S0.2941
X114.97 S0.8745
X115.37 S1.0000
X115.57 S0.9686
X115.67 S0.2039
G0 X133.07 S0.0000
G1 X133.17 S0.4549
X133.37 S0.9961
X133.77 S1.0000
X133.97 S0.7608
X134.17 S0.1412
X134.27 S0.0118
G0 X142.67 S0.0000
G1 X142.77 S0.0039
X142.97 S0.2667
X143.17 S0.7176
X143.37 S0.9961
X143.77 S1.0000
X143.97 S0.8235
X144.07 S0.0902
G0 X161.07 S0.0000
G1 X161.17 S0.0118
X161.37 S0.5333
X161.57 S0.9647
X161.97 S1.0000
X162.17 S0.9922
X162.37 S0.4471
X162.47 S0.0235
G0 X171.07 S0.0000
G1 X171.17 S0.0667
X171.37 S0.6510
X171.97 S1.0000
X172.17 S0.9216
X172.27 S0.1294
G0 X172.47 Y-13.52 S0.0000
G1 X172.37 S0.1098
X172.17 S0.9059
X171.77 S1.0000
X171.57 S0.9843
X171.37 S0.7176
X171.27 S0.0627
G0 X162.27 S0.0000
G1 X162.17 S0.0157
X161.97 S0.4353
X161.77 S0.9725
X161.37 S1.0000
X161.17 S0.9882
X160.97 S0.5490
X160.87 S0.0078
G0 X144.27 S0.0000
G1 X144.17 S0.0588
X143.97 S0.8078
X143.37 S1.0000
X143.17 S0.9451
X143.07 S0.2275
G0 X133.87 S0.0000
G1 X133.77 S0.0824
X133.57 S0.7647
X133.37 S0.9961
X133.17 S1.0000
X132.97 S0.9294
X132.87 S0.1294
G0 X115.87 S0.0000
G1 X115.77 S0.1608
X115.57 S0.9373
X115.17 S1.0000
X114.97 S0.9020
X114.77 S0.3294
X114.67 S0.0118
G0 X105.67 S0.0000
G1 X105.57 S0.1098
X105.37 S0.8667
X104.77 S1.0000
X104.57 S0.8745
X104.47 S0.0510
G0 X87.67 S0.0000
G1 X87.57 S0.0784
X87.37 S0.9098
X86.97 S1.0000
X86.77 S0.9961
X86.57 S0.7373
X86.47 S0.0549
G0 X77.47 S0.0000
G1 X77.37 S0.0235
X77.17 S0.4627
X76.97 S0.9569
X76.57 S1.0000
X76.37 S0.8980
X76.27 S0.0745
G0 X59.27 S0.0000
G1 X59.17 S0.8706
X58.77 S1.0000
X58.57 S0.9922
X58.37 S0.6588
X58.17 S0.1216
X58.07 S0.0078
G0 X49.07 S0.0000
G1 X48.97 S0.3882
X48.77 S0.9725
X48.17 S1.0000
X47.97 S0.6980
X47.87 S0.0235
G0 Y-13.32 S0.0000
G1 X47.97 S0.7020
X48.37 S1.0000
X48.57 S0.9961
X48.77 S0.9725
X48.97 S0.4667
X49.07 S0.0196
G0 X58.47 S0.0000
G1 X58.57 S0.0627
X58.77 S0.6549
X59.17 S1.0000
X59.37 S0.9961
X59.47 S0.2980
G0 X76.07 S0.0000
G1 X76.17 S0.0824
X76.37 S0.8588
X76.77 S1.0000
X76.97 S0.9686
X77.17 S0.5020
X77.27 S0.0353
G0 X86.67 S0.0000
G1 X86.77 S0.0706
X86.97 S0.7686
X87.17 S1.0000
X87.37 S0.9882
X87.57 S0.9804
X87.77 S0.8784
X87.87 S0.1098
G0 X104.27 S0.0000
G1 X104.37 S0.0471
X104.57 S0.6314
X105.17 S1.0000
X105.37 S0.9020
X105.47 S0.1255
G0 X114.87 S0.0000
G1 X114.97 S0.0157
X115.17 S0.3569
X115.37 S0.9412
X115.77 S1.0000
X115.97 S0.9294
X116.07 S0.1608
G0 X132.67 S0.0000
G1 X132.77 S0.1647
X132.97 S0.9137
X133.37 S1.0000
X133.57 S0.7686
X133.67 S0.1294
G0 X143.27 S0.0000
G1 X143.37 S0.3059
X143.57 S0.9216
X143.77 S0.9922
X144.17 S1.0000
X144.27 S0.8039
G0 X160.87 S0.0000
G1 X160.97 S0.5882
X161.17 S1.0000
X161.37 S0.9882
X161.77 S0.9961
X161.97 S0.4196
X162.07 S0.0196
G0 X171.47 S0.0000
G1 X171.57 S0.0471
X171.77 S0.6784
X171.97 S0.9961
X172.37 S1.0000
X172.57 S0.8275
X172.67 S0.0980
G0 X172.87 Y-13.12 S0.0000
G1 X172.77 S0.1216
X172.57 S0.9137
X172.17 S1.0000
X171.97 S0.9490
X171.77 S0.6118
X171.67 S0.0863
G0 X161.87 S0.0000
G1 X161.77 S0.0275
X161.57 S0.5176
X161.37 S0.9804
X161.17 S0.9922
X160.97 S0.9569
X160.77 S0.9961
X160.57 S0.5098
X160.47 S0.0078
G0 X144.67 S0.0000
G1 X144.57 S0.0784
X144.37 S0.2902
X143.77 S1.0000
X143.57 S0.6627
X143.37 S0.0627
X143.27 S0.0039
G0 X133.47 S0.0000
G1 X133.37 S0.1608
X133.17 S0.8118
X132.77 S1.0000
X132.57 S0.9294
X132.47 S0.1569
G0 X116.27 S0.0000
G1 X116.17 S0.1765
X115.97 S0.9843
X115.57 S1.0000
X115.37 S0.9255
X115.17 S0.3765
X115.07 S0.0039
G0 X105.27 S0.0000
G1 X105.17 S0.0706
X104.97 S0.6196
X104.77 S0.9765
X104.57 S1.0000
X104.37 S0.9961
X104.17 S0.7647
X104.07 S0.0392
G0 X88.07 S0.0000
G1 X87.97 S0.1137
X87.77 S0.8863
X87.37 S1.0000
X87.17 S0.9294
X86.97 S0.6392
X86.87 S0.0118
G0 X77.07 S0.0000
G1 X76.97 S0.0078
X76.77 S0.5294
X76.57 S0.9608
X76.17 S1.0000
X75.97 S0.8824
X75.87 S0.1059
G0 X59.67 S0.0000
G1 X59.57 S0.2667
X59.37 S0.9765
X59.17 S1.0000
X58.97 S0.9961
X58.77 S0.6824
X58.67 S0.0627
G0 X48.87 S0.0000
G1 X48.77 S0.0039
X48.57 S0.1098
X48.37 S0.8039
X47.77 S1.0000
X47.57 S0.6784
X47.47 S0.0392
G0 X47.27 Y-12.92 S0.0000
G1 X47.37 S0.0353
X47.57 S0.6745
X47.97 S1.0000
X48.17 S0.9961
X48.37 S0.7882
X48.47 S0.1216
G0 X58.87 S0.0000
G1 X58.97 S0.1020
X59.17 S0.6510
X59.37 S0.9961
X59.57 S0.9216
X59.77 S0.8980
X59.87 S0.2314
G0 X75.67 S0.0000
G1 X75.77 S0.0902
X75.97 S0.8510
X76.37 S1.0000
X76.57 S0.9686
X76.77 S0.5490
X76.87 S0.0431
G0 X87.27 S0.0000
G1 X87.37 S0.3216
X87.57 S0.9922
X87.97 S1.0000
X88.17 S0.8745
X88.27 S0.0902
G0 X103.87 S0.0000
G1 X103.97 S0.0588
X104.17 S0.8118
X104.57 S1.0000
X104.77 S0.9882
X104.97 S0.4863
X105.07 S0.0118
G0 X115.27 S0.0000
G1 X115.37 S0.0196
X115.57 S0.4157
X115.77 S0.9333
X116.17 S1.0000
X116.37 S0.9176
X116.47 S0.2000
G0 X132.27 S0.0000
G1 X132.37 S0.1216
X132.57 S0.9059
X132.77 S1.0000
X132.97 S0.9961
X133.17 S0.8039
X133.37 S0.1725
X133.47 S0.0039
G0 X143.67 S0.0000
G1 X143.77 S0.0667
X143.97 S0.6667
X144.17 S0.9882
X144.57 S1.0000
X144.77 S0.7961
X144.87 S0.0784
G0 X160.47 S0.0000
G1 X160.57 S0.1098
X160.77 S0.9922
X160.97 S1.0000
X161.17 S0.9569
X161.37 S0.8627
X161.57 S0.2353
X161.67 S0.0392
G0 X171.87 S0.0000
G1 X171.97 S0.0118
X172.17 S0.3490
X172.37 S0.9765
X172.57 S1.0000
X172.77 S0.9294
X172.97 S0.8784
X173.07 S0.0235
G0 Y-12.72 S0.0000
G1 X172.97 S0.4275
X172.77 S1.0000
X172.57 S0.9569
X172.37 S0.9961
X172.17 S0.7490
X172.07 S0.0824
G0 X161.47 S0.0000
G1 X161.37 S0.0235
X161.17 S0.5412
X160.97 S0.9843
X160.57 S1.0000
X160.37 S0.8431
X160.27 S0.0824
G0 X145.07 S0.0000
G1 X144.97 S0.0275
X144.77 S0.7882
X144.17 S1.0000
X143.97 S0.7216
X143.87 S0.0706
G0 X133.27 S0.0000
G1 X133.17 S0.0039
X132.97 S0.1961
X132.77 S0.8392
X132.37 S1.0000
X132.17 S0.9412
X132.07 S0.1804
G0 X116.67 S0.0000
G1 X116.57 S0.1804
X116.37 S0.9176
X115.97 S1.0000
X115.77 S0.9451
X115.57 S0.4314
X115.47 S0.0118
G0 X105.07 S0.0000
G1 X104.97 S0.0039
X104.77 S0.1686
X104.57 S0.5216
X103.97 S1.0000
X103.87 S0.4706
G0 X88.27 S0.0000
G1 X88.17 S0.7412
X87.57 S1.0000
X87.37 S0.6588
X87.27 S0.0980
G0 X76.67 S0.0000
G1 X76.57 S0.0510
X76.37 S0.5843
X76.17 S0.9843
X75.77 S1.0000
X75.57 S0.8627
X75.47 S0.0627
G0 X60.07 S0.0000
G1 X59.97 S0.2902
X59.77 S1.0000
X59.57 S0.8863
X59.37 S0.9961
X59.17 S0.8118
X59.07 S0.1137
G0 X48.27 S0.0000
G1 X48.17 S0.1608
X47.97 S0.8196
X47.37 S1.0000
X47.27 S0.6784
G0 X46.87 Y-12.52 S0.0000
G1 X46.97 S0.0314
X47.17 S0.7059
X47.77 S1.0000
X47.97 S0.8627
X48.07 S0.2000
G0 X59.07 S0.0000
G1 X59.17 S0.0235
X59.37 S0.4863
X59.57 S0.9647
X59.97 S1.0000
X60.17 S0.6157
X60.27 S0.0235
G0 X75.27 S0.0000
G1 X75.37 S0.0863
X75.57 S0.9529
X75.97 S1.0000
X76.17 S0.9804
X76.37 S0.6039
X76.47 S0.0039
G0 X87.47 S0.0000
G1 X87.57 S0.0431
X87.77 S0.8078
X87.97 S0.9961
X88.37 S1.0000
X88.47 S0.3216
G0 X103.67 S0.0000
G1 X103.77 S0.2157
X104.37 S1.0000
X104.57 S0.8824
X104.67 S0.1137
G0 X115.67 S0.0000
G1 X115.77 S0.0039
X115.97 S0.4588
X116.17 S0.9608
X116.77 S1.0000
X116.87 S0.1373
G0 X131.87 S0.0000
G1 X131.97 S0.1373
X132.17 S0.9412
X132.57 S1.0000
X132.77 S0.8588
X132.87 S0.2039
G0 X143.87 S0.0000
G1 X143.97 S0.0118
X144.17 S0.4510
X144.37 S0.9608
X144.97 S1.0000
X145.17 S0.8863
X145.27 S0.0549
G0 X160.07 S0.0000
G1 X160.17 S0.0784
X160.37 S0.9020
X160.77 S1.0000
X160.97 S0.9882
X161.17 S0.5608
X161.27 S0.0235
G0 X172.07 S0.0000
G1 X172.17 S0.0039
X172.37 S0.1020
X172.57 S0.7451
X172.77 S0.9765
X173.17 S1.0000
X173.27 S0.3647
G0 X202.47 Y-12.32 S0.0000
G1 X202.37 S0.0980
X199.17 S0.1059
X199.07 S0.0980
G0 X173.47 S0.0000
G1 X173.37 S0.4118
X173.17 S0.9725
X172.97 S0.9804
X172.77 S0.9765
X172.57 S0.7686
X172.47 S0.1490
G0 X161.07 S0.0000
G1 X160.97 S0.0510
X160.77 S0.5569
X160.57 S0.9725
X160.17 S1.0000
X159.97 S0.8431
X159.87 S0.0863
G0 X145.47 S0.0000
G1 X145.37 S0.0118
X145.17 S0.8000
X144.77 S1.0000
X144.57 S0.9882
X144.37 S0.8275
X144.17 S0.4157
X144.07 S0.0314
G0 X132.87 S0.0000
G1 X132.77 S0.0078
X132.57 S0.2431
X132.37 S0.8549
X131.97 S1.0000
X131.77 S0.8941
X131.67 S0.1020
G0 X117.07 S0.0000
G1 X116.97 S0.1412
X116.77 S0.9176
X116.37 S1.0000
X116.17 S0.9961
X115.97 S0.6353
X115.87 S0.0275
G0 X104.47 S0.0000
G1 X104.37 S0.2039
X104.17 S0.8157
X103.97 S0.9804
X103.77 S1.0000
X103.57 S0.9333
X103.47 S0.2510
G0 X88.87 S0.0000
G1 X88.77 S0.0078
X88.57 S0.4039
X88.37 S0.9725
X88.17 S0.9843
X87.97 S0.9961
X87.77 S0.7569
X87.67 S0.1059
G0 X76.27 S0.0000
G1 X76.17 S0.0549
X75.97 S0.5961
X75.77 S0.9725
X75.57 S1.0000
X75.37 S0.9843
X75.17 S0.8353
X75.07 S0.1137
G0 X60.47 S0.0000
G1 X60.37 S0.0235
X60.17 S0.6196
X59.77 S1.0000
X59.57 S0.9020
X59.37 S0.4627
X59.27 S0.0157
G0 X48.07 S0.0000
G1 X47.97 S0.0039
X47.77 S0.1882
X47.57 S0.8275
X47.37 S0.9961
X46.97 S1.0000
X46.77 S0.6745
X46.67 S0.0353
G0 X21.47 S0.0000
G1 X21.37 S0.0039
X17.77 S0.1059
X17.67 S0.0196
G0 X17.07 Y-12.12 S0.0000
G1 X17.17 S0.0980
X17.57 S0.4980
X17.77 S0.5843
X21.17 S0.9922
X21.37 S0.9882
X21.57 S0.5137
X21.77 S0.4980
X21.97 S0.4902
X22.07 S0.0471
G0 X46.67 S0.0000
G1 X46.77 S0.3373
X47.37 S1.0000
X47.57 S0.8902
X47.77 S0.2471
X47.87 S0.0039
G0 X59.47 S0.0000
G1 X59.57 S0.0314
X59.77 S0.4784
X59.97 S0.9725
X60.17 S1.0000
X60.37 S0.9961
X60.47 S0.6157
G0 X75.07 S0.0000
G1 X75.17 S0.6941
X75.37 S1.0000
X75.57 S0.9294
X75.77 S1.0000
X75.97 S0.7098
X76.07 S0.0510
G0 X87.87 S0.0000
G1 X87.97 S0.1176
X88.17 S0.7647
X88.37 S0.9333
X88.57 S0.8745
X88.77 S0.9882
X88.87 S0.4039
G0 X103.27 S0.0000
G1 X103.37 S0.2706
X103.57 S0.9686
X103.97 S1.0000
X104.17 S0.8863
X104.37 S0.2118
X104.47 S0.0039
G0 X116.07 S0.0000
G1 X116.17 S0.1961
X116.37 S0.8196
X116.57 S0.9961
X116.97 S1.0000
X117.07 S0.5176
G0 X131.67 S0.0000
G1 X131.77 S0.9529
X132.17 S1.0000
X132.37 S0.9961
X132.57 S0.4902
X132.67 S0.0196
G0 X144.27 S0.0000
G1 X144.37 S0.0039
X144.57 S0.2627
X144.77 S0.9255
X145.17 S1.0000
X145.37 S0.9922
X145.47 S0.3059
G0 X159.67 S0.0000
G1 X159.77 S0.1098
X159.97 S0.8588
X160.37 S1.0000
X160.57 S0.9804
X160.77 S0.5686
X160.87 S0.0275
G0 X172.67 S0.0000
G1 X172.77 S0.1412
X172.97 S0.6824
X173.17 S0.9098
X173.37 S0.9451
X173.57 S0.9961
X173.67 S0.4196
G0 X198.27 S0.0000
G1 X198.37 S0.1843
X198.97 S0.4980
X199.17 S0.9490
X202.37 S0.9922
X202.57 S0.9529
X203.37 S0.4980
X203.47 S0.0039
G0 X204.47 Y-11.92 S0.0000
G1 X204.37 S0.0078
X204.17 S0.1294
X203.97 S0.1333
X203.77 S0.6431
X197.77 S1.0000
X197.57 S0.4980
X197.17 S0.1333
X197.07 S0.0667
G0 X173.87 S0.0000
G1 X173.77 S0.0353
X173.57 S0.8588
X173.17 S1.0000
X172.97 S0.9647
X172.87 S0.2235
G0 X160.67 S0.0000
G1 X160.57 S0.0157
X160.37 S0.7765
X159.77 S1.0000
X159.67 S0.3059
G0 X145.67 S0.0000
G1 X145.57 S0.1294
X144.97 S1.0000
X144.77 S0.9765
X144.57 S0.5020
X144.37 S0.0157
X144.27 S0.0039
G0 X132.67 S0.0000
G1 X132.57 S0.0039
X132.37 S0.0549
X132.17 S0.6627
X131.97 S0.9882
X131.57 S1.0000
X131.37 S0.4353
X131.27 S0.0078
G0 X117.27 S0.0000
G1 X117.17 S0.4706
X116.57 S1.0000
X116.37 S0.8392
X116.17 S0.1686
X116.07 S0.0039
G0 X104.27 S0.0000
G1 X104.17 S0.0039
X103.97 S0.1686
X103.77 S0.9137
X103.17 S1.0000
X103.07 S0.0784
G0 X89.07 S0.0000
G1 X88.97 S0.0196
X88.77 S0.7765
X88.57 S0.9176
X88.37 S0.9882
X88.17 S0.9804
X87.97 S0.1961
X87.87 S0.0039
G0 X75.87 S0.0000
G1 X75.77 S0.3020
X75.57 S0.9294
X75.37 S0.8706
X74.97 S1.0000
X74.87 S0.2353
G0 X60.87 S0.0000
G1 X60.77 S0.0157
X60.57 S0.6431
X60.17 S1.0000
X59.97 S0.9765
X59.77 S0.5137
X59.67 S0.0275
G0 X47.67 S0.0000
G1 X47.57 S0.0627
X47.37 S0.6392
X47.17 S0.9843
X46.57 S1.0000
X46.47 S0.0902
G0 X23.27 S0.0000
G1 X23.17 S0.1098
X22.77 S0.1333
X22.57 S0.8078
X16.77 S1.0000
X16.57 S0.8000
X16.37 S0.1333
X16.17 S0.1294
X16.07 S0.0078
G0 X15.47 Y-11.72 S0.0000
G1 X15.57 S0.0510
X15.77 S0.0667
X15.97 S0.7137
X16.17 S0.7333
X23.17 S1.0000
X23.37 S0.9490
X23.77 S0.7137
X23.97 S0.1647
X24.17 S0.0667
X24.27 S0.0471
G0 X46.27 S0.0000
G1 X46.37 S0.1137
X46.57 S0.9137
X46.97 S1.0000
X47.17 S0.9922
X47.37 S0.6471
X47.57 S0.0824
X47.67 S0.0039
G0 X59.87 S0.0000
G1 X59.97 S0.0275
X60.17 S0.5020
X60.37 S0.9725
X60.77 S1.0000
X60.87 S0.6235
G0 X74.47 S0.0000
G1 X74.57 S0.0078
X74.77 S0.3765
X75.37 S1.0000
X75.57 S0.7608
X75.77 S0.2941
X75.87 S0.0078
G0 X88.07 S0.0000
G1 X88.17 S0.0431
X88.37 S0.4745
X88.77 S0.9647
X88.97 S0.9961
X89.17 S0.7608
X89.27 S0.0353
G0 X102.87 S0.0000
G1 X102.97 S0.0196
X103.17 S0.6157
X103.57 S1.0000
X103.77 S0.9804
X103.97 S0.5882
X104.07 S0.0235
G0 X116.27 S0.0000
G1 X116.37 S0.0039
X116.57 S0.2039
X116.77 S0.8588
X117.37 S0.9961
X117.47 S0.5333
G0 X131.07 S0.0000
G1 X131.17 S0.0078
X131.37 S0.4863
X131.57 S0.9882
X131.77 S1.0000
X131.97 S0.9843
X132.17 S0.6275
X132.27 S0.0745
G0 X144.67 S0.0000
G1 X144.77 S0.1647
X144.97 S0.8078
X145.17 S0.9961
X145.37 S1.0000
X145.57 S0.9961
X145.77 S0.6471
X145.87 S0.0196
G0 X159.47 S0.0000
G1 X159.57 S0.3608
X159.77 S0.9647
X159.97 S1.0000
X160.17 S0.9882
X160.37 S0.8784
X160.57 S0.2980
X160.67 S0.0078
G0 X172.87 S0.0000
G1 X172.97 S0.0431
X173.17 S0.4824
X173.37 S0.9451
X173.77 S1.0000
X173.97 S0.7333
X174.07 S0.0471
G0 X196.27 S0.0000
G1 X196.37 S0.0588
X196.57 S0.0745
X196.77 S0.6549
X196.97 S0.7137
X197.17 S0.8549
X204.17 S1.0000
X204.37 S0.9922
X204.57 S0.7255
X204.77 S0.7137
X204.97 S0.3255
X205.07 S0.0471
G0 X205.47 Y-11.52 S0.0000
G1 X205.37 S0.2118
X205.17 S0.4471
X204.97 S0.8235
X204.77 S0.9843
X202.57 S1.0000
X202.37 S0.9882
X202.17 S0.9765
X198.97 S0.9804
X196.77 S1.0000
X196.57 S0.9961
X196.37 S0.9765
X196.17 S0.9294
X195.77 S0.4471
X195.67 S0.4078
G0 X174.07 S0.0000
G1 X173.97 S0.7294
X173.77 S0.9961
X173.57 S1.0000
X173.37 S0.9569
X173.17 S0.4510
X173.07 S0.0431
G0 X160.47 S0.0000
G1 X160.37 S0.0039
X160.17 S0.3020
X159.97 S0.8078
X159.77 S0.9765
X159.57 S0.9804
X159.37 S0.9843
X159.27 S0.3647
G0 X145.87 S0.0000
G1 X145.77 S0.6196
X145.57 S0.9961
X145.37 S0.9647
X145.17 S0.9961
X144.97 S0.8471
X144.77 S0.2353
X144.67 S0.0078
G0 X132.07 S0.0000
G1 X131.97 S0.0902
X131.77 S0.6275
X131.37 S1.0000
X131.17 S0.9922
X131.07 S0.4706
G0 X117.67 S0.0000
G1 X117.57 S0.0941
X117.37 S0.8627
X116.97 S0.9725
X116.77 S0.9608
X116.57 S0.4824
X116.47 S0.0039
G0 X103.87 S0.0000
G1 X103.77 S0.0784
X103.57 S0.6392
X103.37 S0.9843
X103.17 S1.0000
X102.97 S0.9961
X102.87 S0.5843
G0 X89.27 S0.0000
G1 X89.17 S0.5216
X88.97 S0.9882
X88.77 S0.9804
X88.57 S1.0000
X88.37 S0.6157
X88.27 S0.0392
G0 X75.67 S0.0000
G1 X75.57 S0.0039
X75.37 S0.4392
X75.17 S0.8863
X74.77 S1.0000
X74.57 S0.9804
X74.47 S0.0980
G0 X61.07 S0.0000
G1 X60.97 S0.1490
X60.77 S0.9020
X60.37 S1.0000
X60.17 S0.8118
X60.07 S0.1216
G0 X47.27 S0.0000
G1 X47.17 S0.2235
X46.97 S0.8980
X46.57 S1.0000
X46.37 S0.9490
X46.27 S0.4902
G0 X24.87 S0.0000
G1 X24.77 S0.3294
X24.37 S0.4471
X24.17 S0.8275
X23.97 S0.9725
X23.77 S0.9765
X21.37 S1.0000
X21.17 S0.9882
X18.17 S0.9804
X17.97 S0.9765
X17.77 S0.9922
X15.77 S1.0000
X15.57 S0.9725
X15.37 S0.8588
X15.17 S0.4471
X15.07 S0.2784
G0 X14.67 Y-11.32 S0.0000
G1 X14.77 S0.1294
X14.97 S0.7882
X15.17 S0.9765
X16.57 S1.0000
X16.97 S0.9922
X17.17 S0.9843
X17.37 S0.8902
X17.57 S0.8745
X17.77 S0.8706
X17.97 S0.6392
X18.17 S0.3804
X21.17 S0.3961
X21.37 S0.5098
X21.57 S0.8627
X21.97 S0.8745
X22.17 S0.9725
X22.77 S0.9922
X24.77 S1.0000
X24.97 S0.9843
X25.17 S0.9333
X25.37 S0.1294
X25.47 S0.0980
G0 X45.87 S0.0000
G1 X45.97 S0.0039
X46.17 S0.4706
X46.37 S0.9725
X46.57 S0.9569
X46.77 S1.0000
X46.97 S0.9137
X47.17 S0.3373
X47.27 S0.0078
G0 X60.07 S0.0000
G1 X60.17 S0.0039
X60.37 S0.2275
X60.57 S0.8706
X60.97 S1.0000
X61.17 S0.9333
X61.27 S0.0824
G0 X74.27 S0.0000
G1 X74.37 S0.0235
X74.57 S0.7255
X74.97 S1.0000
X75.17 S0.9922
X75.37 S0.5255
X75.47 S0.0275
G0 X88.27 S0.0000
G1 X88.37 S0.0039
X88.57 S0.2275
X88.77 S0.8667
X88.97 S0.9569
X89.17 S0.9725
X89.37 S0.9647
X89.47 S0.1922
G0 X102.67 S0.0000
G1 X102.77 S0.0784
X102.97 S0.9451
X103.37 S1.0000
X103.57 S0.8824
X103.67 S0.1961
G0 X116.67 S0.0000
G1 X116.77 S0.0196
X116.97 S0.5608
X117.17 S0.9765
X117.57 S1.0000
X117.77 S0.8667
X117.87 S0.0627
G0 X130.87 S0.0000
G1 X130.97 S0.0510
X131.17 S0.9373
X131.57 S1.0000
X131.77 S0.9608
X131.97 S0.1843
X132.07 S0.0039
G0 X144.87 S0.0000
G1 X144.97 S0.0039
X145.17 S0.2000
X145.37 S0.9020
X145.97 S1.0000
X146.07 S0.6353
G0 X159.07 S0.0000
G1 X159.17 S0.0353
X159.37 S0.8353
X159.57 S1.0000
X159.77 S0.9725
X159.97 S0.9882
X160.17 S0.5569
X160.27 S0.0235
G0 X173.27 S0.0000
G1 X173.37 S0.0353
X173.57 S0.5373
X174.17 S1.0000
X174.27 S0.8510
G0 X194.87 S0.0000
G1 X194.97 S0.0510
X195.17 S0.1294
X195.37 S0.6549
X195.57 S0.9333
X195.77 S0.9961
X197.77 S1.0000
X198.17 S0.9922
X198.37 S0.9686
X198.57 S0.8784
X198.77 S0.8745
X198.97 S0.8863
X199.17 S0.4667
X202.17 S0.3961
X202.37 S0.3882
X202.57 S0.5686
X202.77 S0.8902
X203.17 S0.8745
X203.37 S0.9098
X203.57 S0.9961
X203.77 S0.9922
X205.37 S1.0000
X205.57 S0.9647
X205.67 S0.1137
G0 X206.07 Y-11.12 S0.0000
G1 X205.97 S0.0078
X205.77 S0.6392
X205.57 S0.9451
X204.37 S1.0000
X204.17 S0.9882
X203.97 S0.9451
X203.77 S0.8902
X203.57 S0.5647
X203.37 S0.5373
X203.17 S0.2275
X202.77 S0.1098
X202.57 S0.1137
X202.47 S0.0392
G0 X199.07 S0.0000
G1 X198.97 S0.0118
X198.77 S0.1137
X198.57 S0.1098
X198.37 S0.1137
X198.17 S0.4275
X197.97 S0.5176
X197.77 S0.5451
X197.57 S0.8824
X197.37 S0.9490
X197.17 S0.9608
X196.97 S0.9961
X196.37 S1.0000
X196.17 S0.9882
X195.97 S0.9569
X194.97 S1.0000
X194.77 S0.8275
X194.57 S0.5216
X194.47 S0.0039
G0 X174.47 S0.0000
G1 X174.37 S0.2235
X174.17 S0.9725
X173.77 S1.0000
X173.57 S0.8667
X173.47 S0.1804
G0 X160.27 S0.0000
G1 X160.17 S0.0039
X159.97 S0.0980
X159.77 S0.7059
X159.57 S0.9294
X159.17 S1.0000
X158.97 S0.7137
X158.87 S0.0118
G0 X146.27 S0.0000
G1 X146.17 S0.1373
X145.97 S0.9059
X145.57 S1.0000
X145.37 S0.9882
X145.17 S0.6196
X145.07 S0.0314
G0 X131.87 S0.0000
G1 X131.77 S0.0196
X131.57 S0.3059
X131.37 S0.9294
X130.97 S1.0000
X130.77 S0.8196
X130.67 S0.0353
G0 X117.87 S0.0000
G1 X117.77 S0.4588
X117.17 S1.0000
X116.97 S0.6745
X116.87 S0.0392
G0 X103.67 S0.0000
G1 X103.57 S0.0235
X103.37 S0.3647
X103.17 S0.9412
X102.77 S1.0000
X102.57 S0.8863
X102.47 S0.0353
G0 X89.67 S0.0000
G1 X89.57 S0.1725
X89.37 S0.9294
X89.17 S1.0000
X88.97 S0.9882
X88.77 S0.8588
X88.57 S0.2431
X88.47 S0.0039
G0 X75.27 S0.0000
G1 X75.17 S0.0902
X74.97 S0.6784
X74.77 S0.9961
X74.37 S1.0000
X74.17 S0.7608
X74.07 S0.0039
G0 X61.47 S0.0000
G1 X61.37 S0.0706
X61.17 S0.9020
X60.77 S1.0000
X60.57 S0.8667
X60.37 S0.2118
X60.27 S0.0078
G0 X47.07 S0.0000
G1 X46.97 S0.0157
X46.77 S0.5922
X46.57 S0.9922
X46.37 S1.0000
X46.17 S0.9020
X45.97 S0.9843
X45.87 S0.0431
G0 X25.87 S0.0000
G1 X25.77 S0.0039
X25.57 S0.1843
X25.37 S0.9333
X23.37 S1.0000
X23.17 S0.9647
X22.77 S0.9529
X22.57 S0.6118
X22.17 S0.5176
X21.97 S0.4039
X21.37 S0.1098
X21.27 S0.0196
G0 X17.87 S0.0000
G1 X17.77 S0.0471
X17.37 S0.1137
X17.17 S0.1608
X16.97 S0.4824
X16.77 S0.5176
X16.57 S0.5686
X16.37 S0.9412
X16.17 S0.9490
X15.97 S0.9961
X14.57 S1.0000
X14.37 S0.4863
X14.27 S0.0039
G0 X14.07 Y-10.92 S0.0000
G1 X14.17 S0.1490
X14.37 S0.9059
X14.57 S0.9922
X15.37 S1.0000
X15.57 S0.9804
X15.77 S0.9765
X15.97 S0.6863
X16.17 S0.6471
X16.57 S0.1961
X16.77 S0.0392
X17.17 S0.0078
X17.27 S0.0039
G0 X22.07 S0.0000
G1 X22.17 S0.0039
X22.57 S0.0078
X22.77 S0.0471
X23.17 S0.2000
X23.37 S0.3294
X23.57 S0.6941
X23.77 S0.7098
X23.97 S0.9529
X24.17 S0.9725
X24.37 S0.9922
X25.57 S1.0000
X25.77 S0.9843
X25.97 S0.9804
X26.17 S0.4549
X26.27 S0.3647
G0 X45.67 S0.0000
G1 X45.77 S0.0510
X45.97 S0.8157
X46.17 S1.0000
X46.37 S0.8157
X46.57 S0.9961
X46.77 S0.7686
X46.87 S0.1373
G0 X60.47 S0.0000
G1 X60.57 S0.0039
X60.77 S0.5333
X60.97 S0.9843
X61.37 S1.0000
X61.47 S0.4000
G0 X74.07 S0.0000
G1 X74.17 S0.5333
X74.77 S1.0000
X74.97 S0.7137
X75.07 S0.0902
G0 X88.67 S0.0000
G1 X88.77 S0.0039
X88.97 S0.2627
X89.17 S0.8902
X89.57 S1.0000
X89.77 S0.9843
X89.87 S0.2235
G0 X102.27 S0.0000
G1 X102.37 S0.1373
X102.57 S0.9333
X102.97 S1.0000
X103.17 S0.9373
X103.37 S0.3922
X103.47 S0.0118
G0 X117.07 S0.0000
G1 X117.17 S0.1843
X117.37 S0.8863
X117.57 S0.9255
X117.77 S1.0000
X117.97 S0.9882
X118.07 S0.3098
G0 X130.67 S0.0000
G1 X130.77 S0.2902
X131.17 S1.0000
X131.37 S0.9922
X131.57 S0.6941
X131.67 S0.0157
G0 X145.07 S0.0000
G1 X145.17 S0.0039
X145.37 S0.0510
X145.57 S0.6392
X145.77 S0.9098
X145.97 S0.8980
X146.17 S0.9451
X146.37 S0.8941
X146.47 S0.1451
G0 X158.87 S0.0000
G1 X158.97 S0.6824
X159.17 S0.9961
X159.37 S1.0000
X159.57 S0.9922
X159.77 S0.7137
X159.87 S0.0980
G0 X173.47 S0.0000
G1 X173.57 S0.0039
X173.77 S0.2275
X173.97 S0.8353
X174.37 S1.0000
X174.57 S0.9569
X174.67 S0.2392
G0 X194.27 S0.0000
G1 X194.37 S0.3725
X194.57 S0.9137
X194.77 S0.9961
X195.77 S1.0000
X195.97 S0.9765
X196.17 S0.9961
X196.37 S0.9882
X196.57 S0.9569
X196.77 S0.7647
X196.97 S0.6824
X197.17 S0.6392
X197.37 S0.2784
X197.57 S0.2000
X197.77 S0.1725
X197.97 S0.0157
X198.17 S0.0078
X198.27 S0.0039
G0 X203.47 S0.0000
G1 X203.57 S0.0078
X203.77 S0.0196
X203.97 S0.1804
X204.17 S0.1843
X204.37 S0.5255
X204.57 S0.6745
X204.77 S0.8157
X204.97 S0.9647
X205.17 S0.9961
X205.97 S1.0000
X206.17 S0.9804
X206.27 S0.3333
G0 X206.67 Y-10.72 S0.0000
G1 X206.57 S0.0824
X206.37 S0.3647
X206.17 S0.9843
X205.57 S1.0000
X205.37 S0.9843
X205.17 S0.8235
X204.97 S0.6706
X204.77 S0.2667
X204.57 S0.1373
X204.37 S0.0353
X204.27 S0.0235
G0 X197.27 S0.0000
G1 X197.17 S0.0039
X196.97 S0.0353
X196.77 S0.0392
X196.57 S0.1020
X196.37 S0.2627
X196.17 S0.5686
X195.97 S0.8235
X195.77 S0.8039
X195.57 S0.9412
X195.37 S0.9882
X194.17 S1.0000
X193.97 S0.8510
X193.77 S0.7882
X193.57 S0.1569
X193.47 S0.1294
G0 X174.87 S0.0000
G1 X174.77 S0.1922
X174.57 S0.9373
X174.17 S1.0000
X173.97 S0.8510
X173.77 S0.2627
X173.67 S0.0078
G0 X159.67 S0.0000
G1 X159.57 S0.3294
X159.37 S0.9333
X158.77 S1.0000
X158.67 S0.1294
G0 X146.47 S0.0000
G1 X146.37 S0.4824
X145.77 S1.0000
X145.57 S0.8863
X145.47 S0.2039
G0 X131.47 S0.0000
G1 X131.37 S0.1294
X131.17 S0.7333
X130.97 S0.9961
X130.77 S1.0000
X130.57 S0.9569
X130.47 S0.2706
G0 X118.27 S0.0000
G1 X118.17 S0.1725
X117.97 S0.9686
X117.57 S1.0000
X117.37 S0.9098
X117.17 S0.2667
X117.07 S0.0078
G0 X103.27 S0.0000
G1 X103.17 S0.0196
X102.97 S0.3922
X102.77 S0.9333
X102.37 S1.0000
X102.17 S0.8706
X102.07 S0.1255
G0 X90.07 S0.0000
G1 X89.97 S0.1216
X89.77 S0.9412
X89.37 S1.0000
X89.17 S0.9412
X88.97 S0.2745
X88.87 S0.0078
G0 X74.87 S0.0000
G1 X74.77 S0.1529
X74.57 S0.9490
X74.17 S1.0000
X73.97 S0.9333
X73.87 S0.1922
G0 X61.87 S0.0000
G1 X61.77 S0.0078
X61.57 S0.4275
X61.37 S0.9882
X61.17 S1.0000
X60.97 S0.9804
X60.77 S0.6078
X60.67 S0.0706
G0 X46.87 S0.0000
G1 X46.77 S0.0039
X46.57 S0.1098
X46.37 S0.7922
X46.17 S0.9961
X45.77 S1.0000
X45.57 S0.8588
X45.47 S0.0706
G0 X27.07 S0.0000
G1 X26.97 S0.1020
X26.77 S0.1451
X26.57 S0.7961
X26.37 S0.8510
X26.17 S0.9961
X25.17 S1.0000
X24.97 S0.9961
X24.77 S0.9490
X24.57 S0.8353
X24.37 S0.8275
X24.17 S0.6314
X23.97 S0.3059
X23.77 S0.2902
X23.57 S0.0549
X23.37 S0.0431
X23.27 S0.0078
G0 X16.07 S0.0000
G1 X15.97 S0.0353
X15.77 S0.0431
X15.57 S0.2980
X15.37 S0.4588
X15.17 S0.8314
X14.97 S0.9137
X14.77 S0.9922
X14.17 S1.0000
X13.97 S0.9098
X13.77 S0.6706
X13.67 S0.1373
G0 X13.47 Y-10.52 S0.0000
G1 X13.57 S0.3098
X13.77 S0.9843
X14.57 S1.0000
X14.77 S0.9686
X14.97 S0.6510
X15.17 S0.2627
X15.37 S0.0706
X15.47 S0.0157
G0 X24.27 S0.0000
G1 X24.37 S0.0392
X24.57 S0.0706
X24.77 S0.0863
X24.97 S0.3412
X25.17 S0.7843
X25.37 S0.9529
X25.57 S0.9922
X26.97 S1.0000
X27.17 S0.8902
X27.27 S0.0667
G0 X45.47 S0.0000
G1 X45.57 S0.4941
X46.17 S1.0000
X46.37 S0.9647
X46.47 S0.2549
G0 X60.87 S0.0000
G1 X60.97 S0.0667
X61.17 S0.6392
X61.57 S1.0000
X61.77 S0.9882
X61.87 S0.4510
G0 X73.87 S0.0000
G1 X73.97 S0.7882
X74.37 S1.0000
X74.57 S0.9608
X74.77 S0.4000
X74.87 S0.0118
G0 X89.07 S0.0000
G1 X89.17 S0.0431
X89.37 S0.6588
X89.57 S0.9922
X89.97 S1.0000
X90.07 S0.5686
G0 X102.07 S0.0000
G1 X102.17 S0.6353
X102.77 S1.0000
X102.97 S0.6863
X103.07 S0.0431
G0 X117.27 S0.0000
G1 X117.37 S0.0039
X117.57 S0.4275
X117.77 S0.9961
X118.17 S1.0000
X118.27 S0.6941
G0 X130.47 S0.0000
G1 X130.57 S0.9059
X130.97 S1.0000
X131.17 S0.9608
X131.27 S0.2549
G0 X145.47 S0.0000
G1 X145.57 S0.0078
X145.77 S0.3333
X145.97 S0.9412
X146.57 S1.0000
X146.67 S0.4784
G0 X158.47 S0.0000
G1 X158.57 S0.1843
X158.77 S0.9569
X159.17 S1.0000
X159.37 S0.9686
X159.57 S0.4667
X159.67 S0.0235
G0 X173.87 S0.0000
G1 X173.97 S0.0157
X174.17 S0.4588
X174.77 S1.0000
X174.87 S0.8863
G0 X193.07 S0.0000
G1 X193.17 S0.0196
X193.37 S0.6078
X193.57 S0.9647
X194.97 S1.0000
X195.17 S0.9412
X195.37 S0.8627
X195.57 S0.4039
X195.77 S0.3176
X195.97 S0.0510
X196.17 S0.0667
X196.27 S0.0275
G0 X205.07 S0.0000
G1 X205.17 S0.0431
X205.37 S0.0745
X205.57 S0.6000
X205.77 S0.9451
X206.57 S1.0000
X206.77 S0.8471
X206.87 S0.5804
G0 X207.27 Y-10.32 S0.0000
G1 X207.17 S0.0118
X206.97 S0.5176
X206.17 S1.0000
X205.97 S0.9686
X205.77 S0.6824
X205.57 S0.1608
X205.47 S0.0353
G0 X195.27 S0.0000
G1 X195.17 S0.0745
X194.97 S0.1294
X194.77 S0.6510
X194.57 S0.9490
X194.37 S0.9765
X192.97 S1.0000
X192.77 S0.3490
X192.67 S0.0941
G0 X175.07 S0.0000
G1 X174.97 S0.3294
X174.37 S1.0000
X174.17 S0.8549
X174.07 S0.1176
G0 X159.27 S0.0000
G1 X159.17 S0.6549
X158.97 S0.9922
X158.57 S1.0000
X158.37 S0.9451
X158.27 S0.0235
G0 X146.87 S0.0000
G1 X146.77 S0.2314
X146.17 S1.0000
X145.97 S0.9961
X145.87 S0.5490
G0 X131.27 S0.0000
G1 X131.17 S0.0196
X130.97 S0.4824
X130.77 S0.9647
X130.37 S1.0000
X130.17 S0.6118
X130.07 S0.0078
G0 X118.67 S0.0000
G1 X118.57 S0.0275
X118.37 S0.6667
X117.97 S1.0000
X117.77 S0.9961
X117.57 S0.7020
X117.47 S0.0745
G0 X102.87 S0.0000
G1 X102.77 S0.1725
X102.57 S0.8314
X101.97 S1.0000
X101.87 S0.3137
G0 X90.27 S0.0000
G1 X90.17 S0.5020
X89.77 S1.0000
X89.57 S0.9961
X89.37 S0.7137
X89.27 S0.0824
G0 X74.67 S0.0000
G1 X74.57 S0.1059
X74.37 S0.8000
X73.77 S1.0000
X73.67 S0.4824
G0 X62.07 S0.0000
G1 X61.97 S0.0235
X61.77 S0.7686
X61.37 S1.0000
X61.17 S0.9451
X61.07 S0.2902
G0 X46.47 S0.0000
G1 X46.37 S0.0039
X46.17 S0.5373
X45.97 S0.9804
X45.57 S1.0000
X45.37 S0.9882
X45.27 S0.2784
G0 X27.67 S0.0000
G1 X27.57 S0.2078
X27.37 S0.6275
X25.97 S1.0000
X25.77 S0.9765
X25.57 S0.9176
X25.37 S0.5882
X25.17 S0.1490
X24.97 S0.0588
X24.87 S0.0039
G0 X14.87 S0.0000
G1 X14.77 S0.0275
X14.57 S0.2745
X14.37 S0.8980
X14.17 S0.9922
X13.57 S1.0000
X13.37 S0.9882
X13.27 S0.2667
G0 X13.07 Y-10.12 S0.0000
G1 X13.17 S0.2549
X13.37 S0.9451
X13.97 S1.0000
X14.17 S0.9490
X14.37 S0.5569
X14.57 S0.1608
X14.67 S0.0078
G0 X25.27 S0.0000
G1 X25.37 S0.0039
X25.57 S0.0235
X25.77 S0.1882
X25.97 S0.3176
X26.17 S0.7529
X26.37 S0.8784
X26.57 S0.9843
X26.77 S0.9961
X27.57 S1.0000
X27.77 S0.9412
X27.97 S0.7882
X28.07 S0.0745
G0 X45.27 S0.0000
G1 X45.37 S0.7451
X45.77 S1.0000
X45.97 S0.9961
X46.17 S0.6157
X46.27 S0.0196
G0 X61.07 S0.0000
G1 X61.17 S0.0275
X61.37 S0.6745
X61.57 S0.9961
X61.97 S1.0000
X62.17 S0.8078
X62.27 S0.0627
G0 X73.27 S0.0000
G1 X73.37 S0.0157
X73.57 S0.5373
X73.77 S0.9922
X74.17 S1.0000
X74.37 S0.8275
X74.57 S0.1843
X74.67 S0.0039
G0 X89.47 S0.0000
G1 X89.57 S0.3176
X89.77 S0.9451
X90.37 S1.0000
X90.47 S0.0902
G0 X101.67 S0.0000
G1 X101.77 S0.0549
X101.97 S0.9922
X102.37 S1.0000
X102.57 S0.9843
X102.77 S0.4706
X102.87 S0.0157
G0 X117.67 S0.0000
G1 X117.77 S0.1059
X117.97 S0.7647
X118.17 S0.9922
X118.57 S1.0000
X118.77 S0.6706
X118.87 S0.0353
G0 X129.87 S0.0000
G1 X129.97 S0.0353
X130.17 S0.6549
X130.57 S1.0000
X130.77 S0.9922
X130.97 S0.5725
X131.07 S0.0275
G0 X145.87 S0.0000
G1 X145.97 S0.1059
X146.17 S0.8039
X146.37 S0.9961
X146.77 S1.0000
X146.87 S0.3176
G0 X158.07 S0.0000
G1 X158.17 S0.0118
X158.37 S0.5098
X158.57 S0.9882
X158.77 S1.0000
X158.97 S0.9961
X159.17 S0.8353
X159.27 S0.1961
G0 X174.07 S0.0000
G1 X174.17 S0.0157
X174.37 S0.3686
X174.57 S0.9176
X174.77 S0.9804
X174.97 S1.0000
X175.17 S0.8588
X175.27 S0.1098
G0 X192.27 S0.0000
G1 X192.37 S0.1176
X192.57 S0.5686
X192.77 S0.8588
X193.77 S1.0000
X193.97 S0.9882
X194.17 S0.9843
X194.37 S0.8039
X194.57 S0.3373
X194.77 S0.2157
X194.87 S0.0196
G0 X205.67 S0.0000
G1 X205.77 S0.0039
X205.97 S0.0353
X206.17 S0.2275
X206.37 S0.8353
X206.57 S0.9961
X206.97 S1.0000
X207.17 S0.9961
X207.37 S0.5647
X207.47 S0.0196
G0 Y-9.92 S0.0000
G1 X207.37 S0.5725
X206.77 S1.0000
X206.57 S0.9647
X206.37 S0.7882
X206.27 S0.0667
G0 X194.27 S0.0000
G1 X194.17 S0.0510
X193.97 S0.3843
X193.77 S0.5529
X193.57 S0.9255
X193.37 S0.9725
X192.37 S1.0000
X192.17 S0.9412
X192.07 S0.5725
G0 X175.47 S0.0000
G1 X175.37 S0.0980
X175.17 S0.8549
X174.97 S0.9529
X174.77 S0.9804
X174.57 S0.8745
X174.37 S0.4118
X174.27 S0.0118
G0 X159.07 S0.0000
G1 X158.97 S0.2314
X158.77 S0.8118
X158.17 S1.0000
X158.07 S0.5294
G0 X147.07 S0.0000
G1 X146.97 S0.2627
X146.77 S0.9490
X146.37 S1.0000
X146.17 S0.8118
X146.07 S0.1098
G0 X130.87 S0.0000
G1 X130.77 S0.2000
X130.57 S0.8549
X129.97 S1.0000
X129.87 S0.6314
G0 X118.87 S0.0000
G1 X118.77 S0.2431
X118.17 S1.0000
X117.97 S0.7294
X117.77 S0.2667
X117.67 S0.0118
G0 X102.67 S0.0000
G1 X102.57 S0.0471
X102.37 S0.5765
X102.17 S0.9882
X101.77 S1.0000
X101.57 S0.7373
X101.47 S0.0392
G0 X90.67 S0.0000
G1 X90.57 S0.0863
X90.37 S0.8549
X89.97 S1.0000
X89.77 S0.9765
X89.57 S0.4275
X89.47 S0.0235
G0 X74.47 S0.0000
G1 X74.37 S0.0039
X74.17 S0.1608
X73.97 S0.8235
X73.37 S1.0000
X73.27 S0.5412
G0 X62.47 S0.0000
G1 X62.37 S0.0510
X62.17 S0.7569
X61.57 S1.0000
X61.37 S0.7686
X61.27 S0.1176
G0 X46.07 S0.0000
G1 X45.97 S0.2157
X45.77 S0.9255
X45.37 S1.0000
X45.17 S0.8902
X45.07 S0.1098
G0 X28.47 S0.0000
G1 X28.37 S0.1569
X28.17 S0.5725
X27.97 S0.8000
X27.17 S1.0000
X26.97 S0.9922
X26.77 S0.9333
X26.57 S0.7725
X26.37 S0.3843
X26.17 S0.1686
X25.97 S0.0118
X25.87 S0.0039
G0 X14.27 S0.0000
G1 X14.17 S0.0275
X13.97 S0.3137
X13.77 S0.8196
X13.57 S0.9843
X12.97 S1.0000
X12.87 S0.3098
G0 X12.67 Y-9.72 S0.0000
G1 X12.77 S0.0275
X12.97 S0.6392
X13.37 S1.0000
X13.57 S0.9725
X13.77 S0.5373
X13.87 S0.0275
G0 X26.87 S0.0000
G1 X26.97 S0.0196
X27.17 S0.5882
X27.37 S0.9216
X27.57 S0.9882
X28.57 S1.0000
X28.77 S0.6863
X28.87 S0.1804
G0 X44.87 S0.0000
G1 X44.97 S0.1176
X45.57 S1.0000
X45.77 S0.9373
X45.87 S0.1882
G0 X61.47 S0.0000
G1 X61.57 S0.0902
X61.77 S0.7765
X61.97 S0.9961
X62.37 S1.0000
X62.57 S0.7725
X62.67 S0.0314
G0 X73.07 S0.0000
G1 X73.17 S0.0784
X73.37 S0.8941
X73.77 S1.0000
X73.97 S0.9451
X74.07 S0.2627
G0 X89.87 S0.0000
G1 X89.97 S0.4471
X90.17 S0.9647
X90.57 S1.0000
X90.77 S0.8980
X90.87 S0.0824
G0 X101.27 S0.0000
G1 X101.37 S0.0314
X101.57 S0.7451
X101.97 S1.0000
X102.17 S0.9843
X102.37 S0.6196
X102.57 S0.0196
X102.67 S0.0039
G0 X117.87 S0.0000
G1 X117.97 S0.0118
X118.17 S0.4235
X118.37 S0.9686
X118.97 S1.0000
X119.07 S0.1294
G0 X129.67 S0.0000
G1 X129.77 S0.6275
X130.37 S1.0000
X130.57 S0.8824
X130.67 S0.2157
G0 X146.27 S0.0000
G1 X146.37 S0.1020
X146.57 S0.8627
X147.17 S1.0000
X147.27 S0.1765
G0 X157.87 S0.0000
G1 X157.97 S0.3020
X158.57 S1.0000
X158.77 S0.9922
X158.87 S0.3647
G0 X174.47 S0.0000
G1 X174.57 S0.0196
X174.77 S0.5686
X174.97 S0.9922
X175.37 S1.0000
X175.47 S0.8745
G0 X191.47 S0.0000
G1 X191.57 S0.0980
X191.77 S0.3922
X192.97 S1.0000
X193.17 S0.9804
X193.37 S0.8157
X193.47 S0.3765
G0 X206.47 S0.0000
G1 X206.57 S0.0039
X206.77 S0.3490
X206.97 S0.7647
X207.57 S1.0000
X207.77 S0.5176
X207.87 S0.0039
G0 X208.07 Y-9.52 S0.0000
G1 X207.97 S0.0235
X207.77 S0.5804
X207.37 S1.0000
X207.17 S0.9922
X206.97 S0.8510
X206.87 S0.2078
G0 X193.27 S0.0000
G1 X193.17 S0.0941
X192.97 S0.3843
X192.77 S0.8235
X192.57 S0.9765
X191.57 S1.0000
X191.37 S0.8667
X191.17 S0.2235
X191.07 S0.2706
G0 X175.67 S0.0000
G1 X175.57 S0.3647
X175.37 S0.9686
X175.17 S1.0000
X174.97 S0.9961
X174.77 S0.8235
X174.57 S0.2196
X174.47 S0.0039
G0 X158.87 S0.0000
G1 X158.77 S0.0784
X158.57 S0.7098
X158.37 S0.9882
X157.97 S1.0000
X157.77 S0.8275
X157.67 S0.0784
G0 X147.47 S0.0000
G1 X147.37 S0.1843
X147.17 S0.9569
X146.77 S1.0000
X146.57 S0.8549
X146.47 S0.3608
G0 X130.67 S0.0000
G1 X130.57 S0.0078
X130.37 S0.2549
X130.17 S0.8745
X129.57 S1.0000
X129.37 S0.6745
X129.27 S0.0353
G0 X119.27 S0.0000
G1 X119.17 S0.1843
X118.97 S0.8980
X118.57 S1.0000
X118.37 S0.9647
X118.17 S0.4667
X118.07 S0.0275
G0 X102.27 S0.0000
G1 X102.17 S0.0784
X101.97 S0.7059
X101.37 S1.0000
X101.27 S0.2392
G0 X91.07 S0.0000
G1 X90.97 S0.0039
X90.77 S0.4588
X90.17 S1.0000
X89.97 S0.5490
X89.87 S0.0314
G0 X74.07 S0.0000
G1 X73.97 S0.0706
X73.77 S0.6000
X73.57 S0.9843
X73.17 S1.0000
X72.97 S0.8157
X72.87 S0.0863
G0 X62.87 S0.0000
G1 X62.77 S0.0549
X62.57 S0.7882
X62.17 S1.0000
X61.97 S0.9961
X61.77 S0.7804
X61.67 S0.1608
G0 X45.67 S0.0000
G1 X45.57 S0.2039
X45.37 S0.9765
X44.97 S1.0000
X44.77 S0.8863
X44.67 S0.1686
G0 X29.47 S0.0000
G1 X29.37 S0.0078
X29.17 S0.1137
X28.97 S0.7255
X28.77 S0.9608
X27.97 S1.0000
X27.77 S0.9882
X27.57 S0.8588
X27.37 S0.5020
X27.27 S0.1725
G0 X13.67 S0.0000
G1 X13.57 S0.0471
X13.37 S0.5451
X13.17 S0.9647
X12.77 S1.0000
X12.57 S0.6353
X12.47 S0.0275
G0 Y-9.32 S0.0000
G1 X12.57 S0.6353
X12.77 S0.9961
X12.97 S1.0000
X13.17 S0.9804
X13.37 S0.5765
X13.47 S0.0667
G0 X27.47 S0.0000
G1 X27.57 S0.0039
X27.77 S0.1333
X27.97 S0.4667
X28.17 S0.9686
X29.17 S1.0000
X29.37 S0.9882
X29.47 S0.5255
G0 X44.47 S0.0000
G1 X44.57 S0.1373
X44.77 S0.8824
X45.17 S1.0000
X45.37 S0.9922
X45.57 S0.6196
X45.67 S0.0078
G0 X61.67 S0.0000
G1 X61.77 S0.0039
X61.97 S0.1804
X62.17 S0.8863
X62.77 S1.0000
X62.87 S0.5020
G0 X72.87 S0.0000
G1 X72.97 S0.6510
X73.57 S1.0000
X73.77 S0.6353
X73.87 S0.0824
G0 X90.07 S0.0000
G1 X90.17 S0.2353
X90.37 S0.8706
X90.77 S1.0000
X90.97 S0.9843
X91.07 S0.3765
G0 X101.07 S0.0000
G1 X101.17 S0.2392
X101.37 S0.9647
X101.77 S1.0000
X101.97 S0.9686
X102.17 S0.3608
X102.27 S0.0118
G0 X118.27 S0.0000
G1 X118.37 S0.0235
X118.57 S0.5059
X118.77 S0.9765
X119.17 S1.0000
X119.37 S0.8980
X119.47 S0.1608
G0 X129.07 S0.0000
G1 X129.17 S0.0157
X129.37 S0.6235
X129.97 S1.0000
X130.17 S0.9059
X130.37 S0.2824
X130.47 S0.0078
G0 X146.47 S0.0000
G1 X146.57 S0.0039
X146.77 S0.2196
X146.97 S0.9647
X147.37 S1.0000
X147.57 S0.6000
X147.67 S0.0078
G0 X157.67 S0.0000
G1 X157.77 S0.6353
X158.17 S1.0000
X158.37 S0.9961
X158.57 S0.7137
X158.67 S0.0471
G0 X174.67 S0.0000
G1 X174.77 S0.0039
X174.97 S0.2157
X175.17 S0.8392
X175.57 S1.0000
X175.77 S0.9922
X175.87 S0.3882
G0 X190.67 S0.0000
G1 X190.77 S0.0118
X190.97 S0.5255
X191.17 S0.9490
X191.37 S0.9882
X192.17 S1.0000
X192.37 S0.9882
X192.57 S0.8706
X192.77 S0.4118
X192.97 S0.0549
X193.07 S0.0039
G0 X206.87 S0.0000
G1 X206.97 S0.0039
X207.17 S0.0824
X207.37 S0.7137
X207.57 S0.9961
X207.77 S1.0000
X207.97 S0.9961
X208.07 S0.5608
G0 X208.27 Y-9.12 S0.0000
G1 X208.17 S0.5373
X207.57 S1.0000
X207.37 S0.7922
X207.27 S0.0784
G0 X192.47 S0.0000
G1 X192.37 S0.0235
X192.17 S0.5569
X191.97 S0.7412
X191.77 S0.9725
X191.57 S0.9961
X190.57 S1.0000
X190.37 S0.3843
X190.27 S0.0863
G0 X176.07 S0.0000
G1 X175.97 S0.3255
X175.37 S1.0000
X175.17 S0.8784
X174.97 S0.2353
X174.87 S0.0039
G0 X158.47 S0.0000
G1 X158.37 S0.0353
X158.17 S0.7608
X157.97 S0.9961
X157.57 S1.0000
X157.47 S0.2627
G0 X147.87 S0.0000
G1 X147.77 S0.0078
X147.57 S0.5882
X147.17 S1.0000
X146.97 S0.9922
X146.87 S0.6039
G0 X130.07 S0.0000
G1 X129.97 S0.3686
X129.77 S0.9529
X129.57 S0.9176
X129.37 S0.9490
X129.17 S0.8667
X128.97 S0.6275
X128.87 S0.0039
G0 X119.67 S0.0000
G1 X119.57 S0.0941
X118.97 S1.0000
X118.77 S0.9804
X118.57 S0.6941
X118.47 S0.1569
G0 X101.87 S0.0000
G1 X101.77 S0.3412
X101.57 S0.9529
X100.97 S1.0000
X100.87 S0.1647
G0 X91.27 S0.0000
G1 X91.17 S0.2510
X90.57 S1.0000
X90.37 S0.9137
X90.17 S0.2118
X90.07 S0.0039
G0 X73.67 S0.0000
G1 X73.57 S0.0549
X73.37 S0.6784
X73.17 S0.9922
X72.77 S1.0000
X72.57 S0.9725
X72.47 S0.0627
G0 X63.07 S0.0000
G1 X62.97 S0.1098
X62.77 S0.5804
X62.37 S1.0000
X62.17 S0.9882
X61.97 S0.6353
X61.87 S0.0471
G0 X45.47 S0.0000
G1 X45.37 S0.0118
X45.17 S0.5843
X44.97 S0.9529
X44.37 S1.0000
X44.27 S0.0902
G0 X30.07 S0.0000
G1 X29.97 S0.0118
X29.77 S0.7216
X29.57 S1.0000
X29.37 S0.9451
X29.17 S1.0000
X28.97 S0.9882
X28.77 S0.9216
X28.57 S0.9922
X28.37 S0.8588
X28.17 S0.7216
X28.07 S0.4000
G0 X13.27 S0.0000
G1 X13.17 S0.0549
X12.97 S0.6510
X12.77 S0.9882
X12.37 S1.0000
X12.17 S0.6627
X12.07 S0.0196
G0 X11.87 Y-8.92 S0.0000
G1 X11.97 S0.0157
X12.17 S0.6510
X12.57 S1.0000
X12.77 S0.9765
X12.97 S0.6196
X13.07 S0.0627
G0 X28.27 S0.0000
G1 X28.37 S0.0157
X28.57 S0.1882
X28.77 S0.6039
X28.97 S0.8941
X29.17 S0.9725
X29.37 S1.0000
X29.57 S0.9020
X29.97 S1.0000
X30.17 S0.7569
X30.37 S0.3686
X30.47 S0.0039
G0 X44.07 S0.0000
G1 X44.17 S0.1451
X44.37 S0.8980
X44.77 S1.0000
X44.97 S0.9961
X45.17 S0.7216
X45.27 S0.0275
G0 X62.07 S0.0000
G1 X62.17 S0.0353
X62.37 S0.5922
X62.57 S0.9765
X62.97 S1.0000
X63.17 S0.9373
X63.27 S0.2235
G0 X72.27 S0.0000
G1 X72.37 S0.0863
X72.57 S0.8275
X72.97 S1.0000
X73.17 S0.9922
X73.37 S0.6902
X73.57 S0.1020
X73.67 S0.0039
G0 X90.27 S0.0000
G1 X90.37 S0.0039
X90.57 S0.2392
X90.77 S0.8784
X90.97 S0.9961
X91.17 S1.0000
X91.37 S0.9882
X91.57 S0.3725
X91.77 S0.0549
X91.87 S0.0078
G0 X100.27 S0.0000
G1 X100.37 S0.0039
X100.57 S0.0549
X100.77 S0.2235
X100.97 S0.9333
X101.37 S1.0000
X101.57 S0.9333
X101.77 S0.3804
X101.87 S0.0039
G0 X118.67 S0.0000
G1 X118.77 S0.0510
X118.97 S0.5647
X119.17 S0.9922
X119.57 S1.0000
X119.77 S0.9098
X119.87 S0.1686
G0 X128.67 S0.0000
G1 X128.77 S0.0196
X128.97 S0.6902
X129.17 S0.9922
X129.57 S1.0000
X129.77 S0.9412
X129.97 S0.4902
X130.07 S0.0902
G0 X146.87 S0.0000
G1 X146.97 S0.0275
X147.17 S0.5725
X147.37 S0.9961
X147.77 S1.0000
X147.97 S0.7529
X148.17 S0.7333
X148.27 S0.0353
G0 X156.87 S0.0000
G1 X156.97 S0.0118
X157.17 S0.0549
X157.37 S0.3059
X157.57 S0.9608
X157.77 S1.0000
X157.97 S0.9961
X158.17 S0.7569
X158.27 S0.0863
G0 X175.07 S0.0000
G1 X175.17 S0.0039
X175.37 S0.2627
X175.57 S0.8824
X175.97 S1.0000
X176.17 S0.9686
X176.27 S0.3725
G0 X189.87 S0.0000
G1 X189.97 S0.0196
X190.17 S0.6314
X190.37 S0.8863
X191.37 S1.0000
X191.57 S0.9333
X191.77 S0.7098
X191.97 S0.2510
X192.07 S0.0275
G0 X207.47 S0.0000
G1 X207.57 S0.1137
X207.77 S0.7686
X208.37 S1.0000
X208.57 S0.6078
X208.67 S0.0157
G0 Y-8.72 S0.0000
G1 X208.57 S0.2667
X208.37 S0.9961
X207.97 S1.0000
X207.77 S0.8157
X207.67 S0.1373
G0 X191.67 S0.0000
G1 X191.57 S0.0275
X191.37 S0.3961
X191.17 S0.8980
X190.97 S0.9804
X190.17 S1.0000
X189.97 S0.9961
X189.77 S0.6196
X189.67 S0.3020
G0 X176.27 S0.0000
G1 X176.17 S0.9922
X175.77 S1.0000
X175.57 S0.9882
X175.37 S0.5412
X175.27 S0.0078
G0 X158.07 S0.0000
G1 X157.97 S0.0667
X157.77 S0.7451
X157.37 S1.0000
X157.17 S0.9882
X156.97 S0.9843
X156.87 S0.5059
G0 X148.47 S0.0000
G1 X148.37 S0.0627
X148.17 S0.7725
X147.57 S1.0000
X147.37 S0.9843
X147.17 S0.5765
X147.07 S0.0118
G0 X129.87 S0.0000
G1 X129.77 S0.0235
X129.57 S0.4275
X129.37 S0.9843
X129.17 S1.0000
X128.97 S0.9451
X128.77 S0.9961
X128.67 S0.3255
G0 X120.07 S0.0000
G1 X119.97 S0.1725
X119.77 S0.9059
X119.57 S1.0000
X119.37 S0.9255
X119.17 S0.9765
X118.97 S0.7725
X118.87 S0.1020
G0 X101.67 S0.0000
G1 X101.57 S0.0118
X101.37 S0.3922
X101.17 S0.9412
X100.77 S1.0000
X100.57 S0.9882
X100.37 S0.9843
X100.27 S0.4039
G0 X91.87 S0.0000
G1 X91.77 S0.5333
X91.57 S0.9843
X91.37 S0.9922
X90.97 S1.0000
X90.77 S0.8706
X90.57 S0.2549
X90.47 S0.0039
G0 X73.47 S0.0000
G1 X73.37 S0.0039
X73.17 S0.1059
X72.97 S0.6980
X72.77 S0.9961
X72.37 S1.0000
X72.17 S0.8157
X72.07 S0.0510
G0 X63.47 S0.0000
G1 X63.37 S0.2588
X63.17 S0.9686
X62.77 S1.0000
X62.57 S0.9882
X62.37 S0.6157
X62.27 S0.0706
G0 X45.07 S0.0000
G1 X44.97 S0.0353
X44.77 S0.7255
X44.57 S0.9961
X44.17 S1.0000
X43.97 S0.8980
X43.87 S0.1569
G0 X30.67 S0.0000
G1 X30.57 S0.0824
X30.37 S0.5020
X30.17 S0.9882
X29.37 S1.0000
X29.17 S0.9882
X28.97 S0.6314
X28.77 S0.2353
X28.67 S0.0078
G0 X12.87 S0.0000
G1 X12.77 S0.0510
X12.57 S0.6275
X12.37 S0.9843
X12.17 S1.0000
X11.97 S0.9961
X11.87 S0.6196
G0 X11.67 Y-8.52 S0.0000
G1 X11.77 S0.1098
X12.37 S1.0000
X12.57 S0.8667
X12.67 S0.1451
G0 X29.07 S0.0000
G1 X29.17 S0.0471
X29.37 S0.4980
X29.57 S0.8667
X29.97 S0.9961
X30.57 S1.0000
X30.77 S0.9333
X30.97 S0.5529
X31.07 S0.0157
G0 X43.67 S0.0000
G1 X43.77 S0.1098
X43.97 S0.9333
X44.57 S1.0000
X44.77 S0.8941
X44.87 S0.1529
G0 X62.47 S0.0000
G1 X62.57 S0.0824
X62.77 S0.6667
X62.97 S0.9882
X63.37 S1.0000
X63.57 S0.9647
X63.67 S0.2078
G0 X71.67 S0.0000
G1 X71.77 S0.0157
X71.97 S0.5098
X72.17 S0.9255
X72.57 S1.0000
X72.77 S0.9961
X72.97 S0.8588
X73.17 S0.1922
X73.27 S0.0039
G0 X90.67 S0.0000
G1 X90.77 S0.0078
X90.97 S0.2627
X91.17 S0.8902
X91.97 S1.0000
X92.17 S0.5529
X92.27 S0.0196
G0 X99.87 S0.0000
G1 X99.97 S0.0039
X100.17 S0.3882
X100.37 S0.9882
X100.97 S1.0000
X101.17 S0.9373
X101.37 S0.3961
X101.47 S0.0157
G0 X118.87 S0.0000
G1 X118.97 S0.0078
X119.17 S0.1216
X119.37 S0.7529
X119.57 S0.9725
X119.97 S1.0000
X120.17 S0.9451
X120.37 S0.1608
X120.47 S0.0314
G0 X128.27 S0.0000
G1 X128.37 S0.0196
X128.57 S0.1922
X128.77 S0.9216
X128.97 S1.0000
X129.17 S0.9882
X129.37 S0.9922
X129.57 S0.7922
X129.67 S0.1255
G0 X147.27 S0.0000
G1 X147.37 S0.0275
X147.57 S0.6078
X147.77 S0.9843
X148.37 S1.0000
X148.57 S0.7922
X148.67 S0.0510
G0 X156.67 S0.0000
G1 X156.77 S0.4902
X156.97 S0.9882
X157.37 S1.0000
X157.57 S0.9922
X157.77 S0.7490
X157.87 S0.0431
G0 X175.47 S0.0000
G1 X175.57 S0.0824
X175.77 S0.6863
X175.97 S0.9922
X176.37 S1.0000
X176.57 S0.7843
X176.67 S0.0431
G0 X189.47 S0.0000
G1 X189.57 S0.2706
X189.77 S0.9725
X190.77 S1.0000
X190.97 S0.9569
X191.17 S0.6863
X191.37 S0.1059
X191.47 S0.0118
G0 X207.67 S0.0000
G1 X207.77 S0.0235
X207.97 S0.5098
X208.17 S0.9765
X208.37 S1.0000
X208.57 S0.9882
X208.77 S0.8471
X208.87 S0.0118
G0 Y-8.32 S0.0000
G1 X208.77 S0.3725
X208.57 S0.9725
X208.37 S0.9765
X208.17 S1.0000
X207.97 S0.8431
X207.87 S0.1608
G0 X191.07 S0.0000
G1 X190.97 S0.0745
X190.77 S0.3294
X190.57 S0.7804
X190.37 S0.9647
X190.17 S0.9961
X189.57 S1.0000
X189.37 S0.9569
X189.27 S0.2706
G0 X176.87 S0.0000
G1 X176.77 S0.0118
X176.57 S0.7294
X176.17 S1.0000
X175.97 S0.9922
X175.77 S0.6902
X175.67 S0.0784
G0 X157.67 S0.0000
G1 X157.57 S0.0745
X157.37 S0.7373
X156.57 S1.0000
X156.47 S0.5765
G0 X148.87 S0.0000
G1 X148.77 S0.4824
X148.57 S0.8078
X147.97 S1.0000
X147.77 S0.9922
X147.57 S0.5882
X147.47 S0.0392
G0 X129.67 S0.0000
G1 X129.57 S0.0039
X129.37 S0.1176
X129.17 S0.7647
X128.97 S0.9647
X128.37 S1.0000
X128.27 S0.6784
G0 X120.47 S0.0000
G1 X120.37 S0.7059
X119.57 S1.0000
X119.37 S0.6157
X119.17 S0.1647
X119.07 S0.0196
G0 X101.27 S0.0000
G1 X101.17 S0.0078
X100.97 S0.3922
X100.77 S0.8706
X100.57 S0.9294
X100.17 S1.0000
X99.97 S0.9804
X99.87 S0.4235
G0 X92.47 S0.0000
G1 X92.37 S0.1608
X92.17 S0.7529
X91.37 S1.0000
X91.17 S0.9020
X90.97 S0.2471
X90.87 S0.0039
G0 X73.07 S0.0000
G1 X72.97 S0.0392
X72.77 S0.2118
X72.57 S0.7608
X71.77 S1.0000
X71.67 S0.5490
G0 X64.07 S0.0000
G1 X63.97 S0.0039
X63.77 S0.6863
X63.57 S0.9529
X63.17 S1.0000
X62.97 S0.9843
X62.77 S0.6471
X62.67 S0.0588
G0 X44.87 S0.0000
G1 X44.77 S0.0235
X44.57 S0.3608
X44.37 S0.7882
X43.77 S1.0000
X43.57 S0.9137
X43.47 S0.0941
G0 X31.27 S0.0000
G1 X31.17 S0.2000
X30.97 S0.7490
X30.57 S1.0000
X30.37 S0.8039
X30.17 S0.9961
X29.97 S1.0000
X29.77 S0.8314
X29.57 S0.6863
X29.47 S0.1882
G0 X12.67 S0.0000
G1 X12.57 S0.0235
X12.37 S0.3725
X12.17 S0.9333
X11.77 S1.0000
X11.57 S0.9098
X11.47 S0.1059
G0 Y-8.12 S0.0000
G1 X11.57 S0.8863
X11.97 S1.0000
X12.17 S0.9333
X12.37 S0.4471
X12.47 S0.0039
G0 X29.87 S0.0000
G1 X29.97 S0.1647
X30.17 S0.7765
X30.37 S0.9059
X31.17 S1.0000
X31.37 S0.9686
X31.57 S0.3686
X31.67 S0.0275
G0 X43.27 S0.0000
G1 X43.37 S0.1569
X43.57 S0.9451
X43.97 S1.0000
X44.17 S0.9843
X44.37 S0.7255
X44.47 S0.0941
G0 X62.67 S0.0000
G1 X62.77 S0.0039
X62.97 S0.0824
X63.17 S0.6392
X63.37 S0.9137
X63.97 S1.0000
X64.17 S0.7725
X64.27 S0.3412
G0 X71.27 S0.0000
G1 X71.37 S0.1961
X71.57 S0.9804
X72.17 S1.0000
X72.37 S0.9922
X72.57 S0.7373
X72.67 S0.1059
G0 X91.27 S0.0000
G1 X91.37 S0.2667
X91.57 S0.8157
X91.77 S0.8902
X91.97 S0.9843
X92.57 S1.0000
X92.67 S0.2118
G0 X99.47 S0.0000
G1 X99.57 S0.1333
X99.77 S0.3686
X100.17 S1.0000
X100.37 S0.9451
X100.57 S0.9922
X100.77 S0.9059
X100.87 S0.4078
G0 X119.47 S0.0000
G1 X119.57 S0.0588
X119.77 S0.6157
X119.97 S0.9804
X120.57 S1.0000
X120.77 S0.9961
X120.87 S0.3059
G0 X127.87 S0.0000
G1 X127.97 S0.2745
X128.77 S1.0000
X128.97 S0.9608
X129.17 S0.4941
X129.37 S0.1529
X129.47 S0.0039
G0 X147.67 S0.0000
G1 X147.77 S0.0471
X147.97 S0.6000
X148.17 S0.8980
X148.97 S1.0000
X149.07 S0.4275
G0 X155.87 S0.0000
G1 X155.97 S0.0039
X156.17 S0.3765
X156.37 S0.9373
X156.77 S1.0000
X156.97 S0.9961
X157.17 S0.9922
X157.37 S0.7373
X157.47 S0.0784
G0 X175.67 S0.0000
G1 X175.77 S0.0039
X175.97 S0.0745
X176.17 S0.6863
X176.37 S0.9922
X176.77 S1.0000
X176.97 S0.6941
X177.07 S0.3216
G0 X188.87 S0.0000
G1 X188.97 S0.3176
X189.17 S0.8353
X189.97 S1.0000
X190.17 S0.9529
X190.37 S0.7569
X190.57 S0.3765
X190.67 S0.0314
G0 X207.87 S0.0000
G1 X207.97 S0.0039
X208.17 S0.2902
X208.37 S0.9216
X208.87 S1.0000
G0 X209.27 Y-7.92 S0.0000
G1 X209.17 S0.0471
X208.97 S0.7647
X208.77 S0.9922
X208.57 S1.0000
X208.37 S0.9882
X208.17 S0.6314
X208.07 S0.0824
G0 X190.47 S0.0000
G1 X190.37 S0.0039
X190.17 S0.0745
X189.97 S0.4941
X189.77 S0.8941
X189.57 S0.9882
X189.37 S0.9961
X189.17 S0.9922
X188.97 S1.0000
X188.77 S0.9804
X188.67 S0.4706
G0 X177.47 S0.0000
G1 X177.37 S0.0039
X177.17 S0.3529
X176.97 S0.9804
X176.57 S1.0000
X176.37 S0.9922
X176.17 S0.6824
X176.07 S0.1059
G0 X157.27 S0.0000
G1 X157.17 S0.0902
X156.97 S0.5490
X156.77 S0.9020
X156.57 S0.9961
X155.97 S1.0000
X155.77 S0.7451
X155.67 S0.0431
G0 X149.47 S0.0000
G1 X149.37 S0.1216
X149.17 S0.4235
X148.97 S0.9725
X148.57 S1.0000
X148.37 S0.9961
X148.17 S0.8510
X147.97 S0.2353
X147.87 S0.0353
G0 X129.07 S0.0000
G1 X128.97 S0.0235
X128.77 S0.3961
X128.57 S0.9333
X127.97 S1.0000
X127.77 S0.9529
X127.57 S0.7647
X127.47 S0.0745
G0 X121.27 S0.0000
G1 X121.17 S0.0863
X120.97 S0.8392
X120.77 S0.9608
X120.17 S1.0000
X119.97 S0.9804
X119.77 S0.6157
X119.57 S0.0824
X119.47 S0.0039
G0 X100.87 S0.0000
G1 X100.77 S0.0196
X100.57 S0.2706
X100.37 S0.6941
X100.17 S0.9647
X99.57 S1.0000
X99.37 S0.8667
X99.27 S0.1333
G0 X93.07 S0.0000
G1 X92.97 S0.0510
X92.77 S0.2549
X92.57 S0.9333
X91.97 S1.0000
X91.77 S0.9255
X91.57 S0.5529
X91.37 S0.2510
X91.27 S0.0039
G0 X72.67 S0.0000
G1 X72.57 S0.0039
X72.37 S0.1529
X72.17 S0.7333
X71.97 S0.9882
X71.37 S1.0000
X71.17 S0.9255
X70.97 S0.2275
X70.87 S0.0471
G0 X64.67 S0.0000
G1 X64.57 S0.1098
X64.37 S0.4353
X64.17 S0.9882
X63.57 S1.0000
X63.37 S0.8824
X63.17 S0.2980
X63.07 S0.0510
G0 X44.27 S0.0000
G1 X44.17 S0.2118
X43.97 S0.9020
X43.57 S1.0000
X43.37 S0.7216
X43.17 S0.8902
X43.07 S0.1529
G0 X31.87 S0.0000
G1 X31.77 S0.0588
X31.57 S0.7647
X31.37 S1.0000
X31.17 S0.9922
X30.97 S0.9686
X30.77 S0.9020
X30.57 S0.9765
X30.37 S0.8784
X30.17 S0.4118
X29.97 S0.0706
X29.87 S0.0039
G0 X12.27 S0.0000
G1 X12.17 S0.1255
X11.97 S0.8157
X11.57 S1.0000
X11.37 S0.9804
X11.27 S0.3490
G0 X11.07 Y-7.72 S0.0000
G1 X11.17 S0.0196
X11.37 S0.7843
X11.77 S1.0000
X11.97 S0.9765
X12.07 S0.4510
G0 X30.27 S0.0000
G1 X30.37 S0.0235
X30.57 S0.1922
X30.77 S0.5686
X30.97 S0.8196
X31.17 S0.9373
X31.37 S0.9804
X31.77 S1.0000
X31.97 S0.7765
X32.07 S0.4118
G0 X42.87 S0.0000
G1 X42.97 S0.0706
X43.17 S0.8980
X43.57 S1.0000
X43.77 S0.9961
X43.97 S0.9373
X44.17 S0.4588
X44.27 S0.0392
G0 X63.27 S0.0000
G1 X63.37 S0.0078
X63.57 S0.2784
X63.77 S0.9098
X64.57 S1.0000
X64.77 S0.8824
X64.87 S0.0471
G0 X70.87 S0.0000
G1 X70.97 S0.6431
X71.17 S0.9451
X71.77 S1.0000
X71.97 S0.9176
X72.17 S0.5686
X72.37 S0.1608
X72.47 S0.0039
G0 X91.67 S0.0000
G1 X91.77 S0.0471
X91.97 S0.5882
X92.17 S0.9765
X92.97 S1.0000
X93.07 S0.7490
G0 X99.07 S0.0000
G1 X99.17 S0.6235
X99.37 S0.8706
X99.97 S1.0000
X100.17 S0.9882
X100.37 S0.7098
X100.57 S0.0745
X100.67 S0.0039
G0 X119.87 S0.0000
G1 X119.97 S0.0863
X120.17 S0.6235
X120.37 S0.9725
X120.57 S0.9961
X121.17 S1.0000
X121.37 S0.8353
X121.47 S0.5020
G0 X127.27 S0.0000
G1 X127.37 S0.5255
X127.57 S0.8078
X128.17 S1.0000
X128.37 S0.9961
X128.57 S0.9373
X128.77 S0.4078
X128.87 S0.0118
G0 X148.27 S0.0000
G1 X148.37 S0.2353
X148.57 S0.8549
X149.37 S1.0000
X149.57 S0.9098
X149.67 S0.1412
G0 X155.47 S0.0000
G1 X155.57 S0.0078
X155.77 S0.7176
X156.57 S1.0000
X156.77 S0.8431
X156.97 S0.5608
X157.07 S0.0471
G0 X176.27 S0.0000
G1 X176.37 S0.0824
X176.57 S0.6784
X176.77 S0.9608
X176.97 S0.8275
X177.17 S0.7059
X177.37 S0.9843
X177.47 S0.3882
G0 X188.47 S0.0000
G1 X188.57 S0.5294
X189.17 S1.0000
X189.37 S0.8941
X189.57 S0.9843
X189.77 S0.7725
X189.97 S0.1961
X190.07 S0.0275
G0 X208.07 S0.0000
G1 X208.17 S0.0039
X208.37 S0.1098
X208.57 S0.7647
X208.77 S0.9608
X208.97 S0.8157
X209.17 S1.0000
X209.27 S0.2941
G0 X209.47 Y-7.52 S0.0000
G1 X209.37 S0.1843
X209.17 S0.9608
X208.77 S1.0000
X208.57 S0.9059
X208.47 S0.3020
G0 X189.67 S0.0000
G1 X189.57 S0.1529
X189.37 S0.6824
X189.17 S0.9137
X188.97 S0.9961
X188.37 S1.0000
X188.17 S0.4431
X188.07 S0.0039
G0 X177.87 S0.0000
G1 X177.77 S0.0941
X177.57 S0.3725
X177.37 S1.0000
X177.17 S0.9529
X176.97 S0.9804
X176.77 S0.9843
X176.57 S0.5804
X176.47 S0.0549
G0 X156.87 S0.0000
G1 X156.77 S0.0118
X156.57 S0.3490
X156.37 S0.9255
X156.17 S0.9922
X155.37 S1.0000
X155.17 S0.3686
X155.07 S0.0863
G0 X150.07 S0.0000
G1 X149.97 S0.2392
X149.77 S0.6078
X148.97 S1.0000
X148.77 S0.9686
X148.57 S0.7569
X148.47 S0.2588
G0 X128.67 S0.0000
G1 X128.57 S0.0078
X128.37 S0.2431
X128.17 S0.7255
X127.97 S0.9765
X127.17 S1.0000
X126.97 S0.4784
X126.87 S0.2980
G0 X121.87 S0.0000
G1 X121.77 S0.1765
X121.57 S0.4549
X121.17 S1.0000
X120.97 S0.9490
X120.77 S1.0000
X120.57 S0.9843
X120.37 S0.8549
X120.17 S0.3333
X119.97 S0.0824
X119.87 S0.0039
G0 X100.27 S0.0000
G1 X100.17 S0.0745
X99.97 S0.6392
X99.77 S0.9098
X98.97 S1.0000
X98.77 S0.5647
X98.57 S0.2980
X98.47 S0.0510
G0 X93.67 S0.0000
G1 X93.57 S0.1176
X93.37 S0.2980
X93.17 S0.7529
X92.57 S1.0000
X92.37 S0.9961
X92.17 S0.8706
X92.07 S0.5451
G0 X71.87 S0.0000
G1 X71.77 S0.3765
X71.57 S0.8745
X71.37 S0.9647
X70.97 S1.0000
X70.77 S0.9961
X70.57 S0.9647
X70.37 S0.3451
X70.27 S0.1098
G0 X65.47 S0.0000
G1 X65.37 S0.0510
X65.17 S0.2980
X64.97 S0.6039
X64.17 S1.0000
X63.97 S0.9843
X63.77 S0.7569
X63.57 S0.2784
X63.47 S0.0039
G0 X44.07 S0.0000
G1 X43.97 S0.0275
X43.77 S0.2745
X43.57 S0.7490
X43.37 S0.9725
X42.77 S1.0000
X42.67 S0.1451
G0 X32.47 S0.0000
G1 X32.37 S0.1216
X32.17 S0.3255
X31.57 S1.0000
X31.37 S0.9137
X31.17 S0.9686
X30.97 S0.8118
X30.87 S0.2902
G0 X12.07 S0.0000
G1 X11.97 S0.1059
X11.77 S0.8235
X11.17 S1.0000
X10.97 S0.7961
X10.87 S0.0353
G0 Y-7.32 S0.0000
G1 X10.97 S0.1216
X11.57 S1.0000
X11.77 S0.9333
X11.97 S0.2275
X12.07 S0.0078
G0 X30.87 S0.0000
G1 X30.97 S0.0157
X31.17 S0.1333
X31.37 S0.5176
X31.57 S0.8941
X31.77 S0.9961
X32.37 S1.0000
X32.57 S0.8549
X32.77 S0.1882
X32.87 S0.0157
G0 X42.27 S0.0000
G1 X42.37 S0.0275
X42.57 S0.6157
X42.77 S0.8941
X43.17 S1.0000
X43.37 S0.9922
X43.57 S0.7529
X43.67 S0.1608
G0 X63.67 S0.0000
G1 X63.77 S0.0157
X63.97 S0.0863
X64.17 S0.5529
X64.37 S0.8549
X64.57 S0.9961
X65.37 S1.0000
X65.57 S0.8314
X65.77 S0.7922
X65.97 S0.2000
X66.07 S0.0392
G0 X69.67 S0.0000
G1 X69.77 S0.0588
X69.97 S0.1608
X70.17 S0.7922
X70.37 S0.8706
X70.57 S1.0000
X70.77 S0.9765
X70.97 S0.9961
X71.17 S1.0000
X71.37 S0.9804
X71.57 S0.6627
X71.77 S0.2980
X71.87 S0.0235
G0 X91.87 S0.0000
G1 X91.97 S0.0039
X92.17 S0.0353
X92.37 S0.2431
X92.57 S0.7647
X92.77 S0.9569
X93.57 S1.0000
X93.77 S0.8745
X93.97 S0.5882
X94.17 S0.1451
X94.27 S0.0667
G0 X97.87 S0.0000
G1 X97.97 S0.0353
X98.17 S0.1451
X98.37 S0.4353
X98.57 S0.8314
X99.37 S1.0000
X99.57 S0.9725
X99.77 S0.8235
X99.97 S0.3451
X100.17 S0.0549
X100.27 S0.0039
G0 X120.27 S0.0000
G1 X120.37 S0.0118
X120.57 S0.2392
X120.77 S0.5608
X120.97 S0.8706
X121.17 S0.9608
X121.37 S0.9843
X121.57 S0.9961
X121.77 S1.0000
X121.97 S0.9137
X122.17 S0.6627
X122.37 S0.1451
X122.47 S0.0941
G0 X126.07 S0.0000
G1 X126.17 S0.0078
X126.37 S0.1451
X126.57 S0.3373
X126.77 S0.7922
X127.57 S1.0000
X127.77 S0.9882
X127.97 S0.8941
X128.17 S0.4157
X128.27 S0.0980
G0 X148.47 S0.0000
G1 X148.57 S0.0118
X148.77 S0.0784
X148.97 S0.5294
X149.17 S0.8824
X149.37 S0.9961
X149.97 S1.0000
X150.17 S0.9608
X150.37 S0.7922
X150.57 S0.4824
X150.77 S0.1451
X150.87 S0.0353
G0 X154.47 S0.0000
G1 X154.57 S0.0510
X154.77 S0.1451
X154.97 S0.5647
X155.17 S0.8549
X155.97 S1.0000
X156.17 S0.9137
X156.37 S0.6353
X156.57 S0.2667
X156.67 S0.0157
G0 X176.67 S0.0000
G1 X176.77 S0.0980
X176.97 S0.6510
X177.17 S0.8824
X177.37 S0.8706
X177.57 S0.9961
X177.77 S1.0000
X177.97 S0.8588
X178.17 S0.1490
X178.27 S0.0235
G0 X187.87 S0.0000
G1 X187.97 S0.1490
X188.17 S0.7961
X188.37 S0.9843
X188.77 S1.0000
X188.97 S0.9255
X189.17 S0.7020
X189.37 S0.2784
X189.57 S0.0745
X189.67 S0.0078
G0 X208.47 S0.0000
G1 X208.57 S0.0588
X208.77 S0.7137
X208.97 S0.9961
X209.37 S1.0000
X209.47 S0.5686
G0 X209.67 Y-7.12 S0.0000
G1 X209.57 S0.0471
X209.37 S0.8196
X208.97 S1.0000
X208.77 S0.9765
X208.57 S0.4941
X208.47 S0.0196
G0 X189.27 S0.0000
G1 X189.17 S0.0039
X188.97 S0.0627
X188.77 S0.3451
X188.57 S0.9216
X187.97 S1.0000
X187.77 S0.9294
X187.67 S0.5765
G0 X178.27 S0.0000
G1 X178.17 S0.5725
X177.57 S1.0000
X177.37 S0.9961
X177.17 S0.8157
X176.97 S0.2314
X176.87 S0.0627
G0 X156.27 S0.0000
G1 X156.17 S0.0510
X155.97 S0.3098
X155.77 S0.8941
X154.57 S1.0000
X154.37 S0.7333
X154.17 S0.5843
X154.07 S0.1216
G0 X151.07 S0.0000
G1 X150.97 S0.3451
X150.77 S0.6824
X149.57 S1.0000
X149.37 S0.9765
X149.17 S0.8039
X148.97 S0.2353
X148.77 S0.0392
X148.67 S0.0039
G0 X127.87 S0.0000
G1 X127.77 S0.2627
X127.57 S0.6235
X127.37 S0.9882
X126.17 S1.0000
X125.97 S0.6078
X125.87 S0.1765
G0 X122.67 S0.0000
G1 X122.57 S0.4980
X122.37 S0.8588
X121.57 S1.0000
X121.37 S0.9922
X121.17 S0.9608
X120.97 S0.8392
X120.77 S0.4431
X120.67 S0.0431
G0 X99.87 S0.0000
G1 X99.77 S0.0196
X99.57 S0.1137
X99.37 S0.6314
X99.17 S0.9843
X97.97 S1.0000
X97.77 S0.6902
X97.67 S0.3020
G0 X94.47 S0.0000
G1 X94.37 S0.4157
X94.17 S0.7765
X93.17 S1.0000
X92.97 S0.9961
X92.77 S0.9176
X92.57 S0.4980
X92.37 S0.0824
X92.27 S0.0118
G0 X71.47 S0.0000
G1 X71.37 S0.0745
X71.17 S0.6000
X70.97 S0.9333
X70.77 S0.9961
X70.57 S0.8784
X70.37 S0.9804
X69.77 S1.0000
X69.57 S0.7569
X69.37 S0.5843
X69.27 S0.0706
G0 X66.27 S0.0000
G1 X66.17 S0.3294
X65.97 S0.6980
X64.77 S1.0000
X64.57 S0.9647
X64.37 S0.8039
X64.17 S0.1608
X64.07 S0.0431
G0 X43.47 S0.0000
G1 X43.37 S0.1529
X43.17 S0.7725
X42.97 S0.9961
X42.37 S1.0000
X42.27 S0.6627
G0 X32.87 S0.0000
G1 X32.77 S0.6157
X31.77 S1.0000
X31.57 S0.8353
X31.37 S0.2510
X31.27 S0.0431
G0 X11.67 S0.0000
G1 X11.57 S0.8471
X10.97 S1.0000
X10.87 S0.6235
G0 X10.67 Y-6.92 S0.0000
G1 X10.77 S0.1098
X10.97 S0.9843
X11.37 S1.0000
X11.57 S0.9804
X11.67 S0.3647
G0 X31.67 S0.0000
G1 X31.77 S0.2078
X31.97 S0.7216
X32.17 S0.9569
X32.97 S1.0000
X33.17 S0.5647
X33.27 S0.0196
G0 X41.87 S0.0000
G1 X41.97 S0.2667
X42.77 S1.0000
X42.97 S0.9608
X43.17 S0.6902
X43.27 S0.1725
G0 X64.47 S0.0000
G1 X64.57 S0.1137
X64.77 S0.4392
X64.97 S0.9686
X65.17 S0.9922
X66.57 S1.0000
X66.77 S0.9529
X66.97 S0.2431
X67.17 S0.2275
X67.27 S0.0863
G0 X68.47 S0.0000
G1 X68.57 S0.1176
X68.77 S0.2275
X68.97 S0.2863
X70.57 S1.0000
X70.77 S0.9647
X70.97 S0.7373
X71.17 S0.2706
X71.37 S0.0275
X71.47 S0.0039
G0 X92.47 S0.0000
G1 X92.57 S0.0039
X92.77 S0.0353
X92.97 S0.2000
X93.17 S0.8157
X93.37 S0.9765
X94.77 S1.0000
X94.97 S0.6118
X95.37 S0.2275
X95.47 S0.1294
G0 X96.67 S0.0000
G1 X96.77 S0.0784
X97.17 S0.2275
X97.37 S0.4627
X98.77 S1.0000
X98.97 S0.9882
X99.17 S0.9216
X99.37 S0.5922
X99.57 S0.0510
X99.67 S0.0039
G0 X121.07 S0.0000
G1 X121.17 S0.1373
X121.37 S0.6235
X121.57 S0.9373
X123.17 S1.0000
X123.37 S0.3451
X123.57 S0.2275
X123.67 S0.1647
G0 X125.07 S0.0000
G1 X125.17 S0.1608
X125.37 S0.2275
X125.57 S0.3373
X127.17 S1.0000
X127.37 S0.8353
X127.57 S0.5529
X127.67 S0.0392
G0 X149.07 S0.0000
G1 X149.17 S0.0078
X149.37 S0.0784
X149.57 S0.4863
X149.77 S0.9451
X149.97 S0.9922
X151.37 S1.0000
X151.57 S0.4588
X151.77 S0.2275
X151.87 S0.1922
G0 X153.27 S0.0000
G1 X153.37 S0.1098
X153.57 S0.2275
X153.77 S0.8314
X155.37 S1.0000
X155.57 S0.9647
X155.77 S0.7608
X155.87 S0.2667
G0 X177.27 S0.0000
G1 X177.37 S0.2706
X177.57 S0.8980
X178.37 S1.0000
X178.47 S0.5255
G0 X187.27 S0.0000
G1 X187.37 S0.0275
X187.57 S0.6784
X188.17 S1.0000
X188.37 S0.9922
X188.57 S0.9490
X188.77 S0.3490
X188.87 S0.0078
G0 X208.47 S0.0000
G1 X208.57 S0.0039
X208.77 S0.1961
X208.97 S0.8431
X209.57 S1.0000
X209.67 S0.2588
G0 Y-6.72 S0.0000
G1 X209.57 S0.8745
X208.97 S1.0000
X208.77 S0.6157
X208.67 S0.0353
G0 X188.67 S0.0000
G1 X188.57 S0.0078
X188.37 S0.2549
X188.17 S0.6706
X187.97 S0.9804
X187.37 S1.0000
X187.17 S0.7961
X186.97 S0.2980
X186.87 S0.0706
G0 X178.87 S0.0000
G1 X178.77 S0.2431
X178.57 S0.7490
X177.97 S1.0000
X177.77 S0.9686
X177.57 S0.8235
X177.37 S0.2863
X177.27 S0.0078
G0 X155.87 S0.0000
G1 X155.77 S0.0078
X155.57 S0.0824
X155.37 S0.3333
X155.17 S0.7569
X154.97 S0.9569
X154.77 S0.9961
X153.37 S1.0000
X153.17 S0.8784
X151.97 S0.7686
X151.77 S0.9608
X150.57 S1.0000
X150.37 S0.9961
X150.17 S0.9843
X149.97 S0.9333
X149.77 S0.7098
X149.57 S0.2667
X149.47 S0.0392
G0 X127.47 S0.0000
G1 X127.37 S0.0275
X127.17 S0.1843
X126.97 S0.7529
X126.77 S0.8627
X126.57 S0.9882
X125.17 S1.0000
X124.97 S0.9333
X123.77 S0.7686
X123.57 S0.9373
X122.17 S1.0000
X121.97 S0.9922
X121.77 S0.9137
X121.57 S0.7961
X121.37 S0.4157
X121.27 S0.0471
G0 X99.47 S0.0000
G1 X99.37 S0.0039
X99.17 S0.0275
X98.97 S0.2235
X98.77 S0.5843
X98.57 S0.8157
X98.37 S0.9569
X98.17 S0.9922
X96.77 S1.0000
X96.57 S0.8471
X95.57 S0.7686
X95.37 S0.8980
X93.97 S1.0000
X93.77 S0.9882
X93.57 S0.9176
X93.37 S0.8078
X93.17 S0.4392
X92.97 S0.1647
X92.87 S0.0039
G0 X71.07 S0.0000
G1 X70.97 S0.0078
X70.77 S0.0667
X70.57 S0.3216
X70.37 S0.7608
X70.17 S0.9451
X69.97 S0.9882
X68.57 S1.0000
X68.37 S0.8902
X67.37 S0.7686
X67.17 S0.8588
X65.77 S1.0000
X65.57 S0.9882
X65.37 S0.9725
X65.17 S0.8431
X64.97 S0.6745
X64.77 S0.3098
X64.67 S0.0275
G0 X43.27 S0.0000
G1 X43.17 S0.0078
X42.97 S0.0431
X42.77 S0.4392
X42.57 S0.9451
X42.37 S0.9647
X42.17 S0.9176
X41.97 S0.9529
X41.77 S0.9490
X41.57 S0.7569
X41.37 S0.1020
X41.27 S0.0118
G0 X33.47 S0.0000
G1 X33.37 S0.0980
X33.17 S0.5961
X32.57 S1.0000
X32.37 S0.9882
X32.17 S0.8784
X31.97 S0.4863
X31.77 S0.0667
X31.67 S0.0039
G0 X11.67 S0.0000
G1 X11.57 S0.0824
X11.37 S0.8314
X10.77 S1.0000
X10.67 S0.4784
G0 X10.47 Y-6.52 S0.0000
G1 X10.57 S0.0471
X10.77 S0.7451
X11.17 S1.0000
X11.37 S0.9961
X11.47 S0.7137
G0 X32.07 S0.0000
G1 X32.17 S0.0118
X32.37 S0.1647
X32.57 S0.7529
X32.77 S0.9686
X33.17 S1.0000
X33.37 S0.9961
X33.57 S0.9647
X33.77 S0.5255
X33.87 S0.0392
G0 X41.07 S0.0000
G1 X41.17 S0.1882
X41.37 S0.5804
X41.57 S0.9882
X42.17 S1.0000
X42.37 S0.9961
X42.57 S0.7490
X42.77 S0.3255
X42.87 S0.0039
G0 X65.07 S0.0000
G1 X65.17 S0.0431
X65.37 S0.1137
X65.57 S0.4275
X65.77 S0.6000
X65.97 S0.9333
X66.17 S0.9922
X69.57 S1.0000
X69.77 S0.9882
X69.97 S0.8980
X70.17 S0.5137
X70.37 S0.3451
X70.47 S0.0549
G0 X93.27 S0.0000
G1 X93.37 S0.0196
X93.57 S0.0588
X93.77 S0.2863
X93.97 S0.6078
X94.17 S0.9216
X94.37 S0.9686
X96.97 S1.0000
X97.17 S0.9961
X97.37 S0.9333
X97.57 S0.9922
X97.77 S1.0000
X97.97 S0.9843
X98.17 S0.9176
X98.37 S0.7373
X98.57 S0.3843
X98.77 S0.0627
X98.87 S0.0314
G0 X121.47 S0.0000
G1 X121.57 S0.0157
X121.77 S0.0471
X121.97 S0.2588
X122.17 S0.6588
X122.37 S0.9059
X122.57 S0.9804
X126.17 S1.0000
X126.37 S0.9529
X126.57 S0.8745
X126.77 S0.5333
X126.97 S0.1529
X127.07 S0.0510
G0 X149.67 S0.0000
G1 X149.77 S0.0039
X149.97 S0.0314
X150.17 S0.3216
X150.37 S0.4471
X150.57 S0.8510
X150.77 S0.9333
X150.97 S0.9961
X154.37 S1.0000
X154.57 S0.9922
X154.77 S0.9216
X154.97 S0.7765
X155.17 S0.3373
X155.37 S0.0549
X155.47 S0.0078
G0 X177.47 S0.0000
G1 X177.57 S0.0078
X177.77 S0.0980
X177.97 S0.5843
X178.17 S0.9529
X178.37 S0.9961
X178.57 S1.0000
X178.77 S0.9137
X178.97 S0.9333
X179.07 S0.5294
G0 X186.67 S0.0000
G1 X186.77 S0.4392
X186.97 S0.8314
X187.17 S0.9922
X187.77 S1.0000
X187.97 S0.9137
X188.17 S0.4275
X188.27 S0.0588
G0 X208.67 S0.0000
G1 X208.77 S0.0157
X208.97 S0.3686
X209.17 S0.9725
X209.57 S1.0000
X209.77 S0.9412
X209.87 S0.1725
G0 Y-6.32 S0.0000
G1 X209.77 S0.3137
X209.17 S1.0000
X208.97 S0.9255
X208.87 S0.1804
G0 X187.87 S0.0000
G1 X187.77 S0.1647
X187.57 S0.7137
X187.37 S0.9843
X186.77 S1.0000
X186.57 S0.9961
X186.37 S0.4706
X186.27 S0.1294
G0 X179.67 S0.0000
G1 X179.57 S0.0902
X179.37 S0.3804
X179.17 S0.9843
X178.37 S1.0000
X178.17 S0.8588
X177.97 S0.2353
X177.87 S0.0078
G0 X154.87 S0.0000
G1 X154.77 S0.0392
X154.57 S0.0980
X154.37 S0.6275
X154.17 S0.7451
X153.97 S0.9608
X153.77 S0.9686
X151.57 S1.0000
X151.37 S0.9922
X151.17 S0.9686
X150.97 S0.9451
X150.77 S0.6824
X150.57 S0.1529
X150.47 S0.0510
G0 X126.67 S0.0000
G1 X126.57 S0.0039
X126.37 S0.0471
X126.17 S0.2863
X125.97 S0.7255
X125.77 S0.9216
X125.57 S0.9294
X125.37 S0.9804
X123.17 S1.0000
X122.97 S0.9765
X122.77 S0.9686
X122.57 S0.8627
X122.37 S0.4980
X122.17 S0.0314
X122.07 S0.0235
G0 X98.27 S0.0000
G1 X98.17 S0.0353
X97.97 S0.0784
X97.77 S0.5922
X97.57 S0.8667
X97.37 S0.9725
X97.17 S0.9922
X96.97 S0.9333
X94.97 S1.0000
X94.77 S0.9882
X94.57 S0.9686
X94.37 S0.8118
X94.17 S0.4549
X93.97 S0.0549
X93.87 S0.0235
G0 X70.07 S0.0000
G1 X69.97 S0.0078
X69.77 S0.0157
X69.57 S0.5843
X69.37 S0.7529
X69.17 S0.9608
X68.97 S0.9843
X66.77 S1.0000
X66.57 S0.9922
X66.37 S0.9686
X66.17 S0.9412
X65.97 S0.6941
X65.77 S0.2000
X65.67 S0.0039
G0 X42.47 S0.0000
G1 X42.37 S0.1176
X42.17 S0.8157
X41.97 S0.9804
X41.17 S1.0000
X40.97 S0.9608
X40.87 S0.1255
G0 X34.07 S0.0000
G1 X33.97 S0.1647
X33.77 S0.8157
X32.97 S1.0000
X32.77 S0.9647
X32.57 S0.4627
X32.47 S0.0275
G0 X11.47 S0.0000
G1 X11.37 S0.1647
X11.17 S0.9608
X10.77 S1.0000
X10.57 S0.9804
X10.47 S0.0863
G0 Y-6.12 S0.0000
G1 X10.57 S0.5765
X10.77 S0.9961
X11.17 S1.0000
X11.37 S0.8941
X11.47 S0.1020
G0 X32.67 S0.0000
G1 X32.77 S0.0314
X32.97 S0.4863
X33.17 S0.9569
X33.97 S1.0000
X34.17 S0.9843
X34.37 S0.7647
X34.57 S0.0706
X34.67 S0.0157
G0 X40.27 S0.0000
G1 X40.37 S0.0039
X40.57 S0.0392
X40.77 S0.7137
X40.97 S0.9216
X41.57 S1.0000
X41.77 S0.9961
X41.97 S0.8902
X42.17 S0.4000
X42.27 S0.1059
G0 X66.07 S0.0000
G1 X66.17 S0.0314
X66.37 S0.1804
X66.57 S0.2196
X66.77 S0.6392
X66.97 S0.8353
X67.17 S0.8196
X67.37 S0.9647
X68.37 S0.9922
X68.57 S0.9176
X68.97 S0.8275
X69.17 S0.5020
X69.37 S0.1961
X69.57 S0.0471
X69.67 S0.0039
G0 X94.27 S0.0000
G1 X94.37 S0.0039
X94.57 S0.0902
X94.77 S0.2000
X94.97 S0.6314
X95.37 S0.8353
X95.57 S0.9529
X96.57 S0.9922
X96.77 S0.9725
X96.97 S0.8471
X97.17 S0.8314
X97.37 S0.7020
X97.57 S0.2235
X97.77 S0.1294
X97.87 S0.0078
G0 X122.67 S0.0000
G1 X122.77 S0.1216
X122.97 S0.2000
X123.17 S0.3451
X123.37 S0.8196
X123.57 S0.8314
X123.77 S0.8784
X124.97 S0.9922
X125.17 S0.9412
X125.37 S0.8235
X125.57 S0.7333
X125.77 S0.2745
X125.97 S0.1647
X126.07 S0.0235
G0 X150.87 S0.0000
G1 X150.97 S0.0118
X151.17 S0.1843
X151.37 S0.2196
X151.57 S0.6392
X151.77 S0.8314
X151.97 S0.8980
X153.17 S0.9922
X153.37 S0.9216
X153.57 S0.8314
X153.77 S0.7647
X153.97 S0.1961
X154.17 S0.1922
X154.37 S0.0431
X154.47 S0.0078
G0 X178.07 S0.0000
G1 X178.17 S0.0039
X178.37 S0.2471
X178.57 S0.8392
X178.77 S0.9961
X178.97 S1.0000
X179.17 S0.9961
X179.57 S1.0000
X179.77 S0.8824
X179.97 S0.6471
X180.07 S0.0118
G0 X185.87 S0.0000
G1 X185.97 S0.0431
X186.17 S0.6667
X186.37 S0.9333
X187.17 S1.0000
X187.37 S0.9804
X187.57 S0.5137
X187.67 S0.0196
G0 X208.87 S0.0000
G1 X208.97 S0.0392
X209.17 S0.5647
X209.37 S0.9882
X209.77 S1.0000
X209.97 S0.8627
X210.07 S0.0157
G0 Y-5.92 S0.0000
G1 X209.97 S0.3020
X209.37 S1.0000
X209.17 S0.8902
X209.07 S0.2431
G0 X187.47 S0.0000
G1 X187.37 S0.0196
X187.17 S0.4275
X186.97 S0.8118
X186.77 S0.9608
X185.97 S1.0000
X185.77 S0.9961
X185.57 S0.4549
X185.37 S0.4196
X185.27 S0.0039
G0 X180.47 S0.0000
G1 X180.37 S0.0549
X180.17 S0.4549
X179.97 S0.5922
X179.17 S1.0000
X178.97 S0.9647
X178.77 S0.9333
X178.57 S0.5961
X178.47 S0.1373
G0 X153.67 S0.0000
G1 X153.37 S0.0039
X153.17 S0.2353
X152.97 S0.4471
X151.97 S0.4431
X151.77 S0.1765
X151.67 S0.0039
G0 X125.27 S0.0000
G1 X125.17 S0.0039
X124.97 S0.2863
X124.77 S0.4471
X123.97 S0.4431
X123.77 S0.4471
X123.57 S0.1294
X123.27 S0.0039
G0 X97.07 S0.0000
G1 X96.97 S0.0039
X96.77 S0.0314
X96.57 S0.3961
X96.37 S0.4471
X95.77 S0.4431
X95.57 S0.4471
X95.37 S0.3373
X95.17 S0.0157
X95.07 S0.0039
G0 X68.87 S0.0000
G1 X68.57 S0.0039
X68.37 S0.2392
X68.17 S0.4471
X67.57 S0.4431
X67.37 S0.4471
X67.17 S0.3569
X66.97 S0.0118
X66.87 S0.0039
G0 X41.87 S0.0000
G1 X41.77 S0.3098
X41.57 S0.7176
X41.37 S0.9490
X40.57 S1.0000
X40.37 S0.9765
X40.17 S0.4824
X39.97 S0.4549
X39.77 S0.2392
X39.67 S0.0431
G0 X34.87 S0.0000
G1 X34.77 S0.2745
X34.57 S0.6431
X34.37 S0.9961
X33.57 S1.0000
X33.37 S0.9725
X33.17 S0.7765
X32.97 S0.3490
X32.87 S0.0039
G0 X11.47 S0.0000
G1 X11.37 S0.0078
X11.17 S0.5686
X10.97 S0.9961
X10.57 S1.0000
X10.47 S0.7255
G0 X10.27 Y-5.72 S0.0000
G1 X10.37 S0.1529
X10.57 S0.9725
X10.97 S1.0000
X11.17 S0.9725
X11.37 S0.3961
X11.47 S0.0039
G0 X33.27 S0.0000
G1 X33.37 S0.0549
X33.57 S0.4392
X33.77 S0.7922
X33.97 S0.9647
X34.17 S0.9804
X34.37 S0.7725
X34.57 S0.7490
X34.77 S1.0000
X34.97 S0.9608
X35.17 S0.9020
X35.37 S0.4863
X35.57 S0.8588
X35.77 S0.2706
X35.97 S0.1098
X36.17 S0.1922
X36.27 S0.0392
G0 X38.87 S0.0000
G1 X38.97 S0.1843
X39.17 S0.1922
X39.37 S0.5608
X39.57 S0.7765
X39.77 S0.7098
X39.97 S0.9529
X40.97 S1.0000
X41.17 S0.9765
X41.37 S0.7098
X41.57 S0.2706
X41.67 S0.0431
G0 X178.67 S0.0000
G1 X178.77 S0.0275
X178.97 S0.2353
X179.17 S0.6980
X179.37 S0.9529
X179.57 S0.9961
X180.37 S1.0000
X180.57 S0.9137
X180.97 S0.9020
X181.17 S0.7843
X181.57 S0.1922
X181.67 S0.1647
G0 X184.27 S0.0000
G1 X184.77 S0.1922
X184.97 S0.7451
X185.17 S0.7569
X185.37 S0.9020
X185.57 S0.9922
X186.37 S1.0000
X186.57 S0.9961
X186.77 S0.8000
X186.97 S0.3922
X187.17 S0.0627
X187.27 S0.0039
G0 X209.07 S0.0000
G1 X209.17 S0.0510
X209.37 S0.8157
X209.97 S1.0000
X210.07 S0.6431
G0 Y-5.52 S0.0000
G1 X209.97 S0.6431
X209.57 S1.0000
X209.37 S0.9961
X209.17 S0.7451
X209.07 S0.0431
G0 X186.67 S0.0000
G1 X186.57 S0.1255
X186.37 S0.7333
X186.17 S0.9451
X184.17 S1.0000
X183.77 S0.7333
X183.67 S0.2588
G0 X182.27 S0.0000
G1 X182.17 S0.1686
X181.77 S0.7333
X181.57 S0.9647
X179.77 S1.0000
X179.57 S0.9686
X179.37 S0.7373
X179.17 S0.2471
X179.07 S0.0353
G0 X41.27 S0.0000
G1 X41.17 S0.0275
X40.97 S0.5725
X40.77 S0.9137
X38.97 S1.0000
X38.77 S0.9882
X38.37 S0.7333
X38.17 S0.6980
X38.07 S0.0157
G0 X36.87 S0.0000
G1 X36.77 S0.6745
X36.37 S0.7333
X36.17 S0.7882
X35.97 S1.0000
X35.77 S0.8863
X35.57 S0.9843
X34.97 S1.0000
X34.77 S0.9961
X34.57 S0.9176
X34.17 S1.0000
X33.97 S0.8078
X33.77 S0.3098
X33.67 S0.0902
G0 X23.37 S0.0000
G1 X23.27 S0.4941
G0 X11.27 S0.0000
G1 X11.17 S0.0667
X10.97 S0.9255
X10.37 S1.0000
X10.27 S0.1686
G0 Y-5.32 S0.0000
G1 X10.37 S0.4824
X10.97 S1.0000
X11.17 S0.8863
X11.27 S0.0667
G0 X23.07 S0.0000
G1 X23.17 S0.3725
X23.37 S1.0000
X23.47 S0.3412
G0 X34.07 S0.0000
G1 X34.17 S0.0314
X34.37 S0.5647
X34.57 S0.8980
X34.77 S0.9686
X39.57 S1.0000
X39.77 S0.9843
X39.97 S0.9255
X40.17 S1.0000
X40.37 S0.9961
X40.57 S0.9333
X40.77 S0.5529
X40.87 S0.1412
G0 X179.27 S0.0000
G1 X179.37 S0.0039
X179.57 S0.0196
X179.77 S0.3451
X179.97 S0.7529
X180.17 S0.9922
X185.77 S1.0000
X185.97 S0.9608
X186.17 S0.7176
X186.27 S0.3098
G0 X209.07 S0.0000
G1 X209.17 S0.0039
X209.37 S0.3686
X209.57 S0.9725
X210.17 S1.0000
X210.27 S0.1725
G0 Y-5.12 S0.0000
G1 X210.17 S0.3020
X209.57 S1.0000
X209.37 S0.8824
X209.27 S0.2431
G0 X186.07 S0.0000
G1 X185.97 S0.0667
X185.77 S0.3333
X185.57 S0.6706
X185.37 S0.8471
X185.17 S0.9529
X184.97 S0.9922
X180.97 S1.0000
X180.77 S0.9922
X180.57 S0.9451
X180.37 S0.9373
X180.17 S0.7176
X179.97 S0.5882
X179.77 S0.1216
X179.67 S0.0039
G0 X40.67 S0.0000
G1 X40.57 S0.0196
X40.37 S0.2588
X40.17 S0.6314
X39.97 S0.8275
X39.77 S0.9412
X39.57 S0.8118
X38.57 S1.0000
X38.37 S0.9961
X38.17 S0.9843
X37.97 S1.0000
X37.77 S0.9647
X35.37 S1.0000
X35.17 S0.9843
X34.97 S0.9451
X34.77 S0.7765
X34.57 S0.4784
X34.37 S0.1176
X34.27 S0.0235
G0 X23.47 S0.0000
G1 X23.37 S0.4588
X23.17 S1.0000
X23.07 S0.3725
G0 X11.27 S0.0000
G1 X11.17 S0.0118
X10.97 S0.3882
X10.77 S0.9922
X10.27 S1.0000
G0 Y-4.92 S0.0000
G1 X10.77 S1.0000
X10.97 S0.9922
X11.17 S0.3686
X11.27 S0.0039
G0 X23.07 S0.0000
G1 X23.17 S0.3725
X23.57 S1.0000
X23.67 S0.4627
G0 X34.87 S0.0000
G1 X34.97 S0.1020
X35.17 S0.2314
X35.37 S0.6431
X35.57 S0.7765
X35.77 S0.8706
X36.17 S0.9922
X36.37 S0.9961
X37.57 S1.0000
X37.77 S0.9451
X37.97 S0.9294
X38.17 S1.0000
X38.37 S0.9725
X38.57 S0.8824
X38.77 S1.0000
X39.17 S0.9922
X39.37 S0.8627
X39.57 S0.7765
X39.77 S0.5882
X39.97 S0.2353
X40.07 S0.1373
G0 X180.27 S0.0000
G1 X180.37 S0.0706
X180.57 S0.2314
X180.77 S0.2275
X180.97 S0.7333
X181.17 S0.8196
X181.37 S0.9882
X181.57 S0.9922
X181.77 S0.9961
X184.17 S1.0000
X184.37 S0.9961
X184.57 S0.9922
X184.77 S0.9255
X184.97 S0.7647
X185.17 S0.7176
X185.37 S0.3059
X185.57 S0.1569
X185.67 S0.0078
G0 X209.27 S0.0000
G1 X209.37 S0.0314
X209.57 S0.7176
X210.17 S1.0000
X210.27 S0.8824
G0 Y-4.72 S0.0000
G1 X210.17 S0.8824
X209.57 S1.0000
X209.37 S0.7216
X209.27 S0.0314
G0 X184.67 S0.0000
G1 X184.57 S0.2941
X184.37 S0.4392
X184.17 S0.6235
X183.97 S0.8667
X183.77 S0.8588
X183.57 S0.9294
X183.37 S0.9922
X182.57 S0.9882
X182.37 S0.9922
X182.17 S0.9255
X181.97 S0.8588
X181.77 S0.8667
X181.57 S0.5647
X181.37 S0.4353
X181.17 S0.4392
X181.07 S0.0706
G0 X180.77 S0.0000
G1 X180.67 S0.0039
G0 X39.27 S0.0000
G1 X39.17 S0.1608
X38.97 S0.4392
X38.77 S0.4784
X38.57 S0.8549
X38.37 S0.8627
X38.17 S0.8863
X37.97 S0.9922
X37.17 S0.9882
X36.97 S0.9843
X36.77 S0.8941
X36.57 S0.8588
X36.37 S0.8745
X36.17 S0.6902
X35.97 S0.4431
X35.77 S0.4627
X35.67 S0.1686
G0 X23.87 S0.0000
G1 X23.77 S0.0471
X23.57 S0.7922
X23.37 S1.0000
X23.17 S0.9529
X23.07 S0.2588
G0 X11.27 S0.0000
G1 X11.17 S0.0039
X10.97 S0.3255
X10.77 S0.9765
X10.17 S1.0000
X10.07 S0.1647
G0 Y-4.52 S0.0000
G1 X10.17 S0.5255
X10.77 S1.0000
X10.97 S0.8706
X11.07 S0.0706
G0 X23.27 S0.0000
G1 X23.37 S0.8431
X23.77 S1.0000
X23.87 S0.1529
G0 X36.27 S0.0000
G1 X36.37 S0.0667
X36.57 S0.1216
X36.77 S0.1176
X36.97 S0.2235
X37.17 S0.5490
X37.97 S0.5647
X38.17 S0.5765
X38.37 S0.1922
X38.57 S0.1176
X38.77 S0.1137
X38.87 S0.0078
G0 X181.67 S0.0000
G1 X181.77 S0.0314
X181.97 S0.1216
X182.17 S0.1176
X182.37 S0.3098
X182.57 S0.5765
X183.37 S0.5647
X183.57 S0.5725
X183.77 S0.3529
X184.17 S0.1176
X184.27 S0.0549
G0 X209.27 S0.0000
G1 X209.37 S0.0314
X209.57 S0.7216
X210.17 S1.0000
X210.27 S0.8824
G0 Y-4.32 S0.0000
G1 X210.17 S0.4314
X209.57 S1.0000
X209.37 S0.7294
X209.27 S0.0314
G0 X23.87 S0.0000
G1 X23.77 S0.1529
X23.37 S1.0000
X23.27 S0.8431
G0 X11.07 S0.0000
G1 X10.97 S0.0510
X10.77 S0.8667
X10.17 S1.0000
X10.07 S0.5255
G0 Y-4.12 S0.0000
G1 X10.17 S0.5255
X10.77 S1.0000
X10.97 S0.8706
X11.07 S0.0471
G0 X23.27 S0.0000
G1 X23.37 S0.1725
X23.77 S1.0000
X23.87 S0.9020
G0 X209.27 S0.0000
G1 X209.37 S0.0275
X209.57 S0.6353
X209.77 S0.9922
X210.17 S1.0000
X210.27 S0.8824
G0 Y-3.92 S0.0000
G1 X210.17 S0.8824
X209.77 S1.0000
X209.57 S0.9686
X209.37 S0.2863
X209.27 S0.0039
G0 X24.07 S0.0000
G1 X23.97 S0.0431
X23.77 S0.9098
X23.37 S1.0000
X23.27 S0.1725
G0 X22.87 S0.0000
G1 X22.77 S0.2824
X22.67 S0.2353
G0 X11.07 S0.0000
G1 X10.97 S0.0471
X10.77 S0.7961
X10.17 S1.0000
X9.97 S0.5686
X9.87 S0.0118
G0 Y-3.72 S0.0000
G1 X9.97 S0.1176
X10.57 S1.0000
X10.77 S0.9922
X10.97 S0.2980
X11.07 S0.0039
G0 X22.67 S0.0000
G1 X22.77 S0.5216
X22.97 S0.9961
X23.17 S0.3333
X23.37 S0.1725
X23.97 S1.0000
X24.07 S0.4275
G0 X209.47 S0.0000
G1 X209.57 S0.2549
X209.77 S0.9647
X210.17 S1.0000
X210.27 S0.8824
G0 Y-3.52 S0.0000
G1 X210.17 S0.8824
X209.77 S1.0000
X209.57 S0.9647
X209.47 S0.2549
G0 X24.07 S0.0000
G1 X23.97 S0.4275
X23.57 S1.0000
X23.37 S0.6745
X23.17 S0.0392
X22.97 S0.7059
X22.77 S0.9412
X22.67 S0.1725
G0 X10.87 S0.0000
G1 X10.77 S0.2078
X10.57 S0.9882
X9.97 S1.0000
X9.87 S0.1176
G0 Y-3.32 S0.0000
G1 X9.97 S0.1176
X10.57 S1.0000
X10.77 S0.9922
X10.87 S0.2039
G0 X22.87 S0.0000
G1 X22.97 S0.7255
X23.17 S1.0000
X23.37 S0.1569
X23.57 S0.6588
X23.97 S1.0000
X24.17 S0.8667
X24.27 S0.0353
G0 X209.47 S0.0000
G1 X209.57 S0.2549
X209.77 S0.9647
X210.17 S1.0000
X210.27 S0.8824
G0 Y-3.12 S0.0000
G1 X210.17 S0.8824
X209.77 S1.0000
X209.57 S0.9647
X209.47 S0.2549
G0 X24.27 S0.0000
G1 X24.17 S0.0471
X23.97 S0.9804
X23.57 S1.0000
X23.37 S0.6549
X23.17 S0.4588
X22.97 S0.9961
X22.87 S0.3843
G0 X10.87 S0.0000
G1 X10.77 S0.2039
X10.57 S0.9922
X9.97 S1.0000
X9.87 S0.1176
G0 Y-2.92 S0.0000
G1 X9.97 S0.1176
X10.57 S1.0000
X10.77 S0.9922
X10.87 S0.2078
G0 X23.07 S0.0000
G1 X23.17 S0.4392
X23.37 S0.8275
X23.57 S0.0745
X23.97 S1.0000
X24.17 S0.9961
X24.27 S0.6471
G0 X209.47 S0.0000
G1 X209.57 S0.2549
X209.77 S0.9569
X210.17 S1.0000
X210.37 S0.9059
X210.47 S0.0863
G0 Y-2.72 S0.0000
G1 X210.37 S0.4000
X209.77 S1.0000
X209.57 S0.7098
X209.47 S0.0510
G0 X24.27 S0.0000
G1 X24.17 S0.7216
X23.57 S1.0000
X23.37 S0.2549
X23.17 S0.8431
X23.07 S0.0941
G0 X10.87 S0.0000
G1 X10.77 S0.1804
X10.57 S0.9373
X9.97 S1.0000
X9.87 S0.6000
G0 Y-2.52 S0.0000
G1 X9.97 S0.7608
X10.57 S1.0000
X10.77 S0.6510
X10.87 S0.0078
G0 X23.27 S0.0000
G1 X23.37 S0.8431
X24.17 S1.0000
X24.37 S0.8314
X24.47 S0.0510
G0 X209.67 S0.0000
G1 X209.77 S0.6235
X210.37 S1.0000
X210.47 S0.4000
G0 Y-2.32 S0.0000
G1 X210.37 S0.4000
X209.77 S1.0000
X209.67 S0.6275
G0 X24.47 S0.0000
G1 X24.37 S0.1255
X23.57 S1.0000
X23.37 S0.9333
X23.27 S0.2431
G0 X10.87 S0.0000
G1 X10.77 S0.0078
X10.57 S0.6353
X9.97 S1.0000
X9.87 S0.7608
G0 Y-2.12 S0.0000
G1 X9.97 S0.7608
X10.57 S1.0000
X10.77 S0.6353
X10.87 S0.0078
G0 X23.47 S0.0000
G1 X23.57 S0.6588
X24.37 S1.0000
X24.47 S0.7176
G0 X209.67 S0.0000
G1 X209.77 S0.6235
X210.37 S1.0000
X210.47 S0.4000
G0 Y-1.92 S0.0000
G1 X210.37 S0.4000
X209.77 S1.0000
X209.67 S0.6235
G0 X24.47 S0.0000
G1 X24.37 S0.9922
X23.57 S1.0000
X23.47 S0.4471
G0 X10.87 S0.0000
G1 X10.77 S0.0078
X10.57 S0.6353
X9.97 S1.0000
X9.87 S0.7608
G0 Y-1.72 S0.0000
G1 X9.97 S0.7608
X10.57 S1.0000
X10.77 S0.6353
X10.87 S0.0078
G0 X23.67 S0.0000
G1 X24.57 S1.0000
X24.67 S0.4039
G0 X209.67 S0.0000
G1 X209.77 S0.6235
X210.37 S1.0000
X210.47 S0.4000
G0 Y-1.52 S0.0000
G1 X210.37 S0.4000
X209.77 S1.0000
X209.67 S0.6235
G0 X24.87 S0.0000
G1 X24.77 S0.0588
X24.57 S0.7922
X23.77 S1.0000
X23.67 S0.5765
G0 X10.87 S0.0000
G1 X10.77 S0.0078
X10.57 S0.6353
X9.97 S1.0000
X9.87 S0.7608
G0 Y-1.32 S0.0000
G1 X9.97 S0.5961
X10.57 S1.0000
X10.77 S0.8235
X10.87 S0.1059
G0 X23.67 S0.0000
G1 X23.77 S0.2275
X23.97 S0.9608
X24.57 S1.0000
X24.77 S0.9882
X24.87 S0.2627
G0 X209.67 S0.0000
G1 X209.77 S0.6275
X210.37 S1.0000
X210.47 S0.4000
G0 Y-1.12 S0.0000
G1 X210.37 S0.4000
X209.77 S1.0000
X209.57 S0.6353
X209.47 S0.0078
G0 X24.87 S0.0000
G1 X24.77 S0.7373
X24.17 S1.0000
X23.97 S0.9647
X23.87 S0.2275
G0 X10.87 S0.0000
G1 X10.77 S0.2078
X10.57 S0.9922
X9.97 S1.0000
X9.87 S0.1176
G0 Y-0.92 S0.0000
G1 X9.97 S0.1176
X10.57 S1.0000
X10.77 S0.9922
X10.87 S0.2039
G0 X24.07 S0.0000
G1 X24.17 S0.2784
X24.37 S0.9725
X24.77 S1.0000
X24.97 S0.8784
X25.07 S0.1098
G0 X209.47 S0.0000
G1 X209.57 S0.1922
X209.77 S0.8745
X210.17 S1.0000
X210.37 S0.9333
X210.47 S0.1843
G0 X210.27 Y-0.72 S0.0000
G1 X210.17 S0.8824
X209.77 S1.0000
X209.57 S0.9647
X209.47 S0.2588
G0 X25.27 S0.0000
G1 X25.17 S0.1333
X24.97 S0.9569
X24.37 S1.0000
X24.17 S0.3294
X24.07 S0.1373
G0 X10.87 S0.0000
G1 X10.77 S0.2039
X10.57 S0.9922
X9.97 S1.0000
X9.87 S0.1176
G0 Y-0.52 S0.0000
G1 X9.97 S0.1176
X10.57 S1.0000
X10.77 S0.9922
X10.87 S0.2039
G0 X23.67 S0.0000
G1 X23.77 S0.5765
G0 X24.07 S0.0000
G1 X24.17 S0.0941
X24.37 S0.0549
X24.57 S0.8941
X25.17 S1.0000
X25.37 S0.9216
X25.47 S0.1059
G0 X209.47 S0.0000
G1 X209.57 S0.2549
X209.77 S0.9647
X210.17 S1.0000
X210.27 S0.8824
G0 Y-0.32 S0.0000
G1 X210.17 S0.8824
X209.77 S1.0000
X209.57 S0.9647
X209.47 S0.2549
G0 X26.27 S0.0000
G1 X25.97 S0.0118
X25.77 S0.6078
X25.57 S0.4000
X25.37 S0.1333
X25.17 S1.0000
X24.97 S0.9922
X24.77 S1.0000
X24.57 S0.9961
X24.37 S0.8667
X24.17 S0.3333
X23.97 S0.4627
X23.77 S0.3961
X23.57 S0.6980
X23.37 S0.3412
X23.17 S1.0000
X23.07 S0.3804
G0 X10.87 S0.0000
G1 X10.77 S0.2039
X10.57 S0.9922
X9.97 S1.0000
X9.87 S0.1176
G0 Y-0.12 S0.0000
G1 X9.97 S0.1176
X10.57 S1.0000
X10.77 S0.9922
X10.87 S0.2078
G0 X23.07 S0.0000
G1 X23.17 S0.9294
X23.37 S1.0000
X23.57 S0.3412
X23.77 S0.9647
X23.97 S0.9843
X24.17 S1.0000
X24.37 S0.7843
X24.57 S0.3294
X24.77 S0.4510
X24.97 S0.9765
X25.17 S0.4706
X25.37 S1.0000
X25.57 S0.7529
X25.77 S0.0588
X25.97 S0.4157
X26.17 S0.8863
X26.37 S0.8706
X26.57 S0.2353
X26.67 S0.0275
G0 X209.47 S0.0000
G1 X209.57 S0.2549
X209.77 S0.9647
X210.17 S1.0000
X210.27 S0.8824
G0 Y0.08 S0.0000
G1 X210.17 S0.8824
X209.77 S1.0000
X209.57 S0.9647
X209.47 S0.2549
G0 X26.67 S0.0000
G1 X26.57 S0.7294
X26.17 S1.0000
X25.97 S0.8980
X25.77 S0.0902
X25.57 S0.8235
X24.97 S1.0000
X24.77 S0.4157
X24.57 S0.3804
X23.57 S1.0000
X23.37 S0.3412
X22.97 S1.0000
X22.87 S0.5569
G0 X10.87 S0.0000
G1 X10.77 S0.1843
X10.57 S0.9882
X9.97 S1.0000
X9.87 S0.1176
G0 Y0.28 S0.0000
G1 X9.97 S0.1176
X10.57 S1.0000
X10.77 S0.9961
X10.97 S0.4745
X11.07 S0.0157
G0 X22.67 S0.0000
G1 X22.77 S0.0902
X22.97 S0.8353
X23.07 S0.3765
G0 X23.67 S0.0000
G1 X24.57 S1.0000
X24.77 S0.6902
X24.97 S0.0392
X25.17 S0.4824
X25.77 S1.0000
X25.97 S0.7647
X26.17 S0.1529
X26.37 S0.8588
X26.77 S1.0000
X26.97 S0.6471
X27.07 S0.0196
G0 X89.67 S0.0000
G1 X89.77 S0.3059
G0 X209.47 S0.0000
G1 X209.57 S0.2745
X209.77 S0.9686
X210.17 S1.0000
X210.27 S0.8824
G0 Y0.48 S0.0000
G1 X210.17 S0.7294
X209.77 S1.0000
X209.57 S0.9882
X209.37 S0.5961
X209.27 S0.0235
G0 X89.77 S0.0000
G1 X89.67 S0.1137
G0 X27.07 S0.0000
G1 X26.97 S0.0431
X26.77 S0.8627
X26.57 S1.0000
X26.37 S0.8667
X26.17 S0.1137
X25.97 S0.2745
X25.37 S1.0000
X25.27 S0.5373
G0 X24.87 S0.0000
G1 X24.77 S0.0314
X24.57 S0.6627
X23.97 S1.0000
X23.77 S0.8706
X23.57 S0.1490
X23.37 S0.8510
X23.17 S0.2784
X22.97 S0.1255
X22.77 S0.3255
X22.67 S0.1765
G0 X11.07 S0.0000
G1 X10.97 S0.0510
X10.77 S0.8588
X10.17 S1.0000
X9.97 S0.5961
X9.87 S0.0157
G0 X10.07 Y0.68 S0.0000
G1 X10.17 S0.5255
X10.77 S1.0000
X10.97 S0.8667
X11.07 S0.0471
G0 X22.67 S0.0000
G1 X22.77 S0.1529
X22.97 S0.6941
X23.17 S0.6275
