G21         ; Set units to mm
G90         ; Absolute positioning


; Pass 0

; First Move
G0 X40.03 Y11.31 
; Generated by LaserWeb (lw.raster-to-gcode.js)
; Size       : 0 x 0 mm
; PPI        : x: 300 - y: 300
; PPM        : x: 0.0846666667 - y: 0.0846666667
; Tool diam. : 0.2 mm
; Feed rate  : 4999 mm/min
; Beam range : 0 to 1
; Beam power : 0 to 100 %
; Options    : trimLine, joinPixel

G1 F4999

G0 X40.03 Y11.31 S0.0000
G1 X40.13 S0.0745
G0 X149.23 Y11.51 S0.0000
G1 X149.13 S0.0157
X148.93 S0.2549
X148.73 S0.5059
X146.93 S1.0000
X146.73 S0.4510
X146.53 S0.2588
X146.43 S0.0157
G0 X130.23 S0.0000
G1 X130.13 S0.0431
X129.93 S0.3373
X129.73 S0.9333
X128.13 S1.0000
X127.93 S0.5961
X127.73 S0.2667
X127.63 S0.0431
G0 X111.43 S0.0000
G1 X111.33 S0.0431
X111.13 S0.3373
X110.93 S0.8941
X109.33 S1.0000
X109.13 S0.7569
X108.93 S0.3373
X108.83 S0.0824
G0 X92.63 S0.0000
G1 X92.53 S0.0431
X92.33 S0.3373
X92.13 S0.8784
X90.53 S1.0000
X90.33 S0.9059
X90.13 S0.3373
X90.03 S0.0941
G0 X73.63 S0.0000
G1 X73.53 S0.1529
X73.33 S0.3373
X71.53 S1.0000
X71.33 S0.3686
X71.13 S0.0980
X71.03 S0.0314
G0 X40.13 S0.0000
G1 X40.03 S0.0745
G0 Y11.71 S0.0000
G1 X40.13 S0.0745
G0 X70.63 S0.0000
G1 X70.73 S0.0118
X70.93 S0.3529
X71.13 S0.9098
X73.53 S1.0000
X73.73 S0.9608
X73.93 S0.6784
X74.03 S0.3804
G0 X89.63 S0.0000
G1 X89.73 S0.1255
X89.93 S0.6510
X92.73 S1.0000
X92.93 S0.6549
X93.03 S0.1412
G0 X108.43 S0.0000
G1 X108.53 S0.1098
X108.73 S0.6510
X111.53 S1.0000
X111.73 S0.5176
X111.83 S0.0510
G0 X127.23 S0.0000
G1 X127.33 S0.0980
X127.53 S0.6627
X130.13 S1.0000
X130.33 S0.9922
X130.53 S0.6784
X130.63 S0.2118
G0 X146.23 S0.0000
G1 X146.33 S0.1765
X146.53 S0.7882
X149.13 S1.0000
X149.33 S0.8039
X149.43 S0.4980
G0 X149.83 Y11.91 S0.0000
G1 X149.73 S0.0627
X149.53 S0.8980
X148.73 S1.0000
X146.93 S0.9922
X146.13 S1.0000
X145.93 S0.8824
X145.83 S0.2431
G0 X131.03 S0.0000
G1 X130.93 S0.0196
X130.73 S0.8941
X129.93 S1.0000
X129.73 S0.9961
X128.13 S0.9922
X127.33 S1.0000
X127.13 S0.9804
X127.03 S0.4824
G0 X112.03 S0.0000
G1 X111.93 S0.3569
X111.73 S0.9686
X111.13 S1.0000
X109.33 S0.9922
X109.13 S0.9961
X108.53 S1.0000
X108.33 S0.9843
X108.13 S0.5216
X108.03 S0.0078
G0 X93.23 S0.0000
G1 X93.13 S0.3529
X92.93 S0.9922
X92.33 S1.0000
X92.13 S0.9961
X90.53 S0.9922
X90.33 S0.9961
X89.73 S1.0000
X89.53 S0.9882
X89.33 S0.6353
X89.23 S0.0824
G0 X74.43 S0.0000
G1 X74.33 S0.1412
X74.13 S0.7608
X73.93 S0.9961
X73.33 S1.0000
X71.53 S0.9922
X70.73 S1.0000
X70.53 S0.9608
X70.43 S0.1490
G0 X40.13 S0.0000
G1 X40.03 S0.0745
G0 Y12.11 S0.0000
G1 X40.13 S0.0745
G0 X70.03 S0.0000
G1 X70.13 S0.0549
X70.33 S0.5216
X70.93 S1.0000
X71.13 S0.9647
X71.33 S0.8824
X71.53 S0.6118
X73.13 S0.2196
X73.33 S0.2157
X73.53 S0.5882
X73.73 S0.8431
X73.93 S0.9922
X74.53 S1.0000
X74.73 S0.9059
X74.83 S0.0902
G0 X88.83 S0.0000
G1 X88.93 S0.0235
X89.13 S0.6588
X89.93 S1.0000
X90.13 S0.8706
X90.33 S0.6392
X90.53 S0.2706
X92.13 S0.2196
X92.33 S0.3843
X92.53 S0.7020
X92.73 S0.9216
X93.33 S1.0000
X93.53 S0.7569
X93.63 S0.2078
G0 X107.83 S0.0000
G1 X107.93 S0.3490
X108.13 S0.9373
X108.73 S1.0000
X108.93 S0.9294
X109.13 S0.6549
X109.33 S0.4706
X110.93 S0.2196
X111.13 S0.2667
X111.33 S0.6275
X111.53 S0.9216
X112.13 S1.0000
X112.33 S0.9686
X112.43 S0.2235
G0 X126.63 S0.0000
G1 X126.73 S0.1255
X126.93 S0.8510
X127.53 S1.0000
X127.73 S0.9412
X127.93 S0.7647
X128.13 S0.4784
X128.33 S0.2157
X129.73 S0.2196
X129.93 S0.2667
X130.13 S0.6392
X130.33 S0.9294
X130.53 S0.9961
X130.93 S1.0000
X131.13 S0.8314
X131.23 S0.2235
G0 X145.43 S0.0000
G1 X145.53 S0.2118
X145.73 S0.7922
X146.33 S1.0000
X146.53 S0.9725
X146.73 S0.7059
X146.93 S0.5216
X148.73 S0.2196
X148.93 S0.5765
X149.13 S0.8588
X149.33 S0.9922
X149.93 S1.0000
X150.13 S0.6431
X150.23 S0.0196
G0 X150.43 Y12.31 S0.0000
G1 X150.33 S0.1725
X150.13 S0.8667
X149.73 S1.0000
X149.53 S0.9961
X149.33 S0.7569
X149.13 S0.3373
X149.03 S0.0627
G0 X146.63 S0.0000
G1 X146.53 S0.0196
X146.33 S0.2745
X146.13 S0.7765
X145.93 S0.9922
X145.53 S1.0000
X145.33 S0.9569
X145.23 S0.4235
G0 X131.43 S0.0000
G1 X131.33 S0.7020
X131.13 S0.9961
X130.93 S1.0000
X130.73 S0.9961
X130.53 S0.8235
X130.33 S0.4078
X130.23 S0.1176
G0 X127.83 S0.0000
G1 X127.73 S0.0353
X127.53 S0.1686
X127.33 S0.6314
X127.13 S0.9686
X126.73 S1.0000
X126.53 S0.9725
X126.43 S0.2745
G0 X112.63 S0.0000
G1 X112.53 S0.6039
X111.93 S1.0000
X111.73 S0.9412
X111.53 S0.5255
X111.43 S0.0980
G0 X109.03 S0.0000
G1 X108.93 S0.0078
X108.73 S0.1451
X108.53 S0.5725
X108.33 S0.9451
X107.93 S1.0000
X107.73 S0.9922
X107.63 S0.7686
G0 X93.83 S0.0000
G1 X93.73 S0.5059
X93.13 S1.0000
X92.93 S0.9216
X92.73 S0.5059
X92.53 S0.0863
X92.43 S0.0157
G0 X90.03 S0.0000
G1 X89.93 S0.0706
X89.73 S0.4157
X89.53 S0.8588
X89.33 S0.9961
X88.93 S1.0000
X88.73 S0.8667
X88.63 S0.2706
G0 X75.03 S0.0000
G1 X74.93 S0.0275
X74.73 S0.9098
X74.33 S1.0000
X74.13 S0.9961
X73.93 S0.7804
X73.73 S0.3373
X73.63 S0.0667
G0 X71.23 S0.0000
G1 X71.13 S0.0706
X70.93 S0.2314
X70.73 S0.7176
X70.53 S0.9882
X70.13 S1.0000
X69.93 S0.9020
X69.83 S0.0667
G0 X40.13 S0.0000
G1 X40.03 S0.0745
G0 Y12.51 S0.0000
G1 X40.13 S0.0745
G0 X69.63 S0.0000
G1 X69.73 S0.2824
X69.93 S1.0000
X70.13 S0.9843
X70.33 S0.9608
X70.53 S0.7725
X70.73 S0.2078
X70.83 S0.0118
G0 X74.03 S0.0000
G1 X74.13 S0.0431
X74.33 S0.3882
X74.53 S0.9373
X74.73 S0.9922
X74.93 S1.0000
X75.13 S0.9804
X75.23 S0.4000
G0 X88.43 S0.0000
G1 X88.53 S0.2157
X88.73 S0.9961
X88.93 S1.0000
X89.13 S0.9961
X89.33 S0.9294
X89.53 S0.4078
X89.63 S0.0471
G0 X93.03 S0.0000
G1 X93.13 S0.1569
X93.33 S0.7569
X93.53 S0.9961
X93.93 S1.0000
X94.13 S0.4824
X94.23 S0.0039
G0 X107.23 S0.0000
G1 X107.33 S0.0039
X107.53 S0.7961
X107.93 S1.0000
X108.13 S0.9882
X108.33 S0.6118
X108.43 S0.1098
G0 X111.83 S0.0000
G1 X111.93 S0.0902
X112.13 S0.5804
X112.33 S0.9843
X112.73 S1.0000
X112.93 S0.9176
X113.03 S0.0431
G0 X126.03 S0.0000
G1 X126.13 S0.0039
X126.33 S0.7137
X126.73 S1.0000
X126.93 S0.9765
X127.13 S0.5569
X127.23 S0.1059
G0 X130.63 S0.0000
G1 X130.73 S0.0275
X130.93 S0.3843
X131.13 S0.9804
X131.53 S1.0000
X131.73 S0.8039
X131.83 S0.0431
G0 X145.03 S0.0000
G1 X145.13 S0.6431
X145.53 S1.0000
X145.73 S0.9961
X145.93 S0.7804
X146.13 S0.2235
X146.23 S0.0039
G0 X149.43 S0.0000
G1 X149.53 S0.0392
X149.73 S0.3647
X149.93 S0.8902
X150.53 S1.0000
X150.63 S0.0275
G0 X150.83 Y12.71 S0.0000
G1 X150.73 S0.6039
X150.33 S1.0000
X150.13 S0.9686
X149.93 S0.3451
X149.83 S0.0392
G0 X145.83 S0.0000
G1 X145.73 S0.0235
X145.53 S0.2510
X145.33 S0.8745
X144.93 S1.0000
X144.83 S0.5882
G0 X132.03 S0.0000
G1 X131.93 S0.2706
X131.73 S0.9569
X131.53 S1.0000
X131.33 S0.9922
X131.13 S0.6667
X130.93 S0.1294
X130.83 S0.0039
G0 X127.03 S0.0000
G1 X126.93 S0.0039
X126.73 S0.1373
X126.53 S0.7882
X126.13 S1.0000
X125.93 S0.8824
X125.83 S0.0941
G0 X113.23 S0.0000
G1 X113.13 S0.3882
X112.93 S0.9255
X112.53 S1.0000
X112.33 S0.7569
X112.23 S0.1294
G0 X108.23 S0.0000
G1 X108.13 S0.0078
X107.93 S0.1451
X107.73 S0.7059
X107.53 S0.9961
X107.33 S1.0000
X107.13 S0.7529
X107.03 S0.0039
G0 X94.43 S0.0000
G1 X94.33 S0.0078
X94.13 S0.9020
X93.93 S1.0000
X93.73 S0.9961
X93.53 S0.7451
X93.33 S0.2392
X93.23 S0.0157
G0 X89.23 S0.0000
G1 X89.13 S0.0588
X88.93 S0.4157
X88.73 S0.9882
X88.53 S1.0000
X88.33 S0.9843
X88.23 S0.7176
G0 X75.43 S0.0000
G1 X75.33 S0.3804
X75.13 S0.9647
X74.93 S0.9961
X74.73 S0.8824
X74.53 S0.3333
X74.43 S0.0392
G0 X70.43 S0.0000
G1 X70.33 S0.0196
X70.13 S0.4039
X69.93 S0.9216
X69.73 S0.9765
X69.53 S1.0000
X69.43 S0.8196
G0 X40.13 S0.0000
G1 X40.03 S0.0745
G0 Y12.91 S0.0000
G1 X40.13 S0.0745
G0 X69.23 S0.0000
G1 X69.33 S0.8039
X69.73 S1.0000
X69.93 S0.9216
X70.13 S0.0902
X70.23 S0.0039
G0 X74.63 S0.0000
G1 X74.73 S0.0039
X74.93 S0.0549
X75.13 S0.9294
X75.33 S0.9961
X75.53 S0.9843
X75.63 S0.8392
G0 X88.03 S0.0000
G1 X88.13 S0.6980
X88.53 S1.0000
X88.73 S0.8824
X88.93 S0.2627
X89.03 S0.0039
G0 X93.63 S0.0000
G1 X93.73 S0.0118
X93.93 S0.6196
X94.33 S1.0000
X94.43 S0.9098
G0 X107.03 S0.0000
G1 X107.13 S0.8235
X107.33 S1.0000
X107.53 S0.9961
X107.73 S0.3216
X107.83 S0.0275
G0 X112.43 S0.0000
G1 X112.53 S0.0196
X112.73 S0.5647
X112.93 S0.9922
X113.13 S1.0000
X113.33 S0.9922
X113.43 S0.3647
G0 X125.63 S0.0000
G1 X125.73 S0.0627
X125.93 S0.9765
X126.13 S1.0000
X126.33 S0.9922
X126.53 S0.6588
X126.63 S0.0314
G0 X131.23 S0.0000
G1 X131.33 S0.0157
X131.53 S0.2549
X131.93 S1.0000
X132.13 S0.9961
X132.23 S0.4863
G0 X144.63 S0.0000
G1 X144.73 S0.6745
X145.13 S1.0000
X145.33 S0.7176
X145.43 S0.1294
G0 X150.23 S0.0000
G1 X150.33 S0.1059
X150.53 S0.8392
X150.73 S1.0000
X150.93 S0.9961
X151.03 S0.6157
G0 X151.23 Y13.11 S0.0000
G1 X151.13 S0.6353
X150.93 S1.0000
X150.73 S0.8431
X150.53 S0.8549
X150.43 S0.0078
G0 X145.03 S0.0000
G1 X144.93 S0.7216
X144.73 S0.9922
X144.53 S1.0000
X144.33 S0.6745
X144.23 S0.0039
G0 X132.43 S0.0000
G1 X132.33 S0.4235
X131.93 S1.0000
X131.73 S0.9216
X131.63 S0.0784
G0 X126.23 S0.0000
G1 X126.13 S0.2824
X125.93 S0.9804
X125.53 S1.0000
X125.43 S0.0510
G0 X113.63 S0.0000
G1 X113.53 S0.2118
X113.13 S1.0000
X112.93 S0.9686
X112.83 S0.2706
G0 X107.43 S0.0000
G1 X107.33 S0.3490
X107.13 S0.9490
X106.93 S1.0000
X106.73 S0.8000
X106.63 S0.0549
G0 X94.83 S0.0000
G1 X94.73 S0.0118
X94.53 S0.9529
X94.33 S1.0000
X94.13 S0.9882
X94.03 S0.6353
G0 X88.63 S0.0000
G1 X88.53 S0.0745
X88.33 S0.9059
X87.93 S1.0000
X87.83 S0.6902
G0 X76.03 S0.0000
G1 X75.93 S0.0118
X75.73 S0.8314
X75.53 S1.0000
X75.33 S0.9961
X75.13 S0.5490
X75.03 S0.0039
G0 X69.63 S0.0000
G1 X69.53 S0.7020
X69.33 S0.9961
X69.13 S1.0000
X68.93 S0.8667
X68.83 S0.0039
G0 X40.13 S0.0000
G1 X40.03 S0.0745
G0 Y13.31 S0.0000
G1 X40.13 S0.0745
G0 X68.63 S0.0000
G1 X68.73 S0.0196
X68.93 S0.7882
X69.33 S1.0000
X69.53 S0.2471
X69.63 S0.0039
G0 X75.23 S0.0000
G1 X75.33 S0.0039
X75.53 S0.5882
X75.73 S0.9725
X75.93 S1.0000
X76.13 S0.8078
X76.23 S0.0196
G0 X87.63 S0.0000
G1 X87.73 S0.2392
X87.93 S1.0000
X88.13 S0.9961
X88.33 S0.6471
X88.43 S0.0157
G0 X94.23 S0.0000
G1 X94.33 S0.2902
X94.53 S0.9882
X94.73 S1.0000
X94.93 S0.9176
X95.03 S0.0314
G0 X106.43 S0.0000
G1 X106.53 S0.1333
X106.93 S1.0000
X107.13 S0.9333
X107.23 S0.1098
G0 X113.03 S0.0000
G1 X113.13 S0.0667
X113.33 S0.8235
X113.73 S1.0000
X113.83 S0.0431
G0 X125.43 S0.0000
G1 X125.53 S0.9961
X125.73 S1.0000
X125.93 S0.8863
X126.03 S0.0941
G0 X131.83 S0.0000
G1 X131.93 S0.0510
X132.13 S0.6431
X132.53 S1.0000
X132.73 S0.4667
X132.83 S0.0039
G0 X144.03 S0.0000
G1 X144.13 S0.0471
X144.33 S0.9176
X144.53 S1.0000
X144.73 S0.9922
X144.83 S0.3412
G0 X150.83 S0.0000
G1 X150.93 S0.5647
X151.13 S0.9961
X151.33 S1.0000
X151.53 S0.5725
X151.63 S0.0039
G0 Y13.51 S0.0000
G1 X151.53 S0.5529
X151.13 S1.0000
X150.93 S0.5373
X150.83 S0.0118
G0 X144.63 S0.0000
G1 X144.53 S0.3294
X144.33 S1.0000
X144.13 S0.9647
X143.93 S0.9490
X143.83 S0.0667
G0 X132.83 S0.0000
G1 X132.73 S0.4392
X132.53 S1.0000
X132.33 S0.9961
X132.13 S0.8510
X132.03 S0.0824
G0 X125.83 S0.0000
G1 X125.73 S0.0627
X125.53 S0.9020
X125.33 S1.0000
X125.23 S0.7882
G0 X114.03 S0.0000
G1 X113.93 S0.0510
X113.73 S0.9451
X113.53 S1.0000
X113.33 S0.8510
X113.23 S0.0902
G0 X107.03 S0.0000
G1 X106.93 S0.0627
X106.73 S0.9255
X106.53 S1.0000
X106.33 S0.9882
X106.23 S0.1412
G0 X95.23 S0.0000
G1 X95.13 S0.0431
X94.93 S0.8745
X94.73 S0.9961
X94.53 S0.9882
X94.43 S0.2353
G0 X88.23 S0.0000
G1 X88.13 S0.0196
X87.93 S0.6667
X87.73 S0.9961
X87.53 S0.9922
X87.43 S0.2549
G0 X76.23 S0.0000
G1 X76.13 S0.4431
X75.93 S1.0000
X75.73 S0.9686
X75.63 S0.2314
G0 X69.43 S0.0000
G1 X69.33 S0.0039
X69.13 S0.6706
X68.93 S0.9961
X68.73 S1.0000
X68.53 S0.7569
X68.43 S0.0118
G0 X40.13 S0.0000
G1 X40.03 S0.0745
G0 Y13.71 S0.0000
G1 X40.13 S0.0745
G0 X68.23 S0.0000
G1 X68.33 S0.0196
X68.53 S0.7569
X68.73 S1.0000
X68.93 S0.9843
X69.03 S0.3294
G0 X75.83 S0.0000
G1 X75.93 S0.3020
X76.13 S0.9647
X76.33 S0.9961
X76.43 S0.3686
G0 X87.23 S0.0000
G1 X87.33 S0.2235
X87.73 S1.0000
X87.93 S0.7137
X88.03 S0.0392
G0 X94.63 S0.0000
G1 X94.73 S0.2902
X94.93 S0.8902
X95.13 S1.0000
X95.33 S0.8549
X95.43 S0.0353
G0 X106.03 S0.0000
G1 X106.13 S0.1412
X106.53 S1.0000
X106.73 S0.7098
X106.83 S0.0902
G0 X113.43 S0.0000
G1 X113.53 S0.1137
X113.73 S0.8980
X113.93 S1.0000
X114.13 S0.9529
X114.23 S0.0510
G0 X124.83 S0.0000
G1 X124.93 S0.0118
X125.13 S0.6902
X125.33 S1.0000
X125.53 S0.9059
X125.63 S0.1098
G0 X132.43 S0.0000
G1 X132.53 S0.5922
X132.73 S0.9961
X132.93 S1.0000
X133.03 S0.4000
G0 X143.63 S0.0000
G1 X143.73 S0.0627
X143.93 S0.9059
X144.13 S0.9529
X144.33 S0.9451
X144.53 S0.3843
X144.63 S0.0039
G0 X151.03 S0.0000
G1 X151.13 S0.0118
X151.33 S0.5098
X151.53 S0.9647
X151.73 S1.0000
X151.93 S0.5529
X152.03 S0.0078
G0 Y13.91 S0.0000
G1 X151.93 S0.2353
X151.73 S0.9725
X151.53 S0.9961
X151.33 S0.5490
X151.23 S0.0039
G0 X144.23 S0.0000
G1 X144.13 S0.3255
X143.93 S0.9725
X143.73 S1.0000
X143.63 S0.5725
G0 X133.23 S0.0000
G1 X133.13 S0.4863
X132.93 S1.0000
X132.73 S0.9961
X132.53 S0.6039
X132.43 S0.0039
G0 X125.43 S0.0000
G1 X125.33 S0.1451
X125.13 S0.9333
X124.93 S1.0000
X124.83 S0.6667
G0 X114.43 S0.0000
G1 X114.33 S0.0980
X114.13 S0.9216
X113.93 S1.0000
X113.73 S0.8902
X113.63 S0.1098
G0 X106.63 S0.0000
G1 X106.53 S0.0314
X106.33 S0.7647
X106.13 S1.0000
X106.03 S0.9922
G0 X95.43 S0.0000
G1 X95.33 S0.8627
X95.13 S1.0000
X94.93 S0.9451
X94.83 S0.1490
G0 X87.83 S0.0000
G1 X87.73 S0.0471
X87.53 S0.7294
X87.33 S0.9961
X87.13 S1.0000
X87.03 S0.2588
G0 X76.63 S0.0000
G1 X76.53 S0.3765
X76.33 S0.9020
X76.13 S0.9725
X76.03 S0.3216
G0 X68.83 S0.0000
G1 X68.73 S0.3529
X68.53 S0.9765
X68.33 S1.0000
X68.13 S0.7373
X68.03 S0.0314
G0 X40.13 S0.0000
G1 X40.03 S0.0745
G0 Y14.11 S0.0000
G1 X40.13 S0.0745
G0 X67.83 S0.0000
G1 X67.93 S0.0039
X68.13 S0.7569
X68.33 S1.0000
X68.53 S0.9922
X68.73 S0.4039
X68.83 S0.0039
G0 X76.03 S0.0000
G1 X76.13 S0.0196
X76.33 S0.6902
X76.73 S1.0000
X76.83 S0.0510
G0 X86.83 S0.0000
G1 X86.93 S0.2275
X87.13 S0.9922
X87.33 S1.0000
X87.53 S0.7490
X87.63 S0.0353
G0 X95.03 S0.0000
G1 X95.13 S0.3098
X95.33 S0.9882
X95.53 S1.0000
X95.63 S0.4941
G0 X105.83 S0.0000
G1 X105.93 S0.8235
X106.13 S1.0000
X106.33 S0.9529
X106.43 S0.0941
G0 X113.83 S0.0000
G1 X113.93 S0.1176
X114.13 S0.9137
X114.33 S1.0000
X114.53 S0.9059
X114.63 S0.0627
G0 X124.63 S0.0000
G1 X124.73 S0.7176
X124.93 S1.0000
X125.13 S0.9294
X125.23 S0.1255
G0 X132.63 S0.0000
G1 X132.73 S0.1216
X132.93 S0.9059
X133.33 S1.0000
X133.43 S0.4863
G0 X143.43 S0.0000
G1 X143.53 S0.6078
X143.73 S1.0000
X143.93 S0.9961
X144.13 S0.4118
X144.23 S0.0039
G0 X151.43 S0.0000
G1 X151.53 S0.0314
X151.73 S0.6471
X151.93 S1.0000
X152.13 S0.9843
X152.23 S0.1137
G0 X172.23 Y14.31 S0.0000
G1 X172.13 S0.1294
X171.73 S0.1843
X171.53 S0.7137
X169.33 S0.7216
X168.93 S0.1843
X168.83 S0.0824
G0 X152.43 S0.0000
G1 X152.33 S0.1529
X152.13 S0.9922
X151.93 S0.9176
X151.73 S0.6627
X151.63 S0.0275
G0 X143.83 S0.0000
G1 X143.73 S0.4392
X143.53 S0.9804
X143.33 S1.0000
X143.13 S0.5804
X143.03 S0.0078
G0 X133.63 S0.0000
G1 X133.53 S0.1137
X133.13 S1.0000
X132.93 S0.8235
X132.83 S0.1059
G0 X125.03 S0.0000
G1 X124.93 S0.2431
X124.73 S0.9843
X124.53 S1.0000
X124.43 S0.6196
G0 X114.63 S0.0000
G1 X114.53 S0.7255
X114.33 S1.0000
X114.13 S0.9922
X114.03 S0.3922
G0 X106.23 S0.0000
G1 X106.13 S0.1490
X105.93 S0.9294
X105.73 S1.0000
X105.53 S0.7569
X105.43 S0.0157
G0 X95.83 S0.0000
G1 X95.73 S0.4667
X95.53 S0.9059
X95.33 S0.9843
X95.13 S0.3647
X95.03 S0.0039
G0 X87.43 S0.0000
G1 X87.33 S0.0510
X87.13 S0.8157
X86.93 S0.9843
X86.73 S0.9961
X86.63 S0.0510
G0 X77.03 S0.0000
G1 X76.93 S0.0706
X76.73 S0.9176
X76.53 S1.0000
X76.33 S0.6902
X76.23 S0.0431
G0 X68.63 S0.0000
G1 X68.53 S0.0078
X68.33 S0.4392
X68.13 S0.9922
X67.93 S1.0000
X67.83 S0.7843
G0 X51.23 S0.0000
G1 X50.93 S0.1843
X50.73 S0.6667
X48.53 S0.7216
X48.33 S0.2627
X48.13 S0.1843
X48.03 S0.0314
G0 X40.13 S0.0000
G1 X40.03 S0.0745
G0 Y14.51 S0.0000
G1 X40.13 S0.0745
G0 X47.43 S0.0000
G1 X47.53 S0.3176
X47.73 S0.4745
X47.93 S0.8784
X48.13 S0.9098
X51.33 S1.0000
X51.73 S0.8902
X51.93 S0.5098
X52.13 S0.4745
X52.23 S0.0980
G0 X67.63 S0.0000
G1 X67.73 S0.3569
X68.13 S1.0000
X68.33 S0.7490
X68.43 S0.0431
G0 X76.43 S0.0000
G1 X76.53 S0.0549
X76.73 S0.7333
X76.93 S1.0000
X77.03 S0.9255
G0 X86.63 S0.0000
G1 X86.73 S0.8706
X86.93 S0.9961
X87.13 S0.9333
X87.23 S0.2078
G0 X95.23 S0.0000
G1 X95.33 S0.0039
X95.53 S0.6235
X95.73 S0.9725
X95.93 S0.9451
X96.03 S0.0902
G0 X105.43 S0.0000
G1 X105.53 S0.6314
X105.93 S1.0000
X106.03 S0.1725
G0 X114.03 S0.0000
G1 X114.13 S0.0039
X114.33 S0.4235
X114.53 S0.9922
X114.73 S1.0000
X114.83 S0.6078
G0 X124.23 S0.0000
G1 X124.33 S0.2588
X124.53 S0.9725
X124.73 S1.0000
X124.93 S0.4980
X125.03 S0.0196
G0 X133.03 S0.0000
G1 X133.13 S0.1490
X133.33 S0.9647
X133.53 S1.0000
X133.63 S0.9098
G0 X143.03 S0.0000
G1 X143.13 S0.1608
X143.53 S1.0000
X143.73 S0.6902
X143.83 S0.0118
G0 X151.83 S0.0000
G1 X151.93 S0.0549
X152.13 S0.8824
X152.33 S0.9961
X152.43 S0.8745
G0 X168.03 S0.0000
G1 X168.13 S0.2431
X168.33 S0.4745
X168.53 S0.6471
X168.73 S0.8902
X168.93 S0.9412
X172.13 S1.0000
X172.33 S0.9686
X172.53 S0.8902
X172.73 S0.5176
X172.83 S0.4235
G0 X173.43 Y14.71 S0.0000
G1 X173.33 S0.0980
X173.13 S0.8863
X167.73 S1.0000
X167.53 S0.8314
X167.33 S0.2627
X167.23 S0.0039
G0 X152.63 S0.0000
G1 X152.53 S0.8431
X152.33 S1.0000
X152.13 S0.9294
X152.03 S0.1490
G0 X143.63 S0.0000
G1 X143.53 S0.0314
X143.33 S0.8196
X143.13 S0.9725
X142.93 S1.0000
X142.83 S0.0196
G0 X133.83 S0.0000
G1 X133.73 S0.7098
X133.53 S0.9412
X133.33 S0.9961
X133.13 S0.4549
X133.03 S0.0078
G0 X124.83 S0.0000
G1 X124.73 S0.0078
X124.53 S0.4902
X124.13 S1.0000
X124.03 S0.2039
G0 X115.03 S0.0000
G1 X114.93 S0.1961
X114.73 S0.9529
X114.53 S0.9373
X114.43 S0.6000
G0 X106.03 S0.0000
G1 X105.93 S0.0039
X105.73 S0.4745
X105.33 S1.0000
X105.23 S0.3608
G0 X96.23 S0.0000
G1 X96.13 S0.0549
X95.93 S0.9843
X95.73 S1.0000
X95.53 S0.7451
X95.43 S0.0157
G0 X87.03 S0.0000
G1 X86.93 S0.1529
X86.73 S0.9725
X86.53 S1.0000
X86.43 S0.8824
G0 X77.23 S0.0000
G1 X77.13 S0.8863
X76.93 S1.0000
X76.73 S0.9373
X76.63 S0.0157
G0 X68.23 S0.0000
G1 X68.13 S0.0824
X67.93 S0.9059
X67.53 S1.0000
X67.43 S0.0078
G0 X53.23 S0.0000
G1 X52.93 S0.0039
X52.73 S0.5137
X52.53 S0.8314
X52.33 S0.9922
X47.33 S1.0000
X47.13 S0.9765
X46.93 S0.8314
X46.83 S0.0039
G0 X40.13 S0.0000
G1 X40.03 S0.0745
G0 Y14.91 S0.0000
G1 X40.13 S0.0745
G0 X46.43 S0.0000
G1 X46.53 S0.3765
X46.73 S0.9569
X47.73 S1.0000
X47.93 S0.9804
X48.13 S0.9608
X48.33 S0.7373
X48.53 S0.7490
X48.73 S0.3490
X50.73 S0.2980
X50.93 S0.4157
X51.13 S0.7451
X51.33 S0.7373
X51.53 S0.9725
X51.73 S0.9804
X53.13 S1.0000
X53.33 S0.9804
X53.53 S0.5216
X53.63 S0.2549
G0 X67.43 S0.0000
G1 X67.53 S0.9569
X67.73 S0.9686
X67.93 S0.9725
X68.13 S0.2784
X68.23 S0.0039
G0 X76.63 S0.0000
G1 X76.73 S0.0039
X76.93 S0.2000
X77.13 S0.9490
X77.33 S1.0000
X77.43 S0.6196
G0 X86.23 S0.0000
G1 X86.33 S0.4431
X86.53 S0.9961
X86.73 S1.0000
X86.93 S0.4510
X87.03 S0.0039
G0 X95.63 S0.0000
G1 X95.73 S0.2275
X95.93 S0.9412
X96.13 S0.9647
X96.33 S0.6980
X96.43 S0.0039
G0 X105.03 S0.0000
G1 X105.13 S0.0667
X105.33 S0.9255
X105.53 S1.0000
X105.73 S0.7765
X105.83 S0.0275
G0 X114.43 S0.0000
G1 X114.53 S0.0549
X114.73 S0.7804
X114.93 S1.0000
X115.13 S0.9804
X115.23 S0.1490
G0 X123.83 S0.0000
G1 X123.93 S0.0314
X124.13 S0.9059
X124.33 S1.0000
X124.53 S0.7686
X124.63 S0.0196
G0 X133.23 S0.0000
G1 X133.33 S0.0078
X133.53 S0.6039
X133.93 S1.0000
X134.03 S0.5451
G0 X142.83 S0.0000
G1 X142.93 S0.9059
X143.13 S0.9725
X143.33 S0.9451
X143.43 S0.1216
G0 X152.23 S0.0000
G1 X152.33 S0.1451
X152.53 S0.9961
X152.73 S1.0000
X152.83 S0.7725
G0 X166.63 S0.0000
G1 X166.73 S0.3412
X166.93 S0.7137
X167.13 S0.9686
X168.33 S1.0000
X168.53 S0.9961
X168.73 S0.9804
X168.93 S0.9137
X169.13 S0.7490
X169.33 S0.7608
X171.53 S0.2980
X171.73 S0.4667
X171.93 S0.7490
X172.13 S0.7451
X172.33 S0.9255
X172.53 S0.9843
X173.53 S1.0000
X173.63 S0.9686
G0 X174.23 Y15.11 S0.0000
G1 X174.13 S0.0078
X173.93 S0.6824
X173.33 S1.0000
X173.13 S0.9961
X172.93 S0.9373
X172.73 S0.7765
X172.53 S0.4510
X172.33 S0.1490
X172.23 S0.0706
G0 X168.83 S0.0000
G1 X168.73 S0.0667
X168.53 S0.0941
X168.33 S0.3961
X168.13 S0.4549
X167.93 S0.8667
X167.73 S0.9176
X167.53 S0.9961
X167.33 S0.9725
X167.13 S0.9961
X166.53 S1.0000
X166.33 S0.9137
X166.23 S0.2588
G0 X153.03 S0.0000
G1 X152.93 S0.3686
X152.73 S1.0000
X152.53 S0.9961
X152.43 S0.4745
G0 X143.43 S0.0000
G1 X143.33 S0.0039
X143.13 S0.2784
X142.93 S0.9686
X142.73 S1.0000
X142.53 S0.8157
X142.43 S0.0039
G0 X134.23 S0.0000
G1 X134.13 S0.2510
X133.93 S0.9529
X133.73 S0.8235
X133.53 S0.8471
X133.43 S0.0510
G0 X124.43 S0.0000
G1 X124.33 S0.1490
X124.13 S0.9608
X123.93 S1.0000
X123.83 S0.5529
G0 X115.43 S0.0000
G1 X115.33 S0.0039
X115.13 S0.8235
X114.93 S0.9804
X114.73 S0.9686
X114.63 S0.0980
G0 X105.63 S0.0000
G1 X105.53 S0.0863
X105.33 S0.8745
X105.13 S1.0000
X104.93 S0.9059
X104.83 S0.0235
G0 X96.43 S0.0000
G1 X96.33 S0.7686
X96.13 S1.0000
X95.93 S0.9725
X95.83 S0.2196
G0 X86.63 S0.0000
G1 X86.53 S0.5569
X86.13 S1.0000
X86.03 S0.4471
G0 X77.63 S0.0000
G1 X77.53 S0.1922
X77.13 S1.0000
X77.03 S0.3333
G0 X67.83 S0.0000
G1 X67.73 S0.6627
X67.53 S1.0000
X67.33 S0.9020
X67.23 S0.6157
G0 X54.23 S0.0000
G1 X54.13 S0.0196
X53.93 S0.0353
X53.73 S0.7333
X52.73 S1.0000
X52.53 S0.9961
X52.33 S0.9333
X52.13 S0.8627
X51.93 S0.4627
X51.73 S0.4314
X51.53 S0.0941
X51.33 S0.0902
X51.23 S0.0039
G0 X48.03 S0.0000
G1 X47.93 S0.0863
X47.73 S0.0980
X47.53 S0.4392
X47.33 S0.6039
X47.13 S0.9373
X46.93 S0.9961
X46.33 S1.0000
X46.13 S0.7333
X46.03 S0.0196
G0 X40.13 S0.0000
G1 X40.03 S0.0745
G0 Y15.31 S0.0000
G1 X40.13 S0.0745
G0 X45.63 S0.0000
G1 X45.73 S0.0078
X45.93 S0.3373
X46.53 S1.0000
X46.73 S0.9529
X46.93 S0.7725
X47.13 S0.2039
X47.23 S0.0235
G0 X52.43 S0.0000
G1 X52.53 S0.0157
X52.73 S0.1882
X52.93 S0.5725
X53.13 S0.7569
X53.33 S0.9176
X53.53 S0.9961
X54.33 S1.0000
X54.53 S0.8353
X54.73 S0.2039
X54.83 S0.0039
G0 X67.03 S0.0000
G1 X67.13 S0.5608
X67.53 S1.0000
X67.63 S0.6902
G0 X77.23 S0.0000
G1 X77.33 S0.5569
X77.53 S0.9961
X77.73 S1.0000
X77.83 S0.1216
G0 X85.83 S0.0000
G1 X85.93 S0.0706
X86.13 S0.9961
X86.33 S1.0000
X86.53 S0.9059
X86.63 S0.0078
G0 X96.03 S0.0000
G1 X96.13 S0.2314
X96.33 S0.9882
X96.53 S1.0000
X96.63 S0.7412
G0 X104.63 S0.0000
G1 X104.73 S0.0392
X105.13 S1.0000
X105.33 S0.8863
X105.43 S0.0667
G0 X114.83 S0.0000
G1 X114.93 S0.2157
X115.13 S0.9686
X115.33 S1.0000
X115.43 S0.8039
G0 X123.63 S0.0000
G1 X123.73 S0.3333
X123.93 S1.0000
X124.13 S0.9843
X124.23 S0.3059
G0 X133.63 S0.0000
G1 X133.73 S0.1961
X133.93 S0.9725
X134.13 S1.0000
X134.33 S0.8667
X134.43 S0.0353
G0 X142.43 S0.0000
G1 X142.53 S0.2667
X142.93 S1.0000
X143.03 S0.6510
G0 X152.63 S0.0000
G1 X152.73 S0.5176
X153.13 S1.0000
X153.23 S0.3059
G0 X165.43 S0.0000
G1 X165.53 S0.0078
X165.73 S0.1804
X165.93 S0.5882
X166.73 S1.0000
X166.93 S0.9922
X167.13 S0.9529
X167.33 S0.7451
X167.53 S0.6588
X167.73 S0.1647
X167.83 S0.0039
G0 X173.03 S0.0000
G1 X173.13 S0.0235
X173.33 S0.1412
X173.53 S0.7255
X173.73 S0.9686
X174.13 S1.0000
X174.33 S0.8431
X174.53 S0.1294
X174.63 S0.0039
G0 X174.83 Y15.51 S0.0000
G1 X174.73 S0.0118
X174.53 S0.6039
X174.13 S1.0000
X173.93 S0.9882
X173.73 S0.8196
X173.63 S0.2392
G0 X167.03 S0.0000
G1 X166.93 S0.0549
X166.73 S0.3490
X166.53 S0.6784
X166.33 S0.9608
X166.13 S0.9961
X165.53 S1.0000
X165.33 S0.8157
X165.13 S0.2431
X165.03 S0.0039
G0 X153.23 S0.0000
G1 X153.13 S0.8784
X152.93 S1.0000
X152.73 S0.9137
X152.63 S0.0627
G0 X142.83 S0.0000
G1 X142.73 S0.7647
X142.33 S1.0000
X142.23 S0.3137
G0 X134.43 S0.0000
G1 X134.33 S0.8157
X134.13 S1.0000
X133.93 S0.9922
X133.83 S0.3490
G0 X124.03 S0.0000
G1 X123.93 S0.6588
X123.73 S0.9961
X123.53 S1.0000
X123.43 S0.0863
G0 X115.63 S0.0000
G1 X115.53 S0.3333
X115.33 S1.0000
X115.13 S0.9961
X114.93 S0.5843
X114.83 S0.0078
G0 X105.23 S0.0000
G1 X105.13 S0.3608
X104.93 S0.9725
X104.73 S1.0000
X104.53 S0.5333
X104.43 S0.0078
G0 X96.83 S0.0000
G1 X96.73 S0.2745
X96.53 S0.9882
X96.33 S1.0000
X96.13 S0.6118
X96.03 S0.0078
G0 X86.43 S0.0000
G1 X86.33 S0.1608
X86.13 S0.9765
X85.93 S1.0000
X85.73 S0.6314
X85.63 S0.0157
G0 X78.03 S0.0000
G1 X77.93 S0.0314
X77.73 S0.9490
X77.53 S1.0000
X77.33 S0.7647
X77.23 S0.0078
G0 X67.63 S0.0000
G1 X67.53 S0.1059
X67.33 S0.9216
X67.13 S1.0000
X66.93 S0.9569
X66.83 S0.1608
G0 X55.03 S0.0000
G1 X54.93 S0.1529
X54.73 S0.6980
X53.93 S1.0000
X53.73 S0.9843
X53.53 S0.7961
X53.33 S0.4039
X53.23 S0.0627
G0 X46.63 S0.0000
G1 X46.53 S0.0980
X46.33 S0.5569
X46.13 S0.9922
X45.73 S1.0000
X45.53 S0.8039
X45.43 S0.0353
G0 X40.13 S0.0000
G1 X40.03 S0.0745
G0 Y15.71 S0.0000
G1 X40.13 S0.0745
G0 X45.23 S0.0000
G1 X45.33 S0.0157
X45.53 S0.7843
X45.93 S1.0000
X46.13 S0.8784
X46.33 S0.2078
X46.43 S0.0039
G0 X53.63 S0.0000
G1 X53.73 S0.0196
X53.93 S0.1216
X54.13 S0.6510
X54.33 S0.9137
X54.53 S0.9922
X55.13 S1.0000
X55.33 S0.7882
X55.43 S0.0314
G0 X66.83 S0.0000
G1 X66.93 S0.7451
X67.33 S1.0000
X67.43 S0.0863
G0 X77.43 S0.0000
G1 X77.53 S0.2627
X77.73 S0.9804
X77.93 S1.0000
X78.13 S0.7608
X78.23 S0.0196
G0 X85.63 S0.0000
G1 X85.73 S0.6314
X85.93 S1.0000
X86.13 S0.9961
X86.33 S0.3725
X86.43 S0.0039
G0 X96.23 S0.0000
G1 X96.33 S0.0706
X96.53 S0.9216
X96.73 S1.0000
X96.93 S0.9098
X97.03 S0.0196
G0 X104.43 S0.0000
G1 X104.53 S0.1569
X104.93 S1.0000
X105.13 S0.7098
X105.23 S0.0235
G0 X115.03 S0.0000
G1 X115.13 S0.0157
X115.33 S0.7647
X115.53 S0.9961
X115.73 S1.0000
X115.83 S0.3020
G0 X123.23 S0.0000
G1 X123.33 S0.0941
X123.53 S0.9529
X123.73 S1.0000
X123.93 S0.8196
X124.03 S0.0235
G0 X133.83 S0.0000
G1 X133.93 S0.0196
X134.13 S0.7176
X134.53 S1.0000
X134.63 S0.0667
G0 X142.03 S0.0000
G1 X142.13 S0.0745
X142.33 S0.8980
X142.53 S1.0000
X142.73 S0.9333
X142.83 S0.1176
G0 X152.83 S0.0000
G1 X152.93 S0.3176
X153.13 S0.9529
X153.33 S0.9922
X153.43 S0.5608
G0 X164.83 S0.0000
G1 X164.93 S0.2353
X165.13 S0.8784
X165.73 S1.0000
X165.93 S0.9922
X166.13 S0.9608
X166.33 S0.4941
X166.53 S0.1255
X166.63 S0.0078
G0 X173.83 S0.0000
G1 X173.93 S0.0118
X174.13 S0.1843
X174.33 S0.9176
X174.73 S1.0000
X174.83 S0.6078
G0 X175.23 Y15.91 S0.0000
G1 X175.13 S0.0078
X174.93 S0.6118
X174.73 S1.0000
X174.53 S0.9647
X174.33 S0.6314
X174.23 S0.0980
G0 X166.03 S0.0000
G1 X165.93 S0.0078
X165.73 S0.2824
X165.53 S0.6392
X165.33 S0.9608
X164.73 S1.0000
X164.53 S0.7843
X164.33 S0.1725
X164.23 S0.0039
G0 X153.63 S0.0000
G1 X153.53 S0.5137
X153.33 S1.0000
X153.13 S0.9608
X152.93 S0.4000
X152.83 S0.0039
G0 X142.63 S0.0000
G1 X142.53 S0.1451
X142.33 S0.9804
X142.13 S1.0000
X141.93 S0.8863
X141.83 S0.0118
G0 X134.83 S0.0000
G1 X134.73 S0.0980
X134.33 S1.0000
X134.23 S0.7255
G0 X123.83 S0.0000
G1 X123.73 S0.1765
X123.53 S0.9451
X123.33 S1.0000
X123.13 S0.9569
X123.03 S0.0667
G0 X116.03 S0.0000
G1 X115.93 S0.0510
X115.73 S0.9765
X115.53 S1.0000
X115.33 S0.8784
X115.23 S0.0118
G0 X105.03 S0.0000
G1 X104.93 S0.0471
X104.73 S0.7882
X104.33 S1.0000
X104.23 S0.1020
G0 X97.23 S0.0000
G1 X97.13 S0.0392
X96.93 S0.8667
X96.73 S1.0000
X96.53 S0.9333
X96.43 S0.0980
G0 X86.23 S0.0000
G1 X86.13 S0.0039
X85.93 S0.4275
X85.53 S1.0000
X85.43 S0.3412
G0 X78.43 S0.0000
G1 X78.33 S0.0196
X78.13 S0.7686
X77.93 S1.0000
X77.73 S0.9843
X77.53 S0.3725
X77.43 S0.0039
G0 X67.23 S0.0000
G1 X67.13 S0.4745
X66.93 S0.9961
X66.73 S1.0000
X66.63 S0.3098
G0 X55.83 S0.0000
G1 X55.73 S0.0902
X55.53 S0.6196
X54.93 S1.0000
X54.73 S0.9490
X54.53 S0.5804
X54.33 S0.2784
X54.23 S0.0039
G0 X46.03 S0.0000
G1 X45.93 S0.0353
X45.73 S0.5020
X45.53 S0.9882
X45.33 S1.0000
X45.23 S0.5882
G0 X40.13 S0.0000
G1 X40.03 S0.0745
G0 Y16.11 S0.0000
G1 X40.13 S0.0745
G0 X45.03 S0.0000
G1 X45.13 S0.4000
X45.33 S1.0000
X45.53 S0.9804
X45.73 S0.4275
X45.83 S0.0078
G0 X54.83 S0.0000
G1 X54.93 S0.1255
X55.13 S0.5961
X55.33 S0.9647
X55.93 S1.0000
X56.13 S0.7490
X56.23 S0.2431
G0 X66.43 S0.0000
G1 X66.53 S0.3412
X66.73 S0.9843
X66.93 S1.0000
X67.03 S0.5686
G0 X77.63 S0.0000
G1 X77.73 S0.0039
X77.93 S0.3961
X78.13 S0.9765
X78.33 S1.0000
X78.53 S0.7608
X78.63 S0.0314
G0 X85.23 S0.0000
G1 X85.33 S0.2510
X85.53 S0.9843
X85.73 S1.0000
X85.93 S0.7490
X86.03 S0.0549
G0 X96.63 S0.0000
G1 X96.73 S0.1922
X96.93 S0.9961
X97.13 S1.0000
X97.23 S0.5725
G0 X104.23 S0.0000
G1 X104.33 S0.9647
X104.53 S1.0000
X104.73 S0.9137
X104.83 S0.0471
G0 X115.43 S0.0000
G1 X115.53 S0.1569
X115.73 S0.9137
X115.93 S1.0000
X116.13 S0.8863
X116.23 S0.0784
G0 X122.83 S0.0000
G1 X122.93 S0.1333
X123.13 S0.9490
X123.33 S1.0000
X123.53 S0.9529
X123.63 S0.1804
G0 X134.23 S0.0000
G1 X134.33 S0.0784
X134.53 S0.7686
X134.73 S1.0000
X134.93 S0.9294
X135.03 S0.0118
G0 X141.83 S0.0000
G1 X141.93 S0.5608
X142.33 S1.0000
X142.53 S0.5529
X142.63 S0.0078
G0 X153.03 S0.0000
G1 X153.13 S0.0667
X153.33 S0.7255
X153.53 S1.0000
X153.73 S0.9412
X153.83 S0.1725
G0 X164.03 S0.0000
G1 X164.13 S0.4196
X164.33 S0.6275
X164.93 S1.0000
X165.13 S0.9804
X165.33 S0.6588
X165.43 S0.1647
G0 X174.43 S0.0000
G1 X174.53 S0.0039
X174.73 S0.5020
X174.93 S0.9686
X175.13 S1.0000
X175.33 S0.6039
X175.43 S0.0039
G0 Y16.31 S0.0000
G1 X175.33 S0.6745
X175.13 S1.0000
X174.93 S0.9961
X174.83 S0.3137
G0 X165.23 S0.0000
G1 X165.13 S0.0078
X164.93 S0.1647
X164.73 S0.7333
X164.53 S0.9529
X163.93 S1.0000
X163.73 S0.8863
X163.63 S0.2510
G0 X154.03 S0.0000
G1 X153.93 S0.1020
X153.73 S0.9804
X153.53 S1.0000
X153.33 S0.7882
X153.23 S0.0588
G0 X142.43 S0.0000
G1 X142.33 S0.0039
X142.13 S0.5569
X141.73 S1.0000
X141.63 S0.1647
G0 X135.03 S0.0000
G1 X134.93 S0.7020
X134.73 S1.0000
X134.53 S0.9843
X134.43 S0.1294
G0 X123.43 S0.0000
G1 X123.33 S0.2039
X123.13 S0.9725
X122.93 S1.0000
X122.73 S0.8000
X122.63 S0.0980
G0 X116.23 S0.0000
G1 X116.13 S0.9059
X115.93 S1.0000
X115.73 S0.9804
X115.63 S0.2784
G0 X104.63 S0.0000
G1 X104.53 S0.2667
X104.33 S0.9725
X104.13 S1.0000
X104.03 S0.7804
G0 X97.43 S0.0000
G1 X97.33 S0.4667
X97.13 S0.9961
X96.93 S1.0000
X96.73 S0.4824
X96.63 S0.0078
G0 X85.83 S0.0000
G1 X85.73 S0.0706
X85.53 S0.8078
X85.33 S1.0000
X85.13 S0.8510
X85.03 S0.1529
G0 X78.63 S0.0000
G1 X78.53 S0.0980
X78.13 S1.0000
X77.93 S0.6902
X77.83 S0.0118
G0 X67.03 S0.0000
G1 X66.93 S0.0471
X66.73 S0.7725
X66.53 S1.0000
X66.33 S0.9882
X66.23 S0.2863
G0 X56.63 S0.0000
G1 X56.53 S0.0980
X56.33 S0.5961
X56.13 S0.9922
X55.93 S1.0000
X55.73 S0.9804
X55.53 S0.9294
X55.33 S0.8549
X55.23 S0.1137
G0 X45.63 S0.0000
G1 X45.53 S0.0078
X45.33 S0.4667
X45.13 S0.9961
X44.93 S0.9922
X44.83 S0.3765
G0 X40.13 S0.0000
G1 X40.03 S0.0745
G0 Y16.51 S0.0000
G1 X40.13 S0.0745
G0 X44.63 S0.0000
G1 X44.73 S0.3333
X44.93 S1.0000
X45.13 S0.9922
X45.33 S0.4980
X45.43 S0.0118
G0 X55.63 S0.0000
G1 X55.73 S0.1412
X55.93 S0.7216
X56.13 S0.9647
X56.33 S0.9804
X56.53 S1.0000
X56.73 S0.9412
X56.83 S0.4667
G0 X66.03 S0.0000
G1 X66.13 S0.3059
X66.53 S1.0000
X66.73 S0.8549
X66.83 S0.0235
G0 X78.03 S0.0000
G1 X78.13 S0.0745
X78.33 S0.8078
X78.73 S1.0000
X78.83 S0.3020
G0 X84.83 S0.0000
G1 X84.93 S0.1765
X85.33 S1.0000
X85.53 S0.8353
X85.63 S0.0824
G0 X96.83 S0.0000
G1 X96.93 S0.0078
X97.13 S0.5098
X97.33 S0.9961
X97.53 S1.0000
X97.73 S0.4392
X97.83 S0.1529
G0 X103.63 S0.0000
G1 X103.73 S0.2000
X103.93 S0.7686
X104.13 S1.0000
X104.33 S0.9882
X104.43 S0.2902
G0 X115.83 S0.0000
G1 X115.93 S0.1608
X116.13 S0.9725
X116.33 S1.0000
X116.53 S0.9216
X116.63 S0.0706
G0 X122.43 S0.0000
G1 X122.53 S0.0902
X122.73 S0.9137
X122.93 S1.0000
X123.13 S0.9804
X123.33 S0.3765
X123.43 S0.0157
G0 X134.63 S0.0000
G1 X134.73 S0.1255
X134.93 S0.9608
X135.13 S1.0000
X135.33 S0.8157
X135.43 S0.4667
G0 X141.23 S0.0000
G1 X141.33 S0.0392
X141.53 S0.2706
X141.73 S0.9647
X141.93 S1.0000
X142.13 S0.5882
X142.23 S0.0118
G0 X153.43 S0.0000
G1 X153.53 S0.0549
X153.73 S0.8118
X153.93 S1.0000
X154.13 S0.9804
X154.23 S0.1451
G0 X163.23 S0.0000
G1 X163.33 S0.0980
X163.53 S0.8353
X164.13 S1.0000
X164.33 S0.9725
X164.53 S0.5922
X164.63 S0.0824
G0 X175.03 S0.0000
G1 X175.13 S0.3451
X175.33 S0.9804
X175.53 S1.0000
X175.63 S0.6627
G0 X175.83 Y16.71 S0.0000
G1 X175.73 S0.1961
X175.53 S0.9961
X175.33 S1.0000
X175.13 S0.6471
X175.03 S0.0078
G0 X164.23 S0.0000
G1 X164.13 S0.2196
X163.93 S0.8471
X163.73 S0.9961
X163.33 S1.0000
X163.13 S0.9686
X163.03 S0.4667
G0 X154.23 S0.0000
G1 X154.13 S0.7882
X153.93 S1.0000
X153.73 S0.9647
X153.63 S0.2902
G0 X142.03 S0.0000
G1 X141.93 S0.0118
X141.73 S0.5882
X141.33 S1.0000
X141.13 S0.9373
X141.03 S0.0353
G0 X135.63 S0.0000
G1 X135.53 S0.4706
X135.33 S0.9922
X135.13 S1.0000
X134.93 S0.9725
X134.83 S0.1843
G0 X123.03 S0.0000
G1 X122.93 S0.5059
X122.73 S1.0000
X122.53 S0.9922
X122.43 S0.7137
G0 X116.83 S0.0000
G1 X116.73 S0.0588
X116.53 S0.8824
X116.33 S1.0000
X116.13 S0.9608
X115.93 S0.3765
X115.83 S0.0039
G0 X104.23 S0.0000
G1 X104.13 S0.2510
X103.93 S0.9843
X103.73 S1.0000
X103.53 S0.9961
X103.43 S0.5686
G0 X98.03 S0.0000
G1 X97.93 S0.2392
X97.73 S0.9843
X97.53 S1.0000
X97.33 S0.9922
X97.13 S0.5020
X97.03 S0.0078
G0 X85.43 S0.0000
G1 X85.33 S0.0902
X85.13 S0.8941
X84.93 S1.0000
X84.73 S0.9882
X84.63 S0.5137
G0 X79.03 S0.0000
G1 X78.93 S0.3843
X78.53 S1.0000
X78.33 S0.8196
X78.23 S0.0706
G0 X66.63 S0.0000
G1 X66.53 S0.0824
X66.33 S0.8941
X66.13 S1.0000
X65.93 S0.9882
X65.83 S0.3020
G0 X57.23 S0.0000
G1 X57.13 S0.2196
X56.93 S0.8235
X56.73 S0.9961
X56.33 S1.0000
X56.13 S0.8824
X55.93 S0.2118
X55.83 S0.0078
G0 X45.23 S0.0000
G1 X45.13 S0.0039
X44.93 S0.5961
X44.53 S1.0000
X44.43 S0.0667
G0 X40.13 S0.0000
G1 X40.03 S0.0745
G0 Y16.91 S0.0000
G1 X40.13 S0.0745
G0 X44.23 S0.0000
G1 X44.33 S0.0039
X44.53 S0.9843
X44.73 S1.0000
X44.93 S0.8588
X45.03 S0.0667
G0 X56.23 S0.0000
G1 X56.33 S0.0157
X56.53 S0.5922
X56.73 S0.9412
X56.93 S0.9765
X57.13 S0.9098
X57.33 S1.0000
X57.43 S0.8000
G0 X65.63 S0.0000
G1 X65.73 S0.0980
X66.13 S1.0000
X66.33 S0.8902
X66.43 S0.2275
G0 X78.43 S0.0000
G1 X78.53 S0.0510
X78.73 S0.8627
X79.13 S1.0000
X79.23 S0.8824
G0 X84.43 S0.0000
G1 X84.53 S0.7765
X84.93 S1.0000
X85.13 S0.9137
X85.33 S0.0784
X85.43 S0.0039
G0 X97.23 S0.0000
G1 X97.33 S0.0039
X97.53 S0.5373
X98.13 S1.0000
X98.23 S0.8824
G0 X103.23 S0.0000
G1 X103.33 S0.5569
X103.73 S1.0000
X103.93 S0.7294
X104.03 S0.2510
G0 X116.03 S0.0000
G1 X116.13 S0.0078
X116.33 S0.2118
X116.93 S1.0000
X117.03 S0.2824
G0 X122.03 S0.0000
G1 X122.13 S0.0510
X122.33 S0.9882
X122.53 S1.0000
X122.73 S0.9882
X122.93 S0.6392
X123.03 S0.0039
G0 X135.03 S0.0000
G1 X135.13 S0.1137
X135.73 S1.0000
X135.83 S0.8863
G0 X140.83 S0.0000
G1 X140.93 S0.0039
X141.13 S0.9843
X141.53 S1.0000
X141.63 S0.6000
G0 X153.83 S0.0000
G1 X153.93 S0.2824
X154.13 S0.9882
X154.33 S1.0000
X154.43 S0.9412
G0 X162.83 S0.0000
G1 X162.93 S0.3961
X163.53 S1.0000
X163.73 S0.9373
X163.93 S0.4314
X164.03 S0.0118
G0 X175.23 S0.0000
G1 X175.33 S0.2078
X175.53 S0.9765
X175.73 S0.9961
X175.83 S0.9059
G0 X176.03 Y17.11 S0.0000
G1 X175.93 S0.3294
X175.53 S0.9961
X175.43 S0.4510
G0 X163.63 S0.0000
G1 X163.53 S0.0275
X163.33 S0.4627
X163.13 S0.9647
X162.53 S1.0000
X162.43 S0.2314
G0 X154.83 S0.0000
G1 X154.73 S0.1490
X154.53 S0.9804
X154.33 S1.0000
X154.13 S0.9686
X153.93 S0.2902
X153.83 S0.0039
G0 X141.63 S0.0000
G1 X141.53 S0.0039
X141.33 S0.5804
X141.13 S0.9608
X140.73 S1.0000
X140.53 S0.8510
X140.43 S0.0157
G0 X136.23 S0.0000
G1 X136.13 S0.0510
X135.93 S0.8314
X135.53 S1.0000
X135.33 S0.7608
X135.23 S0.1451
G0 X122.63 S0.0000
G1 X122.53 S0.3216
X122.33 S0.9725
X121.93 S1.0000
X121.73 S0.4667
X121.63 S0.0275
G0 X117.43 S0.0000
G1 X117.33 S0.1255
X117.13 S0.7647
X116.73 S1.0000
X116.53 S0.9490
X116.43 S0.2353
G0 X103.83 S0.0000
G1 X103.73 S0.2784
X103.53 S0.8510
X103.33 S0.9647
X103.13 S1.0000
X102.93 S0.9137
X102.83 S0.0706
G0 X98.63 S0.0000
G1 X98.53 S0.0314
X98.33 S0.7098
X97.93 S1.0000
X97.73 S0.7843
X97.63 S0.5255
G0 X85.03 S0.0000
G1 X84.93 S0.0745
X84.73 S0.8902
X84.33 S1.0000
X84.13 S0.9412
X84.03 S0.1137
G0 X79.83 S0.0000
G1 X79.73 S0.0039
X79.53 S0.1882
X79.33 S0.9961
X79.13 S1.0000
X78.93 S0.9961
X78.73 S0.5922
X78.63 S0.0902
G0 X66.23 S0.0000
G1 X66.13 S0.0784
X65.93 S0.9137
X65.73 S1.0000
X65.53 S0.8353
X65.43 S0.2706
G0 X57.83 S0.0000
G1 X57.73 S0.0627
X57.53 S1.0000
X57.33 S0.9961
X57.13 S0.9686
X56.93 S0.9843
X56.73 S0.6667
X56.63 S0.1255
G0 X44.83 S0.0000
G1 X44.73 S0.2392
X44.53 S0.9882
X44.33 S1.0000
X44.23 S0.5608
G0 X40.13 S0.0000
G1 X40.03 S0.0745
G0 Y17.31 S0.0000
G1 X40.13 S0.0745
G0 X44.03 S0.0000
G1 X44.13 S0.1098
X44.33 S0.9961
X44.53 S1.0000
X44.63 S0.7804
G0 X56.83 S0.0000
G1 X56.93 S0.0196
X57.13 S0.2980
X57.33 S0.8000
X57.53 S0.9569
X57.73 S0.9882
X57.93 S0.9922
X58.03 S0.5216
G0 X65.23 S0.0000
G1 X65.33 S0.2941
X65.53 S0.9961
X65.73 S1.0000
X65.93 S0.9255
X66.13 S0.3608
X66.23 S0.0039
G0 X78.83 S0.0000
G1 X78.93 S0.0039
X79.13 S0.5451
X79.33 S0.9922
X79.73 S1.0000
X79.93 S0.5922
X80.03 S0.0549
G0 X83.63 S0.0000
G1 X83.73 S0.0353
X83.93 S0.4314
X84.13 S0.9294
X84.33 S1.0000
X84.53 S0.9922
X84.73 S0.6392
X84.83 S0.0902
G0 X97.63 S0.0000
G1 X97.73 S0.0039
X97.93 S0.2196
X98.13 S0.9333
X98.53 S1.0000
X98.73 S0.9725
X98.83 S0.0824
G0 X102.63 S0.0000
G1 X102.73 S0.2902
X102.93 S0.8980
X103.13 S1.0000
X103.33 S0.9961
X103.53 S0.8196
X103.63 S0.0588
G0 X116.63 S0.0000
G1 X116.73 S0.2745
X116.93 S0.8941
X117.53 S1.0000
X117.63 S0.6196
G0 X121.43 S0.0000
G1 X121.53 S0.1843
X121.73 S0.8706
X122.13 S1.0000
X122.33 S0.9098
X122.43 S0.3098
G0 X135.43 S0.0000
G1 X135.53 S0.0627
X135.73 S0.7882
X135.93 S0.9961
X136.33 S1.0000
X136.53 S0.2745
X136.63 S0.0118
G0 X140.23 S0.0000
G1 X140.33 S0.0941
X140.53 S0.7765
X140.93 S1.0000
X141.13 S0.9059
X141.23 S0.4667
G0 X154.23 S0.0000
G1 X154.33 S0.2941
X154.53 S0.9451
X154.73 S0.9098
X154.93 S0.9529
X155.03 S0.1137
G0 X162.23 S0.0000
G1 X162.33 S0.1686
X162.73 S1.0000
X162.93 S0.9059
X163.13 S0.8588
X163.33 S0.1686
X163.43 S0.0039
G0 X175.43 S0.0000
G1 X175.53 S0.0039
X175.73 S0.7176
X175.93 S0.8039
X176.13 S1.0000
X176.23 S0.0627
G0 Y17.51 S0.0000
G1 X176.13 S0.8863
X175.93 S1.0000
X175.73 S0.9608
X175.63 S0.1137
G0 X163.03 S0.0000
G1 X162.93 S0.0863
X162.73 S0.5412
X162.53 S0.9373
X162.13 S1.0000
X161.93 S0.3216
X161.83 S0.0039
G0 X155.43 S0.0000
G1 X155.33 S0.0157
X155.13 S0.5529
X154.93 S1.0000
X154.73 S0.9569
X154.53 S0.9647
X154.43 S0.2588
G0 X141.03 S0.0000
G1 X140.93 S0.2471
X140.73 S0.8431
X140.53 S0.9922
X140.13 S1.0000
X139.93 S0.6353
X139.73 S0.0863
X139.63 S0.0078
G0 X137.23 S0.0000
G1 X137.13 S0.0078
X136.93 S0.0235
X136.73 S0.3333
X136.13 S1.0000
X135.93 S0.9686
X135.73 S0.5137
X135.63 S0.0471
G0 X122.23 S0.0000
G1 X122.13 S0.0706
X121.93 S0.6980
X121.73 S0.9922
X121.33 S1.0000
X121.13 S0.9647
X120.93 S0.2784
X120.83 S0.0235
G0 X118.23 S0.0000
G1 X118.13 S0.0196
X117.93 S0.2784
X117.73 S0.9608
X117.53 S1.0000
X117.33 S0.9686
X117.13 S0.9529
X116.93 S0.6824
X116.83 S0.0471
G0 X103.43 S0.0000
G1 X103.33 S0.0627
X103.13 S0.5765
X102.93 S0.9765
X102.33 S1.0000
X102.13 S0.3373
X102.03 S0.0235
G0 X99.43 S0.0000
G1 X99.33 S0.0196
X99.13 S0.2039
X98.93 S0.8706
X98.53 S1.0000
X98.33 S0.9922
X98.13 S0.8000
X97.93 S0.1333
X97.83 S0.0039
G0 X84.63 S0.0000
G1 X84.53 S0.0118
X84.33 S0.5647
X84.13 S0.9412
X83.93 S1.0000
X83.73 S0.9333
X83.53 S1.0000
X83.33 S0.3882
X83.23 S0.0706
G0 X80.63 S0.0000
G1 X80.53 S0.0196
X80.33 S0.3333
X80.13 S0.7922
X79.53 S1.0000
X79.33 S0.9569
X79.13 S0.2627
X79.03 S0.0039
G0 X65.83 S0.0000
G1 X65.73 S0.1020
X65.53 S0.8549
X65.13 S1.0000
X64.93 S0.3294
X64.83 S0.0078
G0 X58.43 S0.0000
G1 X58.33 S0.0235
X58.13 S0.8941
X57.73 S1.0000
X57.53 S0.9686
X57.33 S0.5725
X57.23 S0.0588
G0 X44.63 S0.0000
G1 X44.53 S0.1333
X44.33 S0.9490
X44.13 S1.0000
X44.03 S0.9882
G0 X40.13 S0.0000
G1 X40.03 S0.0745
G0 Y17.71 S0.0000
G1 X40.13 S0.0745
G0 X43.83 S0.0000
G1 X43.93 S0.2902
X44.13 S0.9961
X44.33 S1.0000
X44.43 S0.7255
G0 X57.43 S0.0000
G1 X57.53 S0.0078
X57.73 S0.2353
X57.93 S0.9333
X58.53 S1.0000
X58.63 S0.3176
G0 X64.63 S0.0000
G1 X64.73 S0.1137
X64.93 S0.7137
X65.13 S1.0000
X65.33 S0.9961
X65.53 S0.8784
X65.63 S0.1020
G0 X79.43 S0.0000
G1 X79.53 S0.1098
X79.73 S0.6824
X79.93 S0.9725
X80.53 S1.0000
X80.73 S0.9373
X80.93 S0.3922
X81.03 S0.1765
G0 X82.63 S0.0000
G1 X82.73 S0.1294
X82.93 S0.2667
X83.13 S0.6588
X83.53 S1.0000
X83.73 S0.9373
X83.93 S0.9922
X84.13 S0.8196
X84.23 S0.2431
G0 X98.23 S0.0000
G1 X98.33 S0.0314
X98.53 S0.4431
X98.73 S0.9216
X99.33 S1.0000
X99.53 S0.9451
X99.73 S0.4471
X99.83 S0.1765
G0 X101.63 S0.0000
G1 X101.73 S0.1765
X101.93 S0.6000
X102.73 S1.0000
X102.93 S0.9137
X103.13 S0.2627
X103.23 S0.0157
G0 X117.03 S0.0000
G1 X117.13 S0.0039
X117.33 S0.3804
X117.53 S0.8824
X117.73 S0.9961
X118.13 S1.0000
X118.33 S0.9647
X118.53 S0.5176
X118.73 S0.1765
X118.83 S0.0471
G0 X120.43 S0.0000
G1 X120.53 S0.1765
X120.73 S0.5608
X121.53 S1.0000
X121.73 S0.9176
X121.83 S0.4196
G0 X135.83 S0.0000
G1 X135.93 S0.0118
X136.13 S0.2392
X136.33 S0.8235
X136.53 S0.9961
X137.13 S1.0000
X137.33 S0.7373
X137.53 S0.1765
X137.63 S0.0706
G0 X139.03 S0.0000
G1 X139.13 S0.0078
X139.33 S0.1765
X139.53 S0.5333
X139.73 S0.7843
X140.33 S1.0000
X140.53 S0.9765
X140.73 S0.4784
X140.83 S0.0392
G0 X154.63 S0.0000
G1 X154.73 S0.1373
X154.93 S0.7412
X155.33 S1.0000
X155.53 S0.8667
X155.63 S0.0627
G0 X161.63 S0.0000
G1 X161.73 S0.1216
X161.93 S0.7255
X162.33 S1.0000
X162.53 S0.8118
X162.63 S0.1176
G0 X175.63 S0.0000
G1 X175.73 S0.0275
X175.93 S0.7961
X176.13 S1.0000
X176.33 S0.9608
X176.43 S0.1176
G0 Y17.91 S0.0000
G1 X176.33 S0.6471
X175.93 S1.0000
X175.83 S0.3176
G0 X162.43 S0.0000
G1 X162.33 S0.0627
X162.13 S0.5686
X161.73 S1.0000
X161.53 S0.9490
X161.43 S0.3294
G0 X155.83 S0.0000
G1 X155.73 S0.2745
X155.53 S0.9176
X155.33 S1.0000
X155.13 S0.9882
X154.93 S0.8118
X154.83 S0.0784
G0 X140.63 S0.0000
G1 X140.53 S0.0118
X140.33 S0.2510
X140.13 S0.7608
X139.93 S0.9882
X139.13 S1.0000
X138.93 S0.8980
X138.73 S0.6863
X137.93 S0.4000
X137.73 S0.8902
X137.53 S0.9333
X136.73 S1.0000
X136.53 S0.9529
X136.33 S0.5647
X136.13 S0.0353
X136.03 S0.0039
G0 X121.63 S0.0000
G1 X121.53 S0.1255
X121.33 S0.7255
X121.13 S0.9569
X120.33 S1.0000
X120.13 S0.8902
X119.93 S0.7176
X119.13 S0.4000
X118.93 S0.8902
X118.73 S0.9176
X117.93 S1.0000
X117.73 S0.9569
X117.53 S0.6549
X117.43 S0.1020
G0 X102.83 S0.0000
G1 X102.73 S0.1255
X102.53 S0.5608
X102.33 S0.9451
X101.53 S1.0000
X101.13 S0.8902
X100.93 S0.4314
X100.33 S0.4000
X99.93 S0.8902
X99.13 S1.0000
X98.93 S0.9529
X98.73 S0.6980
X98.53 S0.1333
X98.43 S0.0039
G0 X84.03 S0.0000
G1 X83.93 S0.0588
X83.73 S0.4000
X83.53 S0.8706
X83.33 S0.9961
X82.73 S1.0000
X82.53 S0.9686
X82.33 S0.8902
X82.13 S0.4353
X81.53 S0.4000
X81.33 S0.8078
X81.13 S0.8902
X80.33 S1.0000
X80.13 S0.9765
X79.93 S0.8510
X79.73 S0.3490
X79.63 S0.0157
G0 X65.43 S0.0000
G1 X65.33 S0.0863
X65.13 S0.6314
X64.93 S1.0000
X64.73 S0.9451
X64.53 S0.9529
X64.43 S0.3686
G0 X58.83 S0.0000
G1 X58.73 S0.3020
X58.53 S0.9804
X58.33 S1.0000
X58.13 S0.9882
X57.93 S0.7059
X57.83 S0.1255
G0 X44.43 S0.0000
G1 X44.33 S0.1765
X44.13 S0.9843
X43.93 S1.0000
X43.83 S0.8471
G0 X40.13 S0.0000
G1 X40.03 S0.0745
G0 Y18.11 S0.0000
G1 X40.13 S0.0745
G0 X43.63 S0.0000
G1 X43.73 S0.0941
X43.93 S0.9608
X44.13 S1.0000
X44.23 S0.9098
G0 X58.03 S0.0000
G1 X58.13 S0.0118
X58.33 S0.4196
X58.53 S0.9294
X58.93 S1.0000
X59.13 S0.7608
X59.23 S0.1451
G0 X64.03 S0.0000
G1 X64.13 S0.2863
X64.33 S0.8824
X64.73 S1.0000
X64.93 S0.9725
X65.13 S0.3843
X65.23 S0.0196
G0 X80.03 S0.0000
G1 X80.13 S0.0275
X80.33 S0.2039
X80.53 S0.5255
X80.73 S0.9333
X82.93 S1.0000
X83.13 S0.9804
X83.33 S0.7725
X83.53 S0.3059
X83.63 S0.0431
G0 X98.83 S0.0000
G1 X98.93 S0.0118
X99.13 S0.0980
X99.33 S0.5529
X99.53 S0.8549
X99.73 S0.9922
X101.13 S1.0000
X101.33 S0.9961
X101.53 S0.9529
X101.73 S0.9843
X101.93 S0.9882
X102.13 S0.8196
X102.33 S0.3647
X102.43 S0.0392
G0 X117.63 S0.0000
G1 X117.73 S0.0078
X117.93 S0.0902
X118.13 S0.5725
X118.33 S0.8667
X118.53 S0.9922
X120.33 S1.0000
X120.53 S0.9961
X120.73 S0.9922
X120.93 S0.8745
X121.13 S0.6000
X121.33 S0.1059
X121.43 S0.0078
G0 X136.43 S0.0000
G1 X136.53 S0.0039
X136.73 S0.1216
X136.93 S0.3137
X137.13 S0.8314
X137.33 S0.9765
X139.33 S1.0000
X139.53 S0.9961
X139.73 S0.9608
X139.93 S0.7725
X140.13 S0.2627
X140.23 S0.0078
G0 X155.03 S0.0000
G1 X155.13 S0.0196
X155.33 S0.4902
X155.53 S0.9451
X155.73 S0.9961
X155.93 S0.9843
X156.13 S0.6627
X156.23 S0.0902
G0 X161.03 S0.0000
G1 X161.13 S0.2902
X161.33 S0.8627
X161.73 S1.0000
X161.93 S0.9451
X162.03 S0.3451
G0 X175.83 S0.0000
G1 X175.93 S0.0980
X176.13 S0.9608
X176.33 S1.0000
X176.43 S0.8941
G0 X176.63 Y18.31 S0.0000
G1 X176.53 S0.1725
X176.13 S1.0000
X175.93 S0.7451
X175.83 S0.0157
G0 X161.83 S0.0000
G1 X161.73 S0.1176
X161.53 S0.7098
X161.13 S1.0000
X160.93 S0.9843
X160.73 S0.6667
X160.63 S0.1098
G0 X156.63 S0.0000
G1 X156.53 S0.0510
X156.33 S0.6078
X156.13 S0.9804
X155.73 S1.0000
X155.53 S0.9373
X155.33 S0.2392
X155.23 S0.0039
G0 X139.83 S0.0000
G1 X139.73 S0.0039
X139.53 S0.1255
X139.33 S0.4157
X139.13 S0.5451
X138.93 S0.9333
X138.73 S0.9647
X137.93 S1.0000
X137.73 S0.9412
X137.53 S0.7961
X137.33 S0.5529
X137.13 S0.1765
X137.03 S0.0118
G0 X121.03 S0.0000
G1 X120.93 S0.0039
X120.73 S0.0471
X120.53 S0.3059
X120.33 S0.5843
X120.13 S0.9255
X119.93 S0.9765
X119.13 S1.0000
X118.93 S0.9333
X118.73 S0.9216
X118.53 S0.5451
X118.33 S0.3843
X118.13 S0.0431
X118.03 S0.0039
G0 X102.03 S0.0000
G1 X101.93 S0.0118
X101.73 S0.2235
X101.53 S0.5804
X101.33 S0.9333
X101.13 S0.9373
X100.33 S1.0000
X100.13 S0.9608
X99.93 S0.9333
X99.73 S0.6353
X99.53 S0.3569
X99.33 S0.0353
X99.23 S0.0039
G0 X83.23 S0.0000
G1 X83.13 S0.0078
X82.93 S0.1373
X82.73 S0.5294
X82.53 S0.9020
X82.33 S0.9333
X82.13 S0.9961
X81.53 S1.0000
X81.33 S0.9608
X81.13 S0.9373
X80.93 S0.6549
X80.73 S0.5020
X80.63 S0.1020
G0 X64.83 S0.0000
G1 X64.73 S0.2941
X64.53 S0.8314
X63.93 S1.0000
X63.73 S0.4275
X63.63 S0.0078
G0 X59.63 S0.0000
G1 X59.53 S0.0157
X59.33 S0.5098
X59.13 S0.9451
X58.73 S1.0000
X58.53 S0.8902
X58.43 S0.1490
G0 X44.23 S0.0000
G1 X44.13 S0.6157
X43.73 S1.0000
X43.63 S0.3647
G0 X40.13 S0.0000
G1 X40.03 S0.0745
G0 Y18.51 S0.0000
G1 X40.13 S0.0745
G0 X43.63 S0.0000
G1 X43.73 S0.7333
X44.13 S1.0000
X44.23 S0.0667
G0 X58.63 S0.0000
G1 X58.73 S0.1137
X58.93 S0.6745
X59.13 S0.9922
X59.53 S1.0000
X59.73 S0.9725
X59.83 S0.6784
G0 X63.23 S0.0000
G1 X63.33 S0.2549
X63.53 S0.7098
X63.73 S0.9725
X64.13 S1.0000
X64.33 S0.9686
X64.53 S0.5451
X64.63 S0.0706
G0 X81.03 S0.0000
G1 X81.13 S0.0078
X81.33 S0.0235
X81.53 S0.1176
X82.13 S0.2392
X82.33 S0.2314
X82.53 S0.0235
X82.63 S0.0196
G0 X99.83 S0.0000
G1 X99.93 S0.0039
X100.13 S0.0235
X100.33 S0.1059
X101.13 S0.2392
X101.33 S0.0588
X101.43 S0.0235
G0 X118.83 S0.0000
G1 X119.13 S0.0235
X119.93 S0.2392
X120.13 S0.1569
X120.33 S0.0235
X120.43 S0.0039
G0 X137.63 S0.0000
G1 X137.73 S0.0157
X137.93 S0.0471
X138.73 S0.2392
X138.93 S0.1176
X139.03 S0.0235
G0 X155.63 S0.0000
G1 X155.73 S0.0980
X155.93 S0.7333
X156.13 S0.9765
X156.53 S1.0000
X156.73 S0.9412
X156.83 S0.6667
G0 X160.23 S0.0000
G1 X160.33 S0.2627
X160.53 S0.7373
X160.73 S0.9804
X161.13 S1.0000
X161.33 S0.9412
X161.53 S0.4078
X161.63 S0.0235
G0 X176.03 S0.0000
G1 X176.13 S0.1882
X176.33 S0.9882
X176.53 S1.0000
X176.63 S0.8157
G0 Y18.71 S0.0000
G1 X176.53 S0.9647
X176.33 S1.0000
X176.13 S0.9765
X176.03 S0.0863
G0 X161.23 S0.0000
G1 X161.13 S0.0353
X160.93 S0.6157
X160.73 S0.9843
X160.13 S1.0000
X159.93 S0.9961
X159.73 S0.9608
X159.53 S0.9176
X159.33 S0.6157
X159.13 S0.2314
X159.03 S0.0196
G0 X158.23 S0.0000
G1 X158.13 S0.0039
X157.93 S0.2314
X157.73 S0.3843
X157.53 S0.9176
X157.33 S0.9412
X156.53 S1.0000
X156.33 S0.9922
X156.13 S0.7843
X155.93 S0.1765
X155.83 S0.0078
G0 X64.23 S0.0000
G1 X64.13 S0.0471
X63.93 S0.7843
X63.73 S0.9961
X63.13 S1.0000
X62.93 S0.9529
X62.73 S0.9647
X62.53 S0.9176
X62.33 S0.3059
X62.13 S0.2314
X62.03 S0.0275
G0 X61.23 S0.0000
G1 X61.13 S0.2196
X60.93 S0.2314
X60.73 S0.4275
X60.53 S0.9137
X60.33 S0.7686
X60.13 S0.9529
X59.93 S1.0000
X59.73 S0.9804
X59.53 S0.9725
X59.33 S0.9608
X59.13 S0.7098
X59.03 S0.0902
G0 X52.23 S0.0000
G1 X52.13 S0.0471
X52.03 S0.0039
G0 X44.23 S0.0000
G1 X44.13 S0.0039
X43.93 S0.9490
X43.63 S1.0000
G0 X40.13 S0.0000
G1 X40.03 S0.0745
G0 Y18.91 S0.0000
G1 X40.13 S0.0745
G0 X43.43 S0.0000
G1 X43.53 S0.2980
X43.93 S1.0000
X44.03 S0.8549
G0 X52.03 S0.0000
G1 X52.13 S0.4157
X52.23 S0.8863
G0 X59.23 S0.0000
G1 X59.33 S0.0039
X59.53 S0.2118
X59.73 S0.8275
X59.93 S0.9961
X61.33 S1.0000
X62.13 S0.9922
X63.13 S1.0000
X63.33 S0.9686
X63.53 S0.9961
X63.73 S0.8706
X63.93 S0.2471
X64.03 S0.0039
G0 X156.23 S0.0000
G1 X156.33 S0.0039
X156.53 S0.2353
X156.73 S0.9098
X158.13 S1.0000
X159.13 S0.9922
X160.33 S1.0000
X160.53 S0.9922
X160.73 S0.8078
X160.93 S0.1961
X161.03 S0.0039
G0 X176.03 S0.0000
G1 X176.13 S0.0039
X176.33 S0.7529
X176.73 S1.0000
X176.83 S0.2314
G0 Y19.11 S0.0000
G1 X176.73 S0.7137
X176.53 S1.0000
X176.33 S0.9961
X176.23 S0.3333
G0 X160.43 S0.0000
G1 X160.33 S0.0392
X160.13 S0.5882
X159.93 S0.9333
X159.73 S0.9686
X157.53 S1.0000
X157.33 S0.9843
X157.13 S0.9255
X156.93 S0.6275
X156.73 S0.2118
X156.63 S0.0118
G0 X63.63 S0.0000
G1 X63.53 S0.0039
X63.33 S0.0510
X63.13 S0.6510
X62.93 S0.9294
X62.73 S0.9725
X62.33 S1.0000
X62.13 S0.8745
X61.93 S1.0000
X61.73 S0.9412
X60.53 S1.0000
X60.33 S0.9804
X60.13 S0.9647
X59.93 S0.6431
X59.83 S0.0549
G0 X52.43 S0.0000
G1 X52.33 S0.0706
X52.13 S0.9961
X52.03 S0.4196
G0 X44.03 S0.0000
G1 X43.93 S0.2784
X43.53 S1.0000
X43.43 S0.4863
G0 X40.13 S0.0000
G1 X40.03 S0.0745
G0 Y19.31 S0.0000
G1 X40.13 S0.0745
G0 X43.43 S0.0000
G1 X43.53 S0.6902
X43.73 S1.0000
X43.93 S0.9961
X44.03 S0.2196
G0 X52.03 S0.0000
G1 X52.13 S0.2353
X52.33 S1.0000
X52.43 S0.8078
G0 X60.43 S0.0000
G1 X60.53 S0.1608
X60.73 S0.3373
X60.93 S0.5882
X61.13 S0.7569
X61.33 S0.8078
X61.93 S0.9529
X62.13 S0.9412
X62.33 S0.7529
X62.53 S0.7098
X62.73 S0.3490
X62.83 S0.1059
G0 X157.43 S0.0000
G1 X157.53 S0.2314
X157.73 S0.3373
X157.93 S0.7020
X158.13 S0.7529
X158.33 S0.9373
X158.93 S0.9529
X159.13 S0.9216
X159.33 S0.7529
X159.53 S0.6706
X159.73 S0.3373
X159.83 S0.0863
G0 X176.23 S0.0000
G1 X176.33 S0.3373
X176.73 S1.0000
X176.83 S0.7255
G0 Y19.51 S0.0000
G1 X176.73 S0.6118
X176.33 S1.0000
X176.23 S0.3412
G0 X159.03 S0.0000
G1 X158.93 S0.1059
X158.33 S0.1255
X158.23 S0.1137
G0 X62.03 S0.0000
G1 X61.93 S0.1176
X61.33 S0.1255
X61.23 S0.0275
G0 X52.43 S0.0000
G1 X52.33 S0.9647
X52.13 S1.0000
X52.03 S0.0196
G0 X44.03 S0.0000
G1 X43.93 S0.0353
X43.73 S0.9843
X43.53 S1.0000
X43.43 S0.9255
G0 X40.13 S0.0000
G1 X40.03 S0.0745
G0 Y19.71 S0.0000
G1 X40.13 S0.0745
G0 X43.43 S0.0000
G1 X43.53 S0.9255
X43.73 S1.0000
X43.93 S0.9843
X44.03 S0.0392
G0 X51.83 S0.0000
G1 X51.93 S0.0235
G0 X52.23 S0.0000
G1 X52.33 S0.7961
X52.53 S1.0000
X52.63 S0.3412
G0 X176.23 S0.0000
G1 X176.33 S0.2510
X176.53 S0.9765
X176.73 S1.0000
X176.83 S0.7255
G0 Y19.91 S0.0000
G1 X176.73 S0.7255
X176.53 S1.0000
X176.33 S0.9216
X176.23 S0.0667
G0 X52.63 S0.0000
G1 X52.53 S0.6824
X52.33 S1.0000
X52.13 S0.7961
X51.93 S0.1333
X51.83 S0.9490
G0 X44.03 S0.0000
G1 X43.93 S0.0196
X43.73 S0.7882
X43.53 S1.0000
X43.33 S0.9804
X43.23 S0.1686
G0 X40.13 S0.0000
G1 X40.03 S0.0745
G0 Y20.11 S0.0000
G1 X40.13 S0.0745
G0 X43.23 S0.0000
G1 X43.33 S0.2392
X43.73 S1.0000
X43.93 S0.6353
X44.03 S0.0039
G0 X51.83 S0.0000
G1 X51.93 S0.4863
X52.13 S0.7804
X52.33 S0.1686
X52.53 S1.0000
X52.63 S0.8196
G0 X176.23 S0.0000
G1 X176.33 S0.0667
X176.53 S0.9216
X176.73 S1.0000
X176.83 S0.7255
G0 Y20.31 S0.0000
G1 X176.73 S0.7255
X176.53 S1.0000
X176.33 S0.9216
X176.23 S0.0667
G0 X52.83 S0.0000
G1 X52.73 S0.0824
X52.33 S1.0000
X52.13 S0.1333
X51.93 S0.9804
X51.83 S0.0431
G0 X44.03 S0.0000
G1 X43.93 S0.0039
X43.73 S0.6353
X43.33 S1.0000
X43.23 S0.2392
G0 X40.13 S0.0000
G1 X40.03 S0.0745
G0 Y20.51 S0.0000
G1 X40.13 S0.0745
G0 X43.23 S0.0000
G1 X43.33 S0.2392
X43.73 S1.0000
X43.93 S0.6392
X44.03 S0.0039
G0 X52.03 S0.0000
G1 X52.13 S0.4745
X52.33 S0.2157
X52.73 S1.0000
X52.83 S0.5647
G0 X176.23 S0.0000
G1 X176.33 S0.0627
X176.53 S0.9059
X176.73 S1.0000
X176.93 S0.8471
X177.03 S0.0275
G0 Y20.71 S0.0000
G1 X176.93 S0.0667
X176.53 S1.0000
X176.43 S0.6235
G0 X52.83 S0.0000
G1 X52.73 S0.6157
X52.33 S1.0000
X52.13 S0.9725
X52.03 S0.0275
G0 X43.83 S0.0000
G1 X43.73 S0.2980
X43.33 S1.0000
X43.23 S0.7059
G0 X40.13 S0.0000
G1 X40.03 S0.0745
G0 Y20.91 S0.0000
G1 X40.13 S0.0745
G0 X43.23 S0.0000
G1 X43.33 S0.7137
X43.53 S1.0000
X43.73 S0.9961
X43.83 S0.2196
G0 X52.23 S0.0000
G1 X52.33 S0.6157
X52.93 S1.0000
X53.03 S0.0078
G0 X176.43 S0.0000
G1 X176.53 S0.6196
X176.93 S1.0000
X177.03 S0.0667
G0 Y21.11 S0.0000
G1 X176.93 S0.0667
X176.53 S1.0000
X176.43 S0.6196
G0 X53.03 S0.0000
G1 X52.93 S0.3647
X52.33 S1.0000
X52.23 S0.0980
G0 X43.83 S0.0000
G1 X43.73 S0.2196
X43.53 S0.9961
X43.33 S1.0000
X43.23 S0.7137
G0 X40.13 S0.0000
G1 X40.03 S0.0745
G0 Y21.31 S0.0000
G1 X40.13 S0.0745
G0 X43.23 S0.0000
G1 X43.33 S0.7137
X43.53 S1.0000
X43.73 S0.9961
X43.83 S0.2196
G0 X52.43 S0.0000
G1 X52.93 S1.0000
X53.03 S0.8549
G0 X176.43 S0.0000
G1 X176.53 S0.6196
X176.93 S1.0000
X177.03 S0.0667
G0 Y21.51 S0.0000
G1 X176.93 S0.0667
X176.53 S1.0000
X176.43 S0.6196
G0 X53.23 S0.0000
G1 X53.13 S0.2118
X52.53 S1.0000
X52.43 S0.2980
G0 X43.83 S0.0000
G1 X43.73 S0.3294
X43.33 S1.0000
X43.23 S0.6549
G0 X40.13 S0.0000
G1 X40.03 S0.0745
G0 Y21.71 S0.0000
G1 X40.13 S0.0745
G0 X43.23 S0.0000
G1 X43.33 S0.2392
X43.73 S1.0000
X43.93 S0.6392
X44.03 S0.0039
G0 X52.43 S0.0000
G1 X52.53 S0.0078
X52.73 S0.5647
X53.13 S1.0000
X53.23 S0.6118
G0 X176.23 S0.0000
G1 X176.33 S0.0078
X176.53 S0.6588
X176.93 S1.0000
X177.03 S0.0667
G0 X176.83 Y21.91 S0.0000
G1 X176.73 S0.7255
X176.53 S1.0000
X176.33 S0.9294
X176.23 S0.0706
G0 X53.43 S0.0000
G1 X53.33 S0.1882
X52.93 S1.0000
X52.73 S0.6157
X52.63 S0.0039
G0 X44.03 S0.0000
G1 X43.93 S0.0039
X43.73 S0.6353
X43.33 S1.0000
X43.23 S0.2392
G0 X40.13 S0.0000
G1 X40.03 S0.0745
G0 Y22.11 S0.0000
G1 X40.13 S0.0745
G0 X43.23 S0.0000
G1 X43.33 S0.2392
X43.73 S1.0000
X43.93 S0.6353
X44.03 S0.0039
G0 X52.03 S0.0000
G1 X52.13 S0.1176
X52.33 S0.2510
X52.53 S0.5255
X52.73 S0.0392
X52.93 S0.0980
X53.53 S1.0000
X53.73 S0.0863
X53.83 S0.2706
G0 X176.23 S0.0000
G1 X176.33 S0.0667
X176.53 S0.9216
X176.73 S1.0000
X176.83 S0.7255
G0 Y22.31 S0.0000
G1 X176.73 S0.7255
X176.53 S1.0000
X176.33 S0.9216
X176.23 S0.0667
G0 X54.23 S0.0000
G1 X54.13 S0.3059
X53.93 S0.5961
X53.73 S0.2863
X53.53 S0.4745
X53.33 S0.8392
X53.13 S1.0000
X52.93 S0.4824
X52.73 S0.5765
X52.53 S0.9373
X52.33 S0.8784
X52.13 S0.8902
X52.03 S0.7647
G0 X44.03 S0.0000
G1 X43.93 S0.0039
X43.73 S0.6353
X43.33 S1.0000
X43.23 S0.2392
G0 X40.13 S0.0000
G1 X40.03 S0.0745
G0 Y22.51 S0.0000
G1 X40.13 S0.0745
G0 X43.23 S0.0000
G1 X43.33 S0.2392
X43.73 S1.0000
X43.93 S0.6275
X44.03 S0.0039
G0 X51.83 S0.0000
G1 X51.93 S0.0431
X52.13 S0.9529
X52.33 S0.7882
X52.93 S1.0000
X53.13 S0.8078
X53.33 S0.4000
X53.73 S1.0000
X53.93 S0.3843
X54.13 S0.8941
X54.33 S1.0000
X54.43 S0.7412
G0 X176.23 S0.0000
G1 X176.33 S0.0667
X176.53 S0.9216
X176.73 S1.0000
X176.83 S0.7255
G0 Y22.71 S0.0000
G1 X176.73 S0.7255
X176.53 S1.0000
X176.33 S0.9569
X176.23 S0.1804
G0 X96.53 S0.0000
G1 X96.43 S0.3961
G0 X54.63 S0.0000
G1 X54.53 S0.5412
X54.33 S1.0000
X54.13 S0.7490
X53.93 S0.0039
X53.53 S1.0000
X53.33 S0.3725
X53.13 S0.0784
X52.93 S0.9333
X52.53 S1.0000
X52.33 S0.5294
X52.13 S0.3882
X51.93 S0.0157
X51.83 S0.8745
G0 X44.03 S0.0000
G1 X43.93 S0.0353
X43.73 S0.9490
X43.53 S1.0000
X43.33 S0.9647
X43.23 S0.1216
G0 X40.13 S0.0000
G1 X40.03 S0.0745
G0 Y22.91 S0.0000
G1 X40.13 S0.0745
G0 X43.43 S0.0000
G1 X43.53 S0.9255
X43.73 S1.0000
X43.93 S0.9843
X44.03 S0.0392
G0 X51.83 S0.0000
G1 X51.93 S0.8000
X52.13 S0.6039
X52.33 S1.0000
X52.53 S0.6000
X52.73 S0.6706
X53.13 S1.0000
X53.23 S0.5490
G0 X53.63 S0.0000
G1 X53.73 S0.8627
X53.93 S1.0000
X54.13 S0.9843
X54.33 S0.0471
X54.43 S0.8275
G0 X176.23 S0.0000
G1 X176.33 S0.3412
X176.73 S1.0000
X176.83 S0.6588
G0 Y23.11 S0.0000
G1 X176.73 S0.7255
X176.33 S1.0000
X176.23 S0.3373
G0 X55.03 S0.0000
G1 X54.93 S0.0235
X54.73 S0.0471
X54.63 S0.0039
G0 X54.23 S0.0000
G1 X54.13 S0.6549
X53.93 S1.0000
X53.83 S0.6353
G0 X53.43 S0.0000
G1 X53.33 S0.0039
X53.13 S0.7020
X52.93 S0.9529
X52.73 S0.2745
X52.53 S0.5647
X52.33 S1.0000
X52.13 S0.9961
X51.93 S0.6039
X51.83 S1.0000
G0 X44.03 S0.0000
G1 X43.93 S0.0627
X43.73 S0.9843
X43.53 S1.0000
X43.43 S0.9059
G0 X40.13 S0.0000
G1 X40.03 S0.0745
G0 Y23.31 S0.0000
G1 X40.13 S0.0745
G0 X43.43 S0.0000
G1 X43.53 S0.4863
X43.93 S1.0000
X44.03 S0.2824
G0 X51.83 S0.0000
G1 X51.93 S0.9922
X52.13 S0.6627
X52.33 S0.6667
X52.53 S0.4627
X52.73 S0.3373
X52.93 S0.1608
X53.13 S0.0627
X53.33 S0.5020
X53.53 S0.6863
X53.73 S0.1765
X53.93 S0.0039
X54.13 S0.8275
X54.33 S0.9765
X54.53 S0.2314
X54.73 S0.0510
X54.93 S1.0000
X55.03 S0.5059
G0 X176.23 S0.0000
G1 X176.33 S0.3373
X176.73 S1.0000
X176.83 S0.7255
G0 Y23.51 S0.0000
G1 X176.73 S0.7255
X176.33 S1.0000
X176.23 S0.3804
G0 X121.93 S0.0000
G1 X121.83 S0.0471
G0 X96.13 S0.0000
G1 X96.03 S0.1098
G0 X55.03 S0.0000
G1 X54.93 S0.0627
X54.73 S0.4667
X54.53 S0.2039
X54.33 S0.9922
X54.13 S0.8118
X53.93 S0.0039
X53.73 S0.1412
X53.33 S1.0000
X53.13 S0.3882
X52.93 S0.8510
X52.73 S0.9961
X52.53 S0.9804
X52.33 S0.1412
X52.13 S0.6157
X51.93 S1.0000
X51.73 S0.0627
X51.63 S0.5490
G0 X44.03 S0.0000
G1 X43.93 S0.2980
X43.73 S0.9686
X43.53 S1.0000
X43.43 S0.4863
G0 X40.13 S0.0000
G1 X40.03 S0.0745
G0 Y23.71 S0.0000
G1 X40.13 S0.0745
G0 X43.43 S0.0000
G1 X43.53 S0.1804
X43.73 S1.0000
X44.03 S0.8706
G0 X52.03 S0.0000
G1 X52.13 S0.0667
X52.33 S0.5765
X52.53 S1.0000
X52.73 S0.9725
X52.93 S0.0667
X53.13 S0.7216
X53.33 S0.0980
X53.53 S0.8706
X53.73 S0.8431
X53.83 S0.2431
G0 X54.23 S0.0000
G1 X54.33 S0.0627
X54.53 S0.9725
X54.73 S0.9569
X54.83 S0.0431
G0 X55.23 S0.0000
G1 X55.33 S0.8510
X55.53 S0.7961
X55.63 S0.1059
G0 X92.03 S0.0000
G1 X92.13 S0.0980
G0 X94.83 S0.0000
G1 X94.93 S0.1490
X95.03 S0.0824
G0 X119.83 S0.0000
G1 X119.93 S0.0039
X120.33 S0.1569
X120.43 S0.0667
G0 X120.83 S0.0000
G1 X120.93 S0.0039
X121.13 S0.7569
X121.33 S0.8431
X121.53 S0.8588
X121.93 S1.0000
X122.13 S0.6196
X122.33 S0.0314
X122.53 S0.3490
X122.93 S0.1569
X123.13 S0.4000
X123.33 S0.8471
X123.73 S1.0000
X123.93 S0.9294
X124.13 S1.0000
X124.23 S0.7765
G0 X124.63 S0.0000
G1 X124.73 S0.5373
X124.93 S0.1490
X125.13 S0.0784
X125.23 S0.0157
G0 X176.23 S0.0000
G1 X176.33 S0.7647
X176.73 S1.0000
X176.83 S0.2314
G0 Y23.91 S0.0000
G1 X176.73 S0.2314
X176.33 S1.0000
X176.13 S0.7882
X176.03 S0.0118
G0 X125.63 S0.0000
G1 X125.53 S0.3647
X125.33 S0.6980
X125.13 S0.8196
X124.93 S0.5255
X124.73 S0.7176
X124.53 S0.3216
X124.33 S0.1098
X124.13 S0.7529
X123.93 S0.6000
X123.73 S0.5333
X123.53 S0.6000
X123.33 S0.5922
X123.13 S0.0471
X122.93 S0.1294
X122.73 S0.7725
X122.53 S0.9333
X122.33 S0.5490
X122.13 S0.3098
X121.93 S0.0902
X121.53 S0.1490
X121.43 S0.0157
G0 X120.63 S0.0000
G1 X120.53 S0.1922
X120.33 S0.2314
X119.93 S0.1490
X119.73 S0.4431
X119.63 S0.0078
G0 X119.13 S0.0000
G1 X119.03 S0.1569
G0 X99.03 S0.0000
G1 X98.93 S0.1961
X98.73 S0.2863
X98.63 S0.3725
G0 X95.23 S0.0000
G1 X95.13 S0.1961
X94.93 S0.4784
X94.73 S0.5373
X94.53 S0.4000
X94.33 S0.3882
X94.23 S0.2941
G0 X92.03 S0.0000
G1 X91.93 S0.0941
X91.83 S0.2157
G0 X55.63 S0.0000
G1 X55.53 S0.1686
X55.33 S1.0000
X55.23 S0.7765
G0 X54.83 S0.0000
G1 X54.73 S0.4745
X54.53 S1.0000
X54.43 S0.5725
G0 X54.03 S0.0000
G1 X53.93 S0.3647
X53.73 S0.7922
X53.53 S0.4000
X53.33 S0.0392
X53.13 S0.3412
X52.93 S0.6353
X52.73 S0.4392
X52.53 S0.9725
X52.33 S1.0000
X52.13 S0.9059
X51.93 S0.3059
X51.73 S0.8510
X51.63 S0.2275
G0 X44.23 S0.0000
G1 X44.13 S0.0039
X43.93 S0.9451
X43.63 S1.0000
G0 X40.13 S0.0000
G1 X40.03 S0.0745
G0 Y24.11 S0.0000
G1 X40.13 S0.0745
G0 X43.63 S0.0000
G1 X43.73 S0.8118
X43.93 S1.0000
X44.13 S0.9922
X44.23 S0.0510
G0 X51.83 S0.0000
G1 X51.93 S0.3843
X52.13 S0.8588
X52.33 S0.3098
X52.53 S0.9922
X53.13 S0.9804
X53.33 S0.6078
X53.53 S0.7137
X54.13 S1.0000
X54.33 S0.3608
X54.53 S0.0627
X54.73 S0.9882
X54.93 S0.9294
X55.13 S0.0588
X55.33 S0.0431
X55.53 S0.9294
X55.63 S1.0000
G0 X92.43 S0.0000
G1 X92.53 S0.2902
X92.73 S0.0196
X92.93 S0.0471
X93.03 S0.5686
G0 X93.43 S0.0000
G1 X93.53 S0.3804
X93.93 S0.3176
X94.13 S0.0431
X94.33 S0.2196
X94.53 S0.7412
X94.93 S0.6824
X95.13 S0.3569
X95.33 S0.0039
X95.83 S0.0196
G0 X96.23 S0.0000
G1 X96.33 S0.2902
X96.93 S0.6824
X97.13 S0.0431
X97.33 S0.1882
X97.53 S0.2157
X97.73 S0.0196
X97.83 S0.0039
G0 X100.23 S0.0000
G1 X100.33 S0.0196
G0 X100.83 S0.0000
G1 X100.93 S0.0039
X101.13 S0.0118
X101.33 S0.1843
X101.43 S0.3255
G0 X118.43 S0.0000
G1 X118.53 S0.1961
X118.73 S0.4863
X118.83 S0.0784
G0 X119.23 S0.0000
G1 X119.33 S0.2157
G0 X119.63 S0.0000
G1 X119.73 S0.0157
X119.93 S0.0196
X120.13 S0.6824
X120.33 S0.7608
X120.53 S0.2980
X120.63 S0.1922
G0 X121.03 S0.0000
G1 X121.13 S0.1961
X121.33 S0.6941
X121.53 S0.0588
X121.73 S0.0196
X121.93 S0.0039
X122.13 S0.1137
X122.33 S0.2980
X122.53 S0.6549
X122.73 S0.3137
X122.93 S0.5922
X123.03 S0.4588
G0 X124.23 S0.0000
G1 X124.33 S0.2980
X124.53 S0.0745
X124.73 S0.0118
X124.93 S0.5569
X125.13 S0.7765
X125.33 S1.0000
X125.53 S0.9922
X125.73 S0.9961
X125.93 S0.9843
X126.03 S0.0078
G0 X126.43 S0.0000
G1 X126.53 S0.0078
G0 X176.03 S0.0000
G1 X176.13 S0.0941
X176.33 S0.9882
X176.53 S1.0000
X176.63 S0.9647
G0 Y24.31 S0.0000
G1 X176.53 S0.8039
X176.33 S1.0000
X176.13 S0.9961
X176.03 S0.3333
G0 X126.83 S0.0000
G1 X126.73 S0.2118
X126.53 S0.3176
X126.43 S0.0824
G0 X126.03 S0.0000
G1 X125.93 S0.3294
X125.73 S0.4588
X125.53 S0.6706
X125.33 S0.4863
X125.13 S0.4588
X124.93 S0.7059
X124.73 S0.5412
X124.63 S0.0745
G0 X123.83 S0.0000
G1 X123.73 S0.2510
X123.53 S0.5412
X123.33 S0.2314
X123.13 S0.0510
X122.93 S0.5412
X122.73 S0.2353
X122.63 S0.1137
G0 X121.83 S0.0000
G1 X121.73 S0.2980
X121.53 S0.8078
X121.33 S0.6784
X121.13 S0.6275
X121.03 S0.4471
G0 X119.63 S0.0000
G1 X119.53 S0.6471
X119.33 S0.5294
X119.23 S0.3216
G0 X118.43 S0.0000
G1 X118.33 S0.2824
X118.13 S0.5882
X118.03 S0.2510
G0 X101.43 S0.0000
G1 X101.33 S0.0235
X101.13 S0.2588
X100.93 S0.3294
X100.83 S0.0314
G0 X100.33 S0.0000
G1 X100.23 S0.1294
G0 X99.63 S0.0000
G1 X99.53 S0.1882
X99.43 S0.3216
G0 X98.83 S0.0000
G1 X98.73 S0.3098
X98.53 S0.3216
X98.43 S0.0078
G0 X98.03 S0.0000
G1 X97.93 S0.5412
X97.73 S0.6275
X97.13 S0.4588
X96.93 S0.7098
X96.33 S0.8667
X96.13 S0.3686
X95.93 S0.0627
X95.73 S0.5059
X95.53 S0.5843
X95.33 S0.4588
X95.13 S0.2745
X94.93 S0.8196
X94.73 S0.5059
X94.53 S0.7137
X94.43 S0.5255
G0 X94.03 S0.0000
G1 X93.93 S0.0157
X93.73 S0.1333
X93.53 S0.4196
X93.33 S0.4667
X93.13 S0.5412
X92.93 S0.4000
X92.73 S0.0824
X92.53 S0.4588
X92.33 S0.2745
X92.23 S0.1020
G0 X55.63 S0.0000
G1 X55.53 S0.2275
X55.43 S0.3686
G0 X55.03 S0.0000
G1 X54.93 S0.6627
X54.73 S1.0000
X54.63 S0.3176
G0 X54.23 S0.0000
G1 X54.13 S0.6431
X53.73 S1.0000
X53.53 S0.9647
X53.33 S0.4824
X53.23 S0.0627
G0 X52.63 S0.0000
G1 X52.53 S0.2667
X52.33 S0.4118
X52.13 S0.4667
X51.93 S0.9804
X51.83 S0.8824
G0 X44.23 S0.0000
G1 X44.13 S0.0549
X43.73 S1.0000
X43.63 S0.7333
G0 X40.13 S0.0000
G1 X40.03 S0.0745
G0 Y24.51 S0.0000
G1 X40.13 S0.0745
G0 X43.63 S0.0000
G1 X43.73 S0.3255
X44.13 S1.0000
X44.23 S0.5647
G0 X51.83 S0.0000
G1 X51.93 S1.0000
X52.13 S0.9804
X52.33 S0.1098
X52.53 S1.0000
X52.73 S0.8706
X52.93 S0.0235
X53.13 S0.0902
X53.33 S0.9255
X53.53 S0.7686
X53.73 S0.1059
X53.93 S0.7608
X54.13 S0.9373
X54.23 S0.2863
G0 X54.63 S0.0000
G1 X54.73 S0.0157
X54.93 S0.8078
X55.13 S1.0000
X55.23 S0.2510
G0 X55.63 S0.0000
G1 X55.73 S0.6157
X55.93 S0.9686
X56.13 S0.9490
X56.23 S0.5412
G0 X91.03 S0.0000
G1 X91.13 S0.1647
X91.23 S0.2902
G0 X91.63 S0.0000
G1 X91.73 S0.0510
X91.93 S0.6902
X92.13 S0.5216
X92.33 S0.0392
X92.53 S0.0157
X92.73 S0.0706
X92.93 S0.0157
X93.13 S0.3961
X93.33 S0.9686
X93.53 S0.7843
X93.73 S0.7176
X93.83 S0.6353
G0 X94.43 S0.0000
G1 X94.53 S0.4078
X94.73 S0.9843
X94.93 S0.9725
X95.13 S1.0000
X95.33 S0.7412
X95.53 S0.3725
X95.93 S1.0000
X96.13 S0.0588
X96.33 S0.5686
X96.53 S0.9922
X96.73 S0.4745
X96.93 S0.4000
X97.13 S1.0000
X97.33 S0.8431
X97.53 S0.7216
X97.73 S0.8941
X97.93 S0.4118
X98.13 S0.5098
X98.33 S0.2588
X98.53 S0.3176
X98.73 S0.7216
X98.93 S0.6863
X99.13 S0.0549
X99.33 S0.3020
X99.53 S0.7216
X99.73 S0.4196
X99.93 S0.2784
X100.03 S0.0275
G0 X101.23 S0.0000
G1 X101.33 S0.0078
G0 X118.03 S0.0000
G1 X118.13 S0.0235
X118.33 S0.0039
X118.53 S0.0078
X118.73 S0.0118
X118.93 S0.8980
X119.13 S0.3373
X119.33 S0.0314
X119.43 S0.0039
G0 X120.03 S0.0000
G1 X120.13 S0.0902
X120.63 S0.6902
G0 X121.03 S0.0000
G1 X121.13 S0.0784
X121.53 S0.2784
X121.73 S0.2941
X121.93 S0.3059
X122.03 S0.1725
G0 X123.23 S0.0000
G1 X123.33 S0.2549
X123.53 S0.3020
X123.93 S0.9686
X124.13 S0.7294
X124.53 S0.6902
X124.73 S0.0314
X124.93 S0.2275
X125.13 S0.0157
X125.33 S0.0314
X125.53 S0.2980
X125.73 S0.3451
X125.93 S0.7216
X126.13 S0.3412
X126.33 S0.1843
X126.53 S0.0039
X126.73 S0.0980
X126.83 S0.4784
G0 X176.03 S0.0000
G1 X176.13 S0.5255
X176.53 S1.0000
X176.63 S0.4667
G0 X176.43 Y24.71 S0.0000
G1 X176.13 S1.0000
X175.93 S0.9608
X175.83 S0.0275
G0 X151.93 S0.0000
G1 X151.83 S0.0039
G0 X151.03 S0.0000
G1 X150.73 S0.1098
X150.53 S0.9922
X150.43 S0.8588
G0 X149.23 S0.0000
G1 X149.13 S0.0431
X148.93 S0.1098
X148.83 S0.0118
G0 X146.63 S0.0000
G1 X146.53 S0.6471
X146.43 S0.0078
G0 X146.13 S0.0000
G1 X146.03 S0.0039
G0 X145.63 S0.0000
G1 X145.53 S0.0392
X145.43 S0.1922
G0 X128.23 S0.0000
G1 X128.03 S0.0039
G0 X127.63 S0.0000
G1 X127.53 S0.0039
X127.33 S0.0078
X127.13 S0.1373
X127.03 S0.9098
G0 X126.63 S0.0000
G1 X126.53 S0.1725
X126.33 S0.0784
X126.13 S0.0588
X126.03 S0.4039
G0 X125.63 S0.0000
G1 X125.53 S0.1020
X125.33 S0.9843
X125.13 S0.9020
X124.93 S0.8118
X124.73 S0.0039
X124.63 S0.0431
G0 X123.43 S0.0000
G1 X123.33 S0.1098
X123.13 S0.7059
X122.33 S1.0000
X122.13 S0.9647
X122.03 S0.3373
G0 X121.63 S0.0000
G1 X121.53 S0.0549
X121.33 S0.1098
X121.23 S0.1020
G0 X120.83 S0.0000
G1 X120.73 S0.1098
X120.53 S0.9098
X120.13 S1.0000
X119.93 S0.6824
X119.73 S0.3373
X119.63 S0.0039
G0 X118.43 S0.0000
G1 X118.33 S0.1922
X118.13 S0.1412
X117.83 S0.0510
G0 X102.13 S0.0000
G1 X102.03 S0.7725
G0 X100.93 S0.0000
G1 X100.83 S0.0039
G0 X99.63 S0.0000
G1 X99.53 S0.5216
X99.33 S0.1412
X99.13 S0.1059
X98.93 S0.0039
X98.73 S0.8510
X98.53 S0.8745
X98.43 S0.4549
G0 X98.03 S0.0000
G1 X97.93 S0.9961
X97.73 S0.9176
X97.53 S0.8902
X97.33 S0.9098
X97.13 S0.9961
X96.93 S0.9882
X96.83 S0.1137
G0 X95.83 S0.0000
G1 X95.73 S0.0784
X95.33 S0.8863
X95.23 S0.6863
G0 X94.83 S0.0000
G1 X94.73 S0.0941
X94.33 S0.1137
X94.23 S0.0039
G0 X93.83 S0.0000
G1 X93.73 S0.2745
X93.33 S0.8863
X93.13 S0.9922
X92.73 S0.1098
X92.53 S0.8863
X92.33 S0.4902
X92.13 S0.1412
X91.93 S0.6627
X91.73 S0.2196
X91.53 S0.0706
X91.33 S0.1843
X91.13 S0.8902
X90.93 S0.2157
X90.83 S0.0745
G0 X89.43 S0.0000
G1 X89.33 S0.1020
X89.23 S0.0275
G0 X56.53 S0.0000
G1 X56.43 S0.0039
G0 X56.03 S0.0000
G1 X55.73 S1.0000
X55.53 S0.8275
X55.33 S0.1020
X55.13 S1.0000
X54.93 S0.9922
X54.83 S0.2157
G0 X54.43 S0.0000
G1 X54.33 S0.2314
X54.13 S0.6275
X53.93 S0.0902
X53.73 S0.4196
X53.33 S1.0000
X53.23 S0.8431
G0 X52.83 S0.0000
G1 X52.73 S0.4000
X52.53 S0.0392
X52.33 S0.8588
X52.13 S0.3137
X51.93 S1.0000
X51.83 S0.8235
G0 X44.23 S0.0000
G1 X44.13 S0.8588
X43.93 S1.0000
X43.73 S0.9882
X43.63 S0.1255
G0 X40.13 S0.0000
G1 X40.03 S0.0745
G0 Y24.91 S0.0000
G1 X40.13 S0.0745
G0 X43.83 S0.0000
G1 X43.93 S0.8941
X44.13 S1.0000
X44.23 S0.9608
G0 X51.83 S0.0000
G1 X51.93 S0.0235
X52.13 S0.9255
X52.33 S0.4157
X52.53 S0.2157
X52.73 S0.7490
X52.83 S0.2431
G0 X53.23 S0.0000
G1 X53.33 S0.6039
X53.93 S1.0000
X54.13 S0.0902
X54.33 S1.0000
X54.43 S0.5686
G0 X55.03 S0.0000
G1 X55.13 S0.7020
X55.33 S1.0000
X55.43 S0.3333
G0 X55.83 S0.0000
G1 X55.93 S0.9294
X56.13 S0.9020
X56.33 S0.0039
X56.53 S0.6471
X56.63 S0.0118
G0 X89.03 S0.0000
G1 X89.13 S0.0784
X89.33 S0.5529
X89.43 S0.2784
G0 X90.43 S0.0000
G1 X90.53 S0.0549
X90.63 S0.0431
G0 X91.03 S0.0000
G1 X91.13 S0.1765
X91.33 S0.3255
X91.53 S0.4706
X91.73 S0.6706
X91.83 S0.3255
G0 X92.63 S0.0000
G1 X92.73 S0.0588
G0 X93.63 S0.0000
G1 X93.73 S0.2510
X93.93 S0.4588
X94.13 S0.0627
X94.33 S0.5255
X94.53 S0.5412
X94.73 S0.7333
X94.93 S0.6157
X95.13 S0.0627
X95.23 S0.0471
G0 X95.63 S0.0000
G1 X95.73 S0.3373
X95.93 S0.5176
X96.33 S0.5255
X96.53 S0.0667
X96.93 S0.0627
X97.03 S0.0039
G0 X97.43 S0.0000
G1 X97.53 S0.3882
X97.73 S0.4745
X97.83 S0.0863
G0 X98.23 S0.0000
G1 X98.33 S0.4902
X98.53 S0.5373
X98.73 S0.6039
X98.93 S0.8314
X99.13 S0.8549
X99.33 S0.9765
X99.53 S0.9804
X99.73 S0.6118
X99.83 S0.0627
G0 X100.23 S0.0000
G1 X100.33 S0.0431
G0 X100.63 S0.0000
G1 X100.73 S0.0431
X100.93 S0.3686
X101.13 S0.0039
X101.33 S0.0627
X101.53 S0.0039
X101.73 S0.0471
X101.83 S0.0078
G0 X117.83 S0.0000
G1 X117.93 S0.2118
X118.03 S0.3922
G0 X119.63 S0.0000
G1 X119.73 S0.4510
X119.93 S0.4745
X120.13 S0.2275
X120.53 S0.4745
X120.73 S0.8549
X120.93 S0.1725
X121.13 S0.3961
X121.33 S0.4627
X121.53 S0.4667
X121.73 S0.3216
X121.93 S0.4627
X122.13 S0.0588
X122.33 S0.0980
X122.53 S0.9137
X122.73 S0.5529
X123.13 S0.9373
X123.23 S0.0863
G0 X123.63 S0.0000
G1 X123.73 S0.5255
G0 X124.83 S0.0000
G1 X124.93 S0.7490
X125.13 S0.5333
X125.33 S0.5412
X125.53 S0.4667
X125.73 S0.8510
X125.83 S0.0627
G0 X126.23 S0.0000
G1 X126.33 S0.1569
X126.53 S0.7686
X126.73 S0.3804
X126.83 S0.0235
G0 X127.43 S0.0000
G1 X127.53 S0.4745
X127.73 S0.2745
X127.93 S0.0118
X128.13 S0.6941
X128.33 S0.7608
X128.53 S0.4745
X128.73 S0.0078
X128.83 S0.0627
G0 X145.23 S0.0000
G1 X145.33 S0.0039
X145.53 S0.0510
X145.63 S0.2000
G0 X146.03 S0.0000
G1 X146.13 S0.2039
G0 X148.03 S0.0000
G1 X148.13 S0.1412
X148.23 S0.5255
G0 X149.63 S0.0000
G1 X149.73 S0.0431
X149.83 S0.0824
G0 X151.23 S0.0000
G1 X151.33 S0.0235
X151.53 S0.0196
X151.73 S0.4157
X151.93 S0.4196
X152.13 S0.1882
X152.23 S0.0588
G0 X175.83 S0.0000
G1 X175.93 S0.1098
X176.13 S0.9686
X176.33 S1.0000
X176.43 S0.9804
G0 Y25.11 S0.0000
G1 X176.33 S0.6118
X175.93 S1.0000
X175.83 S0.3569
G0 X152.63 S0.0000
G1 X152.53 S0.8118
X152.33 S0.8667
X152.13 S0.6353
X151.93 S0.1098
X151.73 S0.0196
X151.53 S0.0667
X151.33 S0.8706
X151.13 S0.2549
X151.03 S0.4314
G0 X150.23 S0.0000
G1 X150.13 S0.1412
X149.63 S0.6824
G0 X148.63 S0.0000
G1 X148.53 S0.6706
X148.33 S0.6824
X148.13 S0.8157
X147.93 S0.7843
X147.83 S0.6549
G0 X146.43 S0.0000
G1 X146.33 S0.0588
X146.13 S0.6824
X145.93 S0.4078
X145.73 S0.0314
X145.53 S0.3882
X145.33 S0.3020
X145.13 S0.6039
X144.93 S0.0941
X144.83 S0.0863
G0 X129.03 S0.0000
G1 X128.93 S0.0039
X128.73 S0.1333
X128.53 S0.0118
X128.33 S0.4392
X128.13 S0.0275
X127.93 S0.0824
X127.73 S0.0235
X127.63 S0.0667
G0 X127.23 S0.0000
G1 X127.13 S0.0784
X126.93 S0.7255
X126.73 S0.7373
X126.53 S0.5098
X126.43 S0.1333
G0 X126.03 S0.0000
G1 X125.93 S0.1569
X125.73 S0.3137
X125.33 S0.8667
X125.13 S0.9961
X124.93 S0.1333
X124.73 S0.0235
X124.53 S0.1843
X124.33 S0.6784
X124.13 S0.8667
X123.63 S0.6824
G0 X122.83 S0.0000
G1 X122.73 S0.0902
X122.53 S0.6824
X122.33 S0.3686
X122.13 S0.0549
X121.93 S0.8431
X121.73 S0.8157
X121.53 S0.9137
X121.33 S0.8824
X121.13 S0.8745
X121.03 S0.2863
G0 X119.83 S0.0000
G1 X119.73 S0.1804
X119.53 S0.2196
X119.33 S0.7882
X119.13 S0.2510
X119.03 S0.0980
G0 X118.43 S0.0000
G1 X118.33 S0.5765
X118.23 S0.0196
G0 X101.83 S0.0000
G1 X101.73 S0.3176
X101.53 S0.8039
X101.33 S0.0078
X101.13 S0.1333
X100.93 S0.0078
X100.73 S0.0275
X100.53 S0.1843
X100.33 S0.7765
X100.23 S0.0902
G0 X99.83 S0.0000
G1 X99.73 S0.1333
X99.53 S0.7137
X99.33 S0.8941
X99.13 S0.7608
X98.93 S0.6000
X98.33 S0.1333
X98.23 S0.1216
G0 X97.23 S0.0000
G1 X97.13 S0.2980
X96.93 S0.7059
X96.73 S1.0000
X96.53 S0.3333
X96.33 S0.3176
X96.13 S0.3608
X95.93 S1.0000
X95.73 S0.6588
X95.63 S0.1333
G0 X95.23 S0.0000
G1 X95.13 S0.9647
X94.93 S1.0000
X94.73 S0.4745
X94.53 S1.0000
X94.33 S0.3373
X94.13 S0.9922
X93.93 S0.6824
X93.73 S0.0549
X93.63 S0.1176
G0 X93.03 S0.0000
G1 X92.93 S0.0471
X92.73 S0.1843
X92.53 S0.1255
X92.33 S0.3059
X92.23 S0.1255
G0 X91.43 S0.0000
G1 X91.33 S0.4078
X91.13 S0.3176
X90.93 S0.6549
X90.73 S0.0549
X90.53 S0.2706
X90.33 S0.2078
X90.13 S0.3294
X89.93 S0.1059
X89.73 S0.6431
X89.53 S0.0471
X89.43 S0.8000
G0 X88.93 S0.0000
G1 X88.83 S0.1608
G0 X56.63 S0.0000
G1 X56.53 S0.1333
X56.33 S0.1608
X56.13 S0.1843
X56.03 S0.1255
G0 X55.63 S0.0000
G1 X55.53 S0.0392
X55.33 S0.9412
X55.13 S1.0000
X55.03 S0.0667
G0 X54.43 S0.0000
G1 X54.33 S0.7098
X54.13 S1.0000
X53.93 S0.0902
X53.53 S1.0000
X53.33 S0.9961
X53.13 S0.3176
X52.93 S0.7569
X52.73 S0.2314
X52.33 S1.0000
X52.23 S0.0941
G0 X44.43 S0.0000
G1 X44.33 S0.0078
X44.13 S0.9608
X43.93 S1.0000
X43.83 S0.8941
G0 X40.13 S0.0000
G1 X40.03 S0.0745
G0 Y25.31 S0.0000
G1 X40.13 S0.0745
G0 X43.83 S0.0000
G1 X43.93 S0.6941
X44.13 S1.0000
X44.33 S0.9961
X44.43 S0.3333
G0 X52.43 S0.0000
G1 X52.73 S1.0000
X52.93 S0.6392
X53.13 S0.8549
X53.33 S0.0118
X53.53 S0.5451
X53.73 S0.8863
X53.93 S0.6824
X54.13 S0.0510
X54.33 S0.9294
X54.43 S0.5059
G0 X55.23 S0.0000
G1 X55.33 S0.4745
X55.73 S1.0000
X55.93 S0.0078
X56.13 S0.9765
X56.33 S1.0000
X56.43 S0.4706
G0 X88.03 S0.0000
G1 X88.13 S0.1529
X88.23 S0.1686
G0 X89.03 S0.0000
G1 X89.13 S0.0471
X89.33 S0.3216
X89.53 S0.5176
X89.73 S0.0196
X89.93 S0.0706
X90.13 S0.4863
X90.33 S0.7490
X90.43 S0.5529
G0 X91.83 S0.0000
G1 X91.93 S0.1216
X92.13 S0.7255
X92.33 S0.5647
X92.53 S0.3176
X92.73 S0.0824
X92.93 S0.3804
X93.13 S0.4784
X93.23 S0.5922
G0 X93.83 S0.0000
G1 X94.33 S0.6235
X94.53 S1.0000
X94.73 S0.7608
X94.93 S0.4706
X95.23 S0.3765
G0 X95.63 S0.0000
G1 X95.73 S0.3255
X95.93 S0.9490
X96.53 S1.0000
X96.93 S0.6235
X97.13 S0.5569
X97.33 S0.2510
X97.53 S0.3843
X98.13 S1.0000
X98.33 S0.4471
X98.43 S0.3647
G0 X99.03 S0.0000
G1 X99.13 S0.1098
X99.33 S0.3294
X99.53 S0.0118
X99.73 S0.0706
X99.83 S0.0157
G0 X100.43 S0.0000
G1 X100.53 S0.1412
X100.73 S0.7020
X100.93 S0.3922
X101.03 S0.3294
G0 X101.63 S0.0000
G1 X101.93 S0.0667
X102.03 S0.0078
G0 X116.63 S0.0000
G1 X116.73 S0.2000
G0 X117.03 S0.0000
G1 X117.13 S0.0078
X117.33 S0.3373
X117.43 S0.0078
G0 X117.83 S0.0000
G1 X117.93 S0.0627
X118.13 S0.4745
X118.33 S0.7569
X118.43 S0.2902
G0 X118.83 S0.0000
G1 X118.93 S0.2431
X119.13 S0.6549
X119.33 S0.4235
X119.53 S0.2431
X119.73 S0.3922
X119.93 S0.9020
X120.13 S0.0471
X120.33 S0.5412
X120.53 S0.6235
X120.73 S0.7569
X120.93 S0.6039
X121.03 S0.2706
G0 X121.63 S0.0000
G1 X121.73 S0.5529
X121.93 S0.5608
X122.13 S0.3451
X122.33 S0.0784
X122.53 S0.3765
X122.73 S0.7490
X123.13 S0.9294
X123.33 S1.0000
X123.53 S0.1176
X123.73 S0.5529
X123.93 S0.5882
X124.13 S0.4549
X124.33 S0.3765
X124.53 S0.4314
X124.73 S0.9725
X124.93 S0.2471
X125.03 S0.3922
G0 X125.43 S0.0000
G1 X125.53 S0.0078
X125.73 S0.5059
X125.93 S0.9412
X126.13 S0.5529
X126.23 S0.1176
G0 X126.83 S0.0000
G1 X126.93 S0.0667
X127.13 S0.8863
X127.33 S0.4196
X127.53 S0.0431
X127.73 S0.7608
X127.93 S0.7843
X128.13 S0.2314
X128.33 S0.1098
X128.53 S0.5529
X128.73 S0.4471
X128.83 S0.2980
G0 X144.23 S0.0000
G1 X144.33 S0.1137
X144.43 S0.0157
G0 X146.03 S0.0000
G1 X146.13 S0.0627
X146.23 S0.0706
G0 X147.03 S0.0000
G1 X147.13 S0.2078
X147.33 S0.0471
X147.73 S0.0706
X147.93 S0.0314
X148.13 S0.1098
X148.53 S0.5529
X148.73 S0.0235
X148.93 S0.4824
X149.13 S0.7333
X149.33 S0.7569
X149.43 S0.5882
G0 X149.83 S0.0000
G1 X149.93 S0.4549
X150.13 S0.5529
X150.33 S0.0667
X150.53 S0.3647
X150.73 S0.0784
X150.93 S0.0392
X151.13 S0.5020
X151.33 S0.7098
X151.53 S0.7569
X151.63 S0.6510
G0 X152.23 S0.0000
G1 X152.33 S0.1804
X152.53 S0.0039
X152.73 S0.7686
X152.93 S0.9294
X153.13 S0.1882
X153.33 S0.0196
X153.53 S0.4471
X153.73 S0.1294
X153.83 S0.0706
G0 X175.63 S0.0000
G1 X175.73 S0.0039
X175.93 S0.6902
X176.33 S1.0000
X176.43 S0.1843
G0 Y25.51 S0.0000
G1 X176.33 S0.0471
X176.13 S0.9176
X175.93 S1.0000
X175.73 S0.8863
X175.63 S0.0510
G0 X154.43 S0.0000
G1 X154.33 S0.0353
X154.13 S0.5059
X153.93 S0.7373
X153.73 S0.7647
X153.53 S0.2510
X153.33 S0.8706
X153.13 S0.1451
X152.93 S0.3608
X152.73 S0.3569
X152.53 S0.1647
X152.33 S0.3686
X152.23 S0.2588
G0 X151.63 S0.0000
G1 X151.53 S0.2627
X151.33 S0.3216
X151.23 S0.4863
G0 X150.83 S0.0000
G1 X150.73 S0.1490
X150.53 S0.2706
X150.33 S0.0157
X150.23 S0.4275
G0 X149.43 S0.0000
G1 X149.33 S0.1686
X149.13 S0.4706
X148.93 S0.5137
X148.73 S0.2627
X148.63 S0.0941
G0 X148.03 S0.0000
G1 X147.93 S0.2000
X147.73 S0.3686
X147.53 S0.6275
X147.33 S0.7686
X147.23 S0.4235
G0 X146.43 S0.0000
G1 X146.33 S0.0196
X146.13 S0.5098
X145.93 S0.7490
X145.83 S0.1294
G0 X144.63 S0.0000
G1 X144.53 S0.2196
X144.33 S0.0235
X144.13 S0.5294
X144.03 S0.2588
G0 X143.73 S0.0000
G1 X143.63 S0.1020
G0 X129.63 S0.0000
G1 X129.53 S0.0118
X129.33 S0.1529
X129.13 S0.0078
X128.93 S0.4980
X128.73 S0.6745
X128.63 S0.5608
G0 X128.23 S0.0000
G1 X128.13 S0.2000
X127.93 S0.5725
X127.73 S1.0000
X127.53 S0.3294
X127.33 S0.2627
X127.13 S0.7922
X126.93 S0.6863
X126.53 S0.2549
X126.33 S0.3137
X126.13 S0.6549
X125.93 S0.9020
X125.73 S0.0784
X125.53 S0.0667
X125.33 S0.2510
X125.13 S0.7333
X124.93 S0.2471
X124.73 S0.8157
X124.53 S0.9882
X124.33 S0.6863
X124.23 S0.2392
G0 X123.43 S0.0000
G1 X123.33 S0.7412
X123.13 S1.0000
X122.93 S0.7373
X122.73 S0.5922
X122.53 S0.4863
X122.33 S0.2078
X122.13 S0.1961
X121.93 S0.2510
X121.73 S0.6314
X121.63 S0.1176
G0 X121.23 S0.0000
G1 X121.13 S0.1843
X120.93 S0.6627
X120.73 S0.3490
X120.53 S0.8275
X120.33 S0.7843
X120.13 S0.7373
X119.93 S0.5647
X119.73 S0.0706
X119.53 S0.2627
X119.33 S0.3882
X119.13 S0.4471
X118.93 S0.3059
X118.73 S0.4235
X118.53 S0.1216
X118.33 S0.0588
X118.13 S0.5098
X117.93 S0.6824
X117.73 S0.8667
X117.53 S0.1059
X117.33 S0.1216
X117.13 S0.3765
X116.93 S0.0471
X116.73 S0.2235
X116.53 S0.0863
X116.43 S0.0039
G0 X102.83 S0.0000
G1 X102.73 S0.1020
X102.53 S0.0039
X102.33 S0.0706
X102.13 S0.0039
X101.93 S0.4902
X101.73 S0.4000
X101.53 S0.4118
X101.33 S0.0275
X101.13 S0.6706
X100.93 S0.7412
X100.73 S0.0627
X100.53 S0.1176
X100.33 S0.9333
X100.13 S0.7373
X99.93 S0.5647
X99.73 S0.6118
X99.53 S0.5137
X99.43 S0.0784
G0 X99.03 S0.0000
G1 X98.93 S0.0784
X98.73 S0.5569
X98.53 S0.7373
X98.33 S0.6000
X97.73 S0.7490
X97.53 S0.9059
X97.33 S0.4275
X97.13 S0.0314
X96.93 S0.0157
X96.53 S0.2627
X96.33 S0.2667
X95.93 S0.7490
X95.73 S0.7059
X95.53 S0.1961
X95.33 S0.1255
X95.13 S0.0627
X94.93 S0.2549
X94.73 S0.7059
X94.53 S0.1490
X94.33 S0.9020
X94.13 S0.9882
X93.93 S0.5451
X93.73 S0.7490
X93.53 S0.4863
X93.33 S0.0902
X93.13 S0.1686
X92.93 S0.7490
X92.73 S0.6510
X92.53 S0.9608
X92.33 S0.5020
X92.13 S0.4471
X92.03 S0.4627
G0 X91.43 S0.0000
G1 X91.33 S0.2039
X90.93 S0.4863
X90.73 S0.7137
X90.63 S0.2549
G0 X90.03 S0.0000
G1 X89.93 S0.0627
X89.73 S0.2941
X89.53 S0.5529
X89.33 S0.0314
X89.13 S0.3765
X88.93 S0.4784
X88.83 S0.0275
G0 X88.33 S0.0000
G1 X88.23 S0.2627
G0 X87.63 S0.0000
G1 X87.53 S0.0157
X87.43 S0.0471
G0 X56.63 S0.0000
G1 X56.53 S0.5059
X56.33 S0.9647
X56.13 S1.0000
X55.93 S0.2157
X55.73 S0.1843
X55.53 S1.0000
X55.33 S0.9255
X55.23 S0.0392
G0 X54.73 S0.0000
G1 X54.63 S0.5059
G0 X54.23 S0.0000
G1 X54.13 S0.1255
X54.03 S0.2902
G0 X53.23 S0.0000
G1 X53.13 S0.0431
X52.93 S0.2588
X52.53 S1.0000
X52.33 S0.5098
X52.13 S0.1490
X52.03 S0.1137
G0 X44.43 S0.0000
G1 X44.33 S0.8275
X44.13 S1.0000
X43.93 S0.9922
X43.83 S0.1216
G0 X40.13 S0.0000
G1 X40.03 S0.0745
G0 Y25.71 S0.0000
G1 X40.13 S0.0745
G0 X44.03 S0.0000
G1 X44.13 S0.8275
X44.33 S1.0000
X44.43 S0.9804
G0 X52.03 S0.0000
G1 X52.13 S0.0157
X52.33 S0.6667
X52.53 S0.0471
X52.93 S1.0000
X53.03 S0.3647
G0 X54.03 S0.0000
G1 X54.13 S0.1255
X54.33 S0.9451
X54.53 S0.0902
X54.73 S0.9765
X54.83 S0.1373
G0 X55.43 S0.0000
G1 X55.53 S0.2510
X55.73 S0.9961
X55.83 S0.9804
G0 X56.23 S0.0000
G1 X56.33 S0.6157
X56.53 S1.0000
X56.73 S0.9882
X56.83 S0.2157
G0 X87.43 S0.0000
G1 X87.53 S0.0078
X87.63 S0.0039
G0 X88.83 S0.0000
G1 X88.93 S0.0039
X89.03 S0.0353
G0 X90.43 S0.0000
G1 X90.53 S0.4078
X90.73 S0.5176
X90.93 S0.5608
X91.13 S0.9608
X91.33 S0.6784
X91.43 S0.4941
G0 X92.03 S0.0000
G1 X92.13 S0.4549
X92.33 S0.4745
X92.53 S0.2510
X92.73 S0.5255
X92.93 S0.6980
X93.03 S0.5216
G0 X94.03 S0.0000
G1 X94.13 S0.0314
X94.43 S0.0392
G0 X94.83 S0.0000
G1 X94.93 S0.0824
X95.13 S0.4863
X95.33 S0.4980
X95.43 S0.2667
G0 X95.83 S0.0000
G1 X95.93 S0.2549
X96.13 S0.8745
X96.53 S0.9608
X97.33 S0.4745
X97.53 S0.8706
X97.73 S0.9843
X97.93 S0.9608
X98.13 S0.6667
X98.33 S0.9608
X98.53 S0.4941
X98.73 S0.9176
X98.93 S0.0392
X99.13 S0.0118
X99.33 S0.6431
X99.53 S0.4941
X99.73 S0.9333
X99.93 S0.6039
X100.13 S0.9255
X100.33 S0.6706
X100.53 S0.9373
X100.73 S0.4941
X100.93 S0.0745
X101.13 S0.0196
X101.33 S0.3804
X101.53 S0.2824
X101.73 S0.0902
X101.93 S0.0471
X102.03 S0.0039
G0 X102.43 S0.0000
G1 X102.53 S0.0118
G0 X102.83 S0.0000
G1 X102.93 S0.2941
X103.03 S0.0667
G0 X116.03 S0.0000
G1 X116.13 S0.2902
X116.23 S0.2784
G0 X116.83 S0.0000
G1 X116.93 S0.4667
X117.13 S0.5765
X117.23 S0.0235
G0 X117.63 S0.0000
G1 X117.73 S0.5882
X117.93 S0.2275
X118.03 S0.0314
G0 X118.63 S0.0000
G1 X118.73 S0.0196
X118.93 S0.1137
X119.03 S0.0392
G0 X119.83 S0.0000
G1 X119.93 S0.0118
X120.13 S0.0392
X120.33 S0.8000
X120.53 S0.2039
X120.93 S0.0392
X121.13 S0.2824
X121.33 S0.3059
X121.53 S0.4745
X121.73 S0.4941
X121.93 S0.9255
X122.13 S0.5255
X122.33 S0.5176
X122.53 S0.4863
X122.73 S0.0784
X122.93 S0.4902
X123.13 S0.5137
X123.53 S1.0000
X123.73 S0.8824
X123.93 S0.2118
X124.03 S0.4157
G0 X124.63 S0.0000
G1 X124.73 S0.0353
X124.93 S0.0314
X125.13 S0.6863
X125.33 S0.5255
X125.53 S1.0000
X125.73 S0.9725
X125.93 S0.4784
X126.13 S0.3098
X126.33 S0.5020
X126.53 S0.2941
X126.73 S0.8980
X126.93 S0.1882
X127.13 S0.0980
X127.33 S0.6941
X127.53 S0.4941
X127.73 S0.0039
X127.93 S0.1255
X128.13 S0.6667
X128.33 S0.5137
X128.53 S0.7020
X128.73 S0.1451
X128.93 S0.0353
X129.13 S0.1059
X129.33 S0.3569
X129.53 S0.3490
X129.63 S0.4980
G0 X130.03 S0.0000
G1 X130.13 S0.2549
X130.23 S0.2353
G0 X143.23 S0.0000
G1 X143.33 S0.2549
G0 X143.63 S0.0000
G1 X143.73 S0.0157
X143.93 S0.1725
X144.13 S0.8196
X144.33 S0.8902
X144.53 S0.9608
X144.73 S0.0588
X144.93 S0.2392
X145.13 S0.5529
X145.33 S0.4549
X145.53 S0.1059
X145.73 S0.2745
X145.93 S0.0902
X146.13 S0.3137
X146.33 S0.8902
X146.43 S0.3176
G0 X146.83 S0.0000
G1 X146.93 S0.4941
X147.13 S0.9608
X147.33 S0.1255
X147.53 S0.0392
X147.73 S0.5137
X147.93 S0.7804
X148.13 S0.2471
X148.33 S0.2549
X148.73 S0.4863
X148.93 S0.1255
X149.33 S0.0392
X149.53 S0.4353
X149.73 S0.4863
X149.83 S0.0863
G0 X150.23 S0.0000
G1 X150.33 S0.1059
X150.63 S0.4745
G0 X151.43 S0.0000
G1 X151.53 S0.0275
X151.63 S0.0039
G0 X152.03 S0.0000
G1 X152.13 S0.1961
X152.23 S0.5725
G0 X153.03 S0.0000
G1 X153.13 S0.2471
X153.33 S0.6314
X153.53 S0.5059
X153.73 S0.4745
X153.93 S0.2980
X154.13 S0.9176
X154.33 S1.0000
X154.53 S0.4902
X154.63 S0.4706
G0 X175.63 S0.0000
G1 X175.73 S0.1059
X175.93 S0.9529
X176.13 S1.0000
X176.23 S0.8863
G0 Y25.91 S0.0000
G1 X176.13 S0.3804
X175.93 S1.0000
X175.73 S0.9765
X175.63 S0.5412
G0 X155.23 S0.0000
G1 X155.13 S0.1647
X154.93 S0.3647
X154.73 S0.0745
X154.53 S0.5020
X154.33 S0.4824
X154.13 S0.8549
X153.93 S0.7098
X153.73 S0.0392
X153.53 S0.7412
X153.33 S1.0000
X153.23 S0.5608
G0 X152.83 S0.0000
G1 X152.73 S0.1569
X152.53 S0.1922
X152.33 S0.1882
X152.13 S0.0039
X151.93 S0.2549
X151.73 S0.6706
X151.53 S0.6039
X151.33 S0.1490
X151.13 S0.7098
X150.93 S0.7255
X150.83 S0.1176
G0 X150.43 S0.0000
G1 X150.33 S0.2667
X150.13 S0.0235
X149.93 S0.2824
X149.53 S0.4667
X149.33 S0.4431
X149.13 S0.0431
X148.93 S0.1373
X148.73 S0.7961
X148.53 S0.8235
X148.33 S1.0000
X148.13 S0.8275
X148.03 S0.0392
G0 X147.43 S0.0000
G1 X147.33 S0.3137
X147.13 S0.8667
X146.93 S0.7529
X146.73 S0.7255
X146.63 S0.5804
G0 X145.63 S0.0000
G1 X145.53 S0.5098
X145.33 S0.2157
X145.13 S0.5961
X144.93 S0.7333
X144.83 S0.2745
G0 X144.43 S0.0000
G1 X144.33 S0.0824
X144.13 S0.4196
X143.93 S0.1882
X143.73 S0.6627
X143.63 S0.4824
G0 X143.13 S0.0000
G1 X143.03 S0.2667
G0 X129.83 S0.0000
G1 X129.73 S0.6196
X129.53 S0.5137
X129.33 S0.0157
X129.13 S0.0039
X129.03 S0.1843
G0 X128.63 S0.0000
G1 X128.53 S0.8471
X128.33 S1.0000
X128.13 S0.9373
X127.93 S0.4824
X127.73 S0.0510
X127.53 S0.1098
X127.13 S0.0078
X126.93 S0.6118
X126.53 S1.0000
X126.43 S0.5373
G0 X126.03 S0.0000
G1 X125.93 S0.4824
X125.73 S1.0000
X125.53 S0.5137
X125.33 S0.8157
X125.13 S0.9686
X124.93 S0.6000
X124.73 S0.0431
X124.33 S0.7255
X124.13 S0.9804
X123.93 S1.0000
X123.73 S0.8275
X123.53 S0.0078
X123.33 S0.0784
X123.23 S0.0902
G0 X122.83 S0.0000
G1 X122.73 S0.0824
X122.53 S0.1725
X121.53 S1.0000
X121.33 S0.9725
X121.23 S0.5059
G0 X120.83 S0.0000
G1 X120.73 S0.0706
X120.53 S0.0667
X120.33 S0.2235
X120.13 S0.0118
X119.93 S0.3804
X119.33 S0.7255
X119.23 S0.2078
G0 X118.63 S0.0000
G1 X118.53 S0.6196
X118.33 S0.6667
X118.13 S0.2824
X117.93 S0.1922
X117.73 S0.0118
X117.53 S0.0078
X117.43 S0.2078
G0 X116.83 S0.0000
G1 X116.73 S0.1529
X116.53 S0.0549
X116.33 S0.1176
X116.13 S0.3059
X115.93 S0.0667
X115.83 S0.2510
G0 X104.03 S0.0000
G1 X103.93 S0.1059
X103.73 S0.3843
X103.63 S0.3412
G0 X103.23 S0.0000
G1 X103.13 S0.0784
X102.93 S0.3059
X102.73 S0.1137
X102.53 S0.1412
X102.33 S0.3451
X102.13 S0.8471
X101.93 S0.2353
X101.83 S0.2627
G0 X101.23 S0.0000
G1 X101.13 S0.0510
X100.93 S0.0902
X100.73 S0.6235
X100.53 S0.6431
X100.33 S0.9294
X100.13 S0.7294
X99.73 S1.0000
X99.53 S0.9725
X99.33 S0.8078
X99.13 S0.1137
X98.93 S0.4118
X98.73 S0.2039
X98.53 S0.1922
X98.33 S0.0039
X98.13 S0.4275
X97.93 S0.4667
X97.73 S0.4157
X97.53 S0.1020
X97.33 S0.3490
X97.13 S0.4235
X96.93 S0.7255
X96.73 S0.5294
X96.53 S0.0510
X96.33 S0.1569
X96.13 S0.1608
X95.93 S0.6157
X95.73 S0.1412
X95.53 S0.7961
X95.33 S1.0000
X95.13 S0.7961
X94.93 S0.7255
X94.83 S0.6784
G0 X94.43 S0.0000
G1 X94.33 S0.5333
X94.13 S0.5176
X93.93 S0.0275
X93.73 S0.5176
X93.53 S0.5294
X93.33 S0.5647
X93.13 S0.1922
X92.93 S0.0510
X92.73 S0.1922
X92.53 S0.2667
X92.33 S0.2980
X92.13 S0.7686
X92.03 S0.3373
G0 X91.63 S0.0000
G1 X91.53 S0.2549
X91.33 S0.4549
X91.13 S0.8078
X90.93 S0.6824
X90.73 S0.4863
X90.53 S0.4667
X90.33 S0.5333
X90.13 S0.4471
X89.93 S0.0314
X89.73 S0.0431
X89.53 S0.3294
X89.33 S0.2980
X89.13 S0.4039
X88.93 S0.8235
X88.83 S0.2549
G0 X88.43 S0.0000
G1 X88.33 S0.1922
X88.13 S0.5294
X88.03 S0.0784
G0 X57.03 S0.0000
G1 X56.93 S0.0392
X56.73 S0.9529
X56.53 S1.0000
X56.43 S0.3686
G0 X56.03 S0.0000
G1 X55.93 S0.3216
X55.73 S1.0000
X55.63 S0.8745
G0 X55.03 S0.0000
G1 X54.93 S0.0118
X54.73 S0.8039
X54.53 S1.0000
X54.33 S0.1804
X54.13 S0.9020
X54.03 S0.0039
G0 X53.43 S0.0000
G1 X53.33 S0.9961
X53.13 S0.2824
X52.93 S0.3647
X52.53 S1.0000
X52.33 S0.0353
X52.13 S0.6314
X52.03 S0.4314
G0 X44.63 S0.0000
G1 X44.53 S0.5098
X44.33 S0.9922
X44.13 S1.0000
X44.03 S0.2235
G0 X40.13 S0.0000
G1 X40.03 S0.0745
G0 Y26.11 S0.0000
G1 X40.13 S0.0745
G0 X44.23 S0.0000
G1 X44.33 S0.9843
X44.53 S0.9961
X44.63 S0.9255
G0 X52.03 S0.0000
G1 X52.13 S0.6000
X52.33 S0.9059
X52.53 S0.3412
X52.73 S0.8353
X52.93 S1.0000
X53.13 S0.6118
X53.33 S0.6078
X53.43 S0.6549
G0 X54.23 S0.0000
G1 X54.33 S0.4863
X54.53 S0.1804
X54.73 S0.5020
X54.93 S1.0000
X55.03 S0.6980
G0 X55.63 S0.0000
G1 X55.73 S0.0863
X55.93 S0.9922
X56.03 S0.9294
G0 X56.43 S0.0000
G1 X56.53 S0.0118
X56.93 S0.1059
X57.03 S0.0235
G0 X87.83 S0.0000
G1 X87.93 S0.2706
X88.03 S0.1020
G0 X88.63 S0.0000
G1 X88.73 S0.1216
X88.93 S0.9961
X89.13 S0.5176
X89.33 S0.5765
X89.53 S0.6784
X89.73 S0.5686
X89.93 S0.0353
X90.13 S0.0980
X90.33 S0.7882
X90.53 S0.8941
X90.73 S0.5176
X90.93 S0.4824
X91.03 S0.0784
G0 X91.43 S0.0000
G1 X91.53 S0.0549
G0 X92.83 S0.0000
G1 X92.93 S0.5882
X93.13 S0.8157
X93.33 S0.8980
X93.73 S1.0000
X93.93 S0.9686
X94.03 S0.3176
G0 X94.43 S0.0000
G1 X94.53 S0.4000
X94.73 S0.8941
X94.93 S0.9922
X95.73 S1.0000
X95.83 S0.4863
G0 X96.23 S0.0000
G1 X96.33 S0.2039
X96.53 S0.5686
X96.73 S0.5098
X97.33 S0.5882
X97.53 S0.6941
X97.73 S0.1843
X98.13 S0.1059
X98.33 S0.0980
X98.53 S0.0039
X98.73 S0.1059
X98.93 S0.5412
X99.13 S1.0000
X99.33 S0.9569
X99.53 S0.4824
X99.73 S0.1569
X99.93 S0.1059
X100.13 S0.2314
X100.33 S0.5176
X100.53 S0.1059
X100.63 S0.0510
G0 X101.03 S0.0000
G1 X101.13 S0.5294
X101.33 S0.6902
X101.53 S0.4824
X101.63 S0.4000
G0 X102.03 S0.0000
G1 X102.13 S0.5647
X102.33 S0.4902
X102.53 S0.7412
X102.73 S0.4980
X102.93 S0.7137
X103.13 S0.4902
X103.33 S0.5216
X103.53 S0.2392
X103.73 S0.1765
X103.93 S0.5765
X104.13 S0.2588
X104.23 S0.3922
G0 X115.43 S0.0000
G1 X115.53 S0.3412
X115.73 S0.2745
X115.93 S0.0196
X116.13 S0.4667
X116.33 S0.3490
X116.53 S0.0627
X116.73 S0.3098
X116.93 S0.4745
X117.13 S0.3765
X117.33 S0.4196
X117.53 S0.5216
X117.73 S0.1020
X117.93 S0.0275
X118.13 S0.5843
X118.33 S0.8588
X118.53 S0.6471
X118.73 S0.7373
X118.93 S0.1059
X119.13 S0.6627
X119.33 S0.9804
X119.53 S1.0000
X119.73 S0.6000
X119.93 S1.0000
X120.13 S0.9373
X120.33 S0.0275
X120.53 S0.7255
X120.93 S0.9333
X121.13 S0.8941
X121.33 S0.5059
X121.53 S0.1373
X121.93 S1.0000
X122.13 S0.5176
X122.33 S0.6157
X122.53 S0.1529
X122.73 S0.3922
X122.93 S0.9412
X123.53 S0.8941
X123.73 S0.8275
X123.93 S0.0471
X124.13 S0.6314
X124.73 S1.0000
X124.93 S0.9216
X125.13 S0.5176
X125.33 S0.1059
X125.53 S0.7294
X125.93 S1.0000
X126.13 S0.9843
X126.33 S0.7529
X126.53 S0.0980
X126.73 S0.9098
X127.13 S1.0000
X127.33 S0.1922
X127.53 S0.0471
X127.73 S0.9569
X127.83 S0.8196
G0 X128.23 S0.0000
G1 X128.33 S0.1529
X128.53 S0.7333
X128.73 S0.6196
X128.93 S0.2314
X129.13 S0.4157
X129.33 S0.8078
X129.53 S0.1608
X129.73 S0.0902
X129.93 S0.6902
X130.03 S0.3529
G0 X142.63 S0.0000
G1 X142.73 S0.1882
G0 X143.03 S0.0000
G1 X143.13 S0.0157
X143.33 S0.5412
X143.53 S0.4314
X143.73 S0.1569
X143.93 S0.0784
X144.13 S0.3137
X144.23 S0.0824
G0 X144.83 S0.0000
G1 X144.93 S0.2392
X145.03 S0.4196
G0 X145.83 S0.0000
G1 X145.93 S0.5529
X146.13 S0.6784
X146.23 S0.0902
G0 X146.63 S0.0000
G1 X146.73 S0.4588
X147.33 S1.0000
X147.43 S0.7176
G0 X148.03 S0.0000
G1 X148.13 S0.0196
X148.93 S0.1059
X149.13 S0.0863
X149.33 S0.4078
X149.53 S0.2392
X150.13 S0.5176
X150.33 S0.2157
X150.53 S0.6510
X150.73 S0.0235
X150.93 S0.5569
X151.13 S0.9216
X151.33 S1.0000
X151.53 S0.7882
X151.73 S0.1882
X151.93 S0.9725
X152.13 S0.8314
X152.33 S0.1098
X152.53 S0.6196
X152.93 S0.9686
X153.13 S0.4314
X153.33 S0.0275
X153.53 S0.1176
X153.63 S0.3804
G0 X154.03 S0.0000
G1 X154.13 S0.0588
X154.33 S0.5176
X154.53 S0.5804
X154.63 S0.3529
G0 X155.03 S0.0000
G1 X155.13 S0.3961
X155.33 S0.7373
X155.43 S0.3020
G0 X175.43 S0.0000
G1 X175.53 S0.0196
X175.73 S0.8588
X176.03 S1.0000
G0 X176.23 Y26.31 S0.0000
G1 X176.13 S0.0745
X175.73 S1.0000
X175.53 S0.8941
X175.43 S0.2941
G0 X155.53 S0.0000
G1 X155.43 S0.1451
G0 X154.83 S0.0000
G1 X154.63 S0.0039
G0 X154.23 S0.0000
G1 X154.13 S0.0039
X153.93 S0.1490
X153.73 S0.8431
X153.63 S0.6784
G0 X153.23 S0.0000
G1 X153.13 S0.0039
X152.93 S0.4118
X152.73 S0.8353
X152.53 S0.2039
X152.33 S0.0235
X152.13 S0.8196
X151.93 S0.6588
X151.73 S0.9529
X151.53 S0.0784
X151.33 S0.6941
X150.93 S0.1647
X150.73 S0.0706
X150.53 S0.7961
X150.33 S0.9922
X150.13 S1.0000
X149.93 S0.7098
X149.83 S0.3882
G0 X149.43 S0.0000
G1 X149.33 S0.6431
X149.13 S0.9882
X148.93 S1.0000
X148.83 S0.7451
G0 X148.43 S0.0000
G1 X148.33 S0.8549
X147.73 S1.0000
X147.63 S0.7647
G0 X147.23 S0.0000
G1 X146.73 S0.9882
X146.53 S0.1176
X146.33 S0.6549
X145.93 S1.0000
X145.73 S0.6549
X145.53 S0.1608
X145.33 S0.2902
X145.13 S0.5020
X144.93 S0.8510
X144.73 S0.6157
X144.53 S0.8039
X144.33 S0.0039
X144.13 S0.1412
X144.03 S0.5961
G0 X143.63 S0.0000
G1 X143.53 S0.0627
X143.33 S0.5725
X143.13 S0.1804
X142.93 S0.0510
X142.73 S0.0118
X142.63 S0.0039
G0 X130.43 S0.0000
G1 X130.33 S0.2118
X129.93 S0.5098
X129.73 S0.0784
X129.53 S0.0431
X129.33 S0.6667
X129.13 S0.9647
X128.93 S0.2000
X128.73 S0.9333
X128.63 S0.9961
G0 X128.23 S0.0000
G1 X128.13 S0.2784
X127.93 S0.9373
X127.73 S1.0000
X127.53 S0.5098
X127.33 S0.0157
X127.13 S0.9059
X126.93 S1.0000
X126.73 S0.9647
X126.53 S0.1294
X126.33 S0.4118
X125.73 S1.0000
X125.53 S0.7765
X125.33 S0.0549
X125.13 S0.1098
X124.53 S1.0000
X124.33 S0.9961
X124.13 S0.5647
X123.93 S0.0392
X123.73 S0.9098
X123.33 S1.0000
X123.13 S0.5176
X122.73 S1.0000
X122.53 S0.9961
X122.33 S0.3490
X122.13 S0.6588
X121.93 S0.8353
X121.73 S0.1176
X121.53 S0.0039
X121.33 S0.0471
X120.33 S1.0000
X120.13 S0.2588
X119.93 S0.0588
X119.73 S0.1686
X119.53 S0.9922
X119.33 S0.8784
X119.13 S0.9098
X118.93 S0.5922
X118.83 S0.4157
G0 X118.43 S0.0000
G1 X118.33 S0.1176
X118.13 S0.8314
X118.03 S0.1647
G0 X117.63 S0.0000
G1 X117.53 S0.3137
X117.33 S0.0196
X117.13 S0.4275
X116.93 S0.7686
X116.73 S0.2627
X116.53 S0.9216
X116.43 S0.0157
G0 X115.83 S0.0000
G1 X115.73 S0.0353
X115.53 S0.0706
X115.33 S0.2510
X115.13 S0.1882
X115.03 S0.2745
G0 X104.43 S0.0000
G1 X104.33 S0.5020
X104.13 S0.0510
X103.93 S0.5608
X103.73 S0.1373
X103.53 S0.0392
X103.33 S0.8627
X103.13 S0.9333
X102.93 S0.5608
X102.73 S0.8510
X102.53 S0.1725
X102.33 S0.5804
X102.13 S0.1647
X101.93 S0.0039
X101.73 S0.4118
X101.53 S0.2078
X101.33 S0.9098
X101.13 S0.7843
X100.93 S0.4549
X100.53 S0.8353
X100.33 S0.0157
X99.93 S0.8275
X99.73 S0.8667
X99.33 S1.0000
X99.13 S0.9333
X98.93 S0.2627
X98.73 S0.3020
X98.53 S0.0118
X98.33 S0.1686
X97.93 S0.1725
X97.73 S0.0431
X97.53 S0.4784
X96.93 S1.0000
X96.73 S0.9412
X96.13 S0.8353
X95.93 S0.0784
X95.73 S0.0039
X95.53 S0.2627
X94.93 S0.9882
X94.73 S0.9922
X94.53 S1.0000
X94.33 S0.9529
X94.13 S0.8039
X93.93 S0.0235
X93.73 S0.9255
X93.13 S1.0000
X92.93 S0.9529
X92.73 S0.9882
X92.53 S0.0078
X92.33 S0.0314
X92.13 S0.9686
X91.73 S1.0000
X91.53 S0.9922
X91.33 S0.9725
X91.13 S0.4902
X91.03 S0.0039
G0 X90.63 S0.0000
G1 X90.53 S0.1608
X90.33 S0.8706
X90.13 S0.1647
X90.03 S0.1216
G0 X89.63 S0.0000
G1 X89.53 S0.1216
X89.33 S0.9451
X89.13 S0.7294
X88.93 S0.5725
X88.73 S1.0000
X88.53 S0.7529
X88.43 S0.8863
G0 X87.63 S0.0000
G1 X87.53 S0.0980
X87.33 S0.7804
X87.23 S0.0431
G0 X86.43 S0.0000
G1 X86.33 S0.4275
X86.23 S0.2588
G0 X85.93 S0.0000
G1 X85.83 S0.0039
G0 X57.23 S0.0000
G1 X57.13 S0.0627
X56.93 S0.9647
X56.73 S0.8353
X56.63 S0.2588
G0 X56.23 S0.0000
G1 X56.13 S0.6588
X55.93 S1.0000
X55.83 S0.4078
G0 X55.03 S0.0000
G1 X54.93 S0.0824
X54.73 S0.1647
X54.53 S0.0078
X54.33 S0.7804
X54.23 S0.4824
G0 X53.43 S0.0000
G1 X53.33 S0.0157
X53.13 S0.3843
X52.93 S0.8706
X52.73 S1.0000
X52.53 S0.1804
X52.33 S0.6667
X52.13 S0.8902
X52.03 S1.0000
G0 X44.83 S0.0000
G1 X44.73 S0.3059
X44.53 S0.9686
X44.33 S1.0000
X44.23 S0.4039
G0 X40.13 S0.0000
G1 X40.03 S0.0745
G0 Y26.51 S0.0000
G1 X40.13 S0.0745
G0 X44.23 S0.0000
G1 X44.33 S0.1882
X44.73 S1.0000
X44.83 S0.5843
G0 X52.03 S0.0000
G1 X52.13 S0.0471
X52.33 S0.7255
X52.53 S0.5333
X52.73 S0.1137
X52.93 S0.9686
X53.13 S0.9922
X53.33 S0.1490
X53.53 S0.2588
X53.73 S0.2235
X53.83 S0.1882
G0 X54.63 S0.0000
G1 X54.73 S0.0471
X55.13 S0.9490
X55.33 S0.8627
X55.43 S0.1961
G0 X55.83 S0.0000
G1 X55.93 S0.0196
X56.13 S0.8824
X56.33 S0.9882
X56.53 S0.1608
X56.73 S0.2000
X56.93 S0.8392
X57.33 S1.0000
X57.53 S0.8627
X57.63 S0.0157
G0 X85.83 S0.0000
G1 X85.93 S0.0235
G0 X86.23 S0.0000
G1 X86.33 S0.0353
G0 X86.83 S0.0000
G1 X86.93 S0.0157
X87.13 S0.1529
X87.33 S0.2902
X87.63 S0.2667
G0 X88.43 S0.0000
G1 X88.53 S0.6392
X88.73 S0.2353
X88.93 S0.6314
X89.13 S0.4980
X89.33 S0.8235
X89.43 S0.2667
G0 X90.03 S0.0000
G1 X90.13 S0.2706
X90.33 S0.3608
X90.53 S0.0510
X90.73 S0.1176
X90.93 S0.7451
X91.13 S0.6039
X91.33 S0.6588
X91.53 S0.8980
X91.73 S0.5922
X91.93 S0.5647
X92.13 S0.7804
X92.23 S0.5725
G0 X92.63 S0.0000
G1 X92.73 S0.3882
X92.93 S0.9804
X93.13 S0.9255
X93.33 S0.6431
X93.53 S1.0000
X93.73 S0.8471
X93.93 S0.0275
X94.53 S0.3608
X94.73 S0.2000
X94.93 S0.3412
X95.43 S0.3608
G0 X95.83 S0.0000
G1 X95.93 S0.0235
X96.33 S0.4118
X96.53 S0.8980
X97.33 S1.0000
X97.53 S0.8784
X97.73 S0.0196
X97.93 S0.0980
X98.13 S0.7647
X98.73 S1.0000
X98.93 S0.9490
X99.13 S0.7647
X99.33 S0.0196
X99.53 S0.4941
