G21         ; Set units to mm
G90         ; Absolute positioning


; Pass 0

; First Move
G0 X78.36 Y21.30 
; Generated by LaserWeb (lw.raster-to-gcode.js)
; Size       : 0 x 0 mm
; PPI        : x: 300 - y: 300
; PPM        : x: 0.0846666667 - y: 0.0846666667
; Tool diam. : 0.2 mm
; Feed rate  : 4999 mm/min
; Beam range : 0 to 1
; Beam power : 0 to 100 %
; Options    : trimLine, joinPixel

G1 F4999

G0 X78.36 Y21.30 S0.0000
G1 X78.46 S0.0157
X79.76 S0.0353
G0 X93.96 S0.0000
G1 X94.06 S0.0314
X95.26 S0.0353
X95.36 S0.0314
G0 X109.36 S0.0000
G1 X109.46 S0.0196
X110.76 S0.0353
G0 X124.76 S0.0000
G1 X124.86 S0.0078
X126.26 S0.0353
X126.36 S0.0157
G0 X140.36 S0.0000
G1 X141.76 S0.0353
G0 X142.36 Y21.50 S0.0000
G1 X142.26 S0.0235
X142.06 S0.4275
X141.86 S0.8863
X140.26 S1.0000
X140.06 S0.8863
X139.86 S0.4078
X139.76 S0.0078
G0 X126.76 S0.0000
G1 X126.66 S0.0314
X126.46 S0.5686
X126.26 S0.9333
X124.86 S1.0000
X124.66 S0.9137
X124.46 S0.4627
X124.36 S0.0784
G0 X111.36 S0.0000
G1 X111.26 S0.0157
X111.06 S0.4588
X110.86 S0.8863
X109.46 S1.0000
X109.26 S0.9490
X109.06 S0.8863
X108.86 S0.3216
X108.76 S0.0039
G0 X95.96 S0.0000
G1 X95.86 S0.0196
X95.66 S0.4314
X95.46 S0.8627
X95.26 S0.9882
X94.06 S1.0000
X93.86 S0.9882
X93.66 S0.8863
X93.46 S0.4118
X93.36 S0.0196
G0 X80.36 S0.0000
G1 X80.26 S0.0314
X80.06 S0.2745
X79.86 S0.8863
X78.46 S1.0000
X78.26 S0.9333
X78.06 S0.5961
X77.86 S0.2471
X77.76 S0.0039
G0 X77.56 Y21.70 S0.0000
G1 X77.66 S0.2039
X77.86 S0.8706
X80.26 S1.0000
X80.46 S0.9961
X80.56 S0.4706
G0 X93.16 S0.0000
G1 X93.26 S0.5294
X93.46 S0.9412
X95.86 S1.0000
X96.06 S0.9451
X96.16 S0.2118
G0 X108.56 S0.0000
G1 X108.66 S0.2824
X108.86 S0.8863
X111.26 S1.0000
X111.46 S0.9255
X111.56 S0.4157
G0 X124.16 S0.0000
G1 X124.26 S0.7059
X124.46 S0.9961
X126.86 S1.0000
X127.06 S0.7765
X127.16 S0.1059
G0 X139.56 S0.0000
G1 X139.66 S0.3490
X139.86 S0.8980
X142.26 S1.0000
X142.46 S0.9647
X142.56 S0.3686
G0 X142.96 Y21.90 S0.0000
G1 X142.86 S0.1176
X142.66 S0.9765
X142.26 S1.0000
X142.06 S0.9922
X141.86 S0.8510
X141.66 S0.4588
X140.46 S0.4235
X140.26 S0.4196
X140.06 S0.8157
X139.86 S0.9686
X139.46 S1.0000
X139.26 S0.9843
X139.16 S0.2078
G0 X127.36 S0.0000
G1 X127.26 S0.2549
X126.66 S1.0000
X126.46 S0.9294
X126.26 S0.6667
X125.06 S0.4235
X124.86 S0.4275
X124.66 S0.7451
X124.46 S0.9569
X124.26 S0.9961
X123.86 S1.0000
X123.66 S0.3216
X123.56 S0.0118
G0 X112.16 S0.0000
G1 X112.06 S0.0039
X111.86 S0.1686
X111.26 S1.0000
X111.06 S0.9569
X110.86 S0.7922
X109.46 S0.4235
X109.26 S0.6745
X109.06 S0.8588
X108.86 S0.9882
X108.46 S1.0000
X108.26 S0.8039
X108.16 S0.0706
G0 X96.56 S0.0000
G1 X96.46 S0.0549
X96.26 S0.6078
X95.86 S1.0000
X95.66 S0.9804
X95.46 S0.8667
X95.26 S0.5137
X94.06 S0.4235
X93.86 S0.4588
X93.66 S0.8157
X93.46 S0.9647
X92.86 S1.0000
X92.66 S0.3373
X92.56 S0.0039
G0 X81.16 S0.0000
G1 X81.06 S0.0078
X80.86 S0.7333
X80.26 S1.0000
X80.06 S0.9608
X79.86 S0.7922
X79.66 S0.4157
X78.46 S0.4235
X78.26 S0.6745
X78.06 S0.9255
X77.86 S0.9882
X77.46 S1.0000
X77.26 S0.6353
X77.16 S0.0196
G0 Y22.10 S0.0000
G1 X77.26 S0.8980
X77.66 S1.0000
X77.86 S0.8196
X78.06 S0.2549
X78.16 S0.0549
G0 X79.96 S0.0000
G1 X80.06 S0.0039
X80.26 S0.1255
X80.46 S0.3922
X80.66 S0.9882
X81.06 S1.0000
X81.16 S0.6784
G0 X92.56 S0.0000
G1 X92.66 S0.6667
X93.06 S1.0000
X93.26 S0.9686
X93.46 S0.5333
X93.56 S0.0902
G0 X95.56 S0.0000
G1 X95.66 S0.0196
X95.86 S0.1529
X96.06 S0.6706
X96.26 S0.9922
X96.46 S1.0000
X96.66 S0.9804
X96.76 S0.2078
G0 X107.96 S0.0000
G1 X108.06 S0.3216
X108.26 S0.9255
X108.46 S1.0000
X108.66 S0.9961
X108.86 S0.8157
X109.06 S0.2588
X109.16 S0.0157
G0 X111.16 S0.0000
G1 X111.26 S0.0863
X111.46 S0.5686
X111.66 S0.9961
X112.06 S1.0000
X112.16 S0.5882
G0 X123.56 S0.0000
G1 X123.66 S0.7412
X124.06 S1.0000
X124.26 S0.9020
X124.46 S0.3647
X124.56 S0.0667
G0 X126.56 S0.0000
G1 X126.66 S0.0627
X126.86 S0.3176
X127.06 S0.8353
X127.46 S1.0000
X127.66 S0.7725
X127.76 S0.0196
G0 X138.96 S0.0000
G1 X139.06 S0.5529
X139.46 S1.0000
X139.66 S0.9922
X139.86 S0.6392
X139.96 S0.0941
G0 X141.96 S0.0000
G1 X142.06 S0.0157
X142.26 S0.2471
X142.46 S0.6235
X142.66 S0.9961
X142.86 S1.0000
X143.06 S0.9569
X143.16 S0.4824
G0 X143.36 Y22.30 S0.0000
G1 X143.26 S0.5255
X143.06 S1.0000
X142.86 S0.9961
X142.66 S0.7333
X142.46 S0.1922
X142.36 S0.0078
G0 X139.56 S0.0000
G1 X139.46 S0.1255
X139.26 S0.6941
X139.06 S0.9961
X138.86 S1.0000
X138.76 S0.8196
G0 X127.96 S0.0000
G1 X127.86 S0.1608
X127.66 S0.9216
X127.46 S1.0000
X127.26 S0.9765
X127.06 S0.4863
X126.96 S0.0157
G0 X124.16 S0.0000
G1 X124.06 S0.0235
X123.86 S0.3137
X123.66 S0.9294
X123.46 S1.0000
X123.26 S0.9686
X123.16 S0.0902
G0 X112.36 S0.0000
G1 X112.26 S0.9333
X111.86 S1.0000
X111.66 S0.6157
X111.56 S0.0902
G0 X108.76 S0.0000
G1 X108.66 S0.0118
X108.46 S0.2627
X108.26 S0.8549
X107.86 S1.0000
X107.76 S0.3216
G0 X96.96 S0.0000
G1 X96.86 S0.4196
X96.46 S1.0000
X96.26 S0.8863
X96.06 S0.2902
X95.96 S0.0078
G0 X93.16 S0.0000
G1 X93.06 S0.0745
X92.86 S0.5412
X92.66 S0.9804
X92.46 S1.0000
X92.26 S0.9176
X92.16 S0.0510
G0 X81.36 S0.0000
G1 X81.26 S0.9176
X81.06 S1.0000
X80.86 S0.9686
X80.66 S0.5961
X80.56 S0.0980
G0 X77.76 S0.0000
G1 X77.66 S0.0118
X77.46 S0.2471
X77.26 S0.8275
X77.06 S0.9961
X76.86 S0.9922
X76.76 S0.2275
G0 X76.56 Y22.50 S0.0000
G1 X76.66 S0.5059
X77.06 S1.0000
X77.26 S0.6118
X77.36 S0.0275
G0 X80.96 S0.0000
G1 X81.06 S0.0588
X81.26 S0.6902
X81.46 S1.0000
X81.66 S0.9059
X81.76 S0.1686
G0 X91.96 S0.0000
G1 X92.06 S0.1961
X92.46 S1.0000
X92.66 S0.8863
X92.76 S0.0784
G0 X96.56 S0.0000
G1 X96.66 S0.3020
X96.86 S0.9765
X97.06 S1.0000
X97.26 S0.6510
X97.36 S0.0078
G0 X107.56 S0.0000
G1 X107.66 S0.2941
X107.86 S1.0000
X108.06 S0.9843
X108.16 S0.5059
G0 X111.96 S0.0000
G1 X112.06 S0.1843
X112.26 S0.9255
X112.66 S1.0000
X112.76 S0.1765
G0 X122.96 S0.0000
G1 X123.06 S0.3098
X123.26 S1.0000
X123.46 S0.9961
X123.66 S0.7176
X123.76 S0.0627
G0 X127.36 S0.0000
G1 X127.46 S0.0235
X127.66 S0.7804
X127.86 S0.9961
X128.06 S1.0000
X128.16 S0.5098
G0 X138.36 S0.0000
G1 X138.46 S0.0078
X138.66 S0.7451
X138.86 S1.0000
X139.06 S0.9373
X139.16 S0.2431
G0 X142.96 S0.0000
G1 X143.06 S0.3451
X143.26 S0.9137
X143.46 S0.9961
X143.66 S0.7843
X143.76 S0.0157
G0 Y22.70 S0.0000
G1 X143.66 S0.8196
X143.46 S0.9216
X143.26 S0.9412
X143.16 S0.1216
G0 X138.96 S0.0000
G1 X138.86 S0.0706
X138.66 S0.8863
X138.46 S1.0000
X138.36 S0.8000
G0 X128.36 S0.0000
G1 X128.26 S0.5686
X127.86 S1.0000
X127.66 S0.4745
X127.56 S0.0118
G0 X123.56 S0.0000
G1 X123.46 S0.0196
X123.26 S0.3412
X123.06 S0.9961
X122.86 S1.0000
X122.76 S0.4275
G0 X112.96 S0.0000
G1 X112.86 S0.1882
X112.66 S0.9922
X112.46 S1.0000
X112.26 S0.7608
X112.16 S0.0980
G0 X107.96 S0.0000
G1 X107.86 S0.2157
X107.66 S0.9725
X107.46 S1.0000
X107.36 S0.3569
G0 X97.36 S0.0000
G1 X97.26 S0.6431
X97.06 S1.0000
X96.86 S0.9804
X96.76 S0.2784
G0 X92.56 S0.0000
G1 X92.46 S0.0275
X92.26 S0.6745
X91.86 S1.0000
X91.76 S0.3216
G0 X81.96 S0.0000
G1 X81.86 S0.2863
X81.46 S1.0000
X81.26 S0.5333
X81.16 S0.0275
G0 X76.96 S0.0000
G1 X76.86 S0.2745
X76.46 S1.0000
X76.36 S0.6157
G0 X76.16 Y22.90 S0.0000
G1 X76.26 S0.6000
X76.46 S1.0000
X76.66 S0.9059
X76.76 S0.0588
G0 X81.56 S0.0000
G1 X81.66 S0.4196
X81.86 S0.9961
X82.06 S1.0000
X82.16 S0.2627
G0 X91.56 S0.0000
G1 X91.66 S0.0471
X91.86 S0.9333
X92.06 S1.0000
X92.26 S0.4471
X92.36 S0.0039
G0 X96.96 S0.0000
G1 X97.06 S0.0431
X97.26 S0.9608
X97.46 S1.0000
X97.56 S0.6667
G0 X107.16 S0.0000
G1 X107.26 S0.7059
X107.46 S1.0000
X107.66 S0.9059
X107.76 S0.0392
G0 X112.36 S0.0000
G1 X112.46 S0.0078
X112.66 S0.4667
X112.86 S0.9961
X112.96 S0.9647
G0 X122.56 S0.0000
G1 X122.66 S0.2118
X122.86 S1.0000
X123.06 S0.9686
X123.16 S0.1373
G0 X127.96 S0.0000
G1 X128.06 S0.2196
X128.26 S0.9059
X128.46 S1.0000
X128.56 S0.5294
G0 X137.96 S0.0000
G1 X138.06 S0.1020
X138.26 S0.9765
X138.46 S1.0000
X138.66 S0.6471
X138.76 S0.0039
G0 X143.36 S0.0000
G1 X143.46 S0.0118
X143.66 S0.7725
X143.86 S1.0000
X143.96 S0.8588
G0 X144.36 Y23.10 S0.0000
G1 X144.26 S0.0078
X144.06 S0.7804
X143.86 S1.0000
X143.66 S0.8196
X143.56 S0.0196
G0 X138.56 S0.0000
G1 X138.46 S0.0039
X138.26 S0.7098
X137.86 S0.9843
X137.76 S0.0667
G0 X128.76 S0.0000
G1 X128.66 S0.4784
X128.46 S1.0000
X128.26 S0.9490
X128.16 S0.2902
G0 X122.96 S0.0000
G1 X122.86 S0.1490
X122.66 S0.9725
X122.46 S0.9843
X122.36 S0.0706
G0 X113.36 S0.0000
G1 X113.26 S0.0314
X113.06 S0.8667
X112.86 S0.9961
X112.66 S0.5529
X112.56 S0.0039
G0 X107.56 S0.0000
G1 X107.46 S0.0157
X107.26 S0.9294
X107.06 S1.0000
X106.96 S0.6078
G0 X97.96 S0.0000
G1 X97.86 S0.0039
X97.66 S0.6039
X97.46 S0.9922
X97.26 S0.9294
X97.16 S0.0745
G0 X91.96 S0.0000
G1 X91.86 S0.4902
X91.66 S0.9961
X91.46 S0.9804
X91.36 S0.0392
G0 X82.36 S0.0000
G1 X82.26 S0.0667
X82.06 S0.9333
X81.86 S0.9725
X81.76 S0.1961
G0 X76.56 S0.0000
G1 X76.46 S0.2314
X76.26 S0.9451
X76.06 S1.0000
X75.96 S0.5451
G0 X75.76 Y23.30 S0.0000
G1 X75.86 S0.6078
X76.06 S1.0000
X76.26 S0.8941
X76.36 S0.0784
G0 X81.96 S0.0000
G1 X82.06 S0.2235
X82.26 S1.0000
X82.36 S0.8745
G0 X91.16 S0.0000
G1 X91.26 S0.0078
X91.46 S0.9137
X91.66 S0.9961
X91.76 S0.4824
G0 X97.36 S0.0000
G1 X97.46 S0.0902
X97.66 S0.7059
X97.86 S1.0000
X97.96 S0.6471
G0 X106.76 S0.0000
G1 X106.86 S0.7137
X107.06 S1.0000
X107.26 S0.6706
X107.36 S0.0392
G0 X112.76 S0.0000
G1 X112.86 S0.0039
X113.06 S0.5569
X113.26 S1.0000
X113.36 S0.8784
G0 X122.16 S0.0000
G1 X122.26 S0.0431
X122.46 S0.9490
X122.66 S0.9569
X122.76 S0.1765
G0 X128.36 S0.0000
G1 X128.46 S0.0667
X128.66 S0.9098
X128.86 S0.9725
X128.96 S0.5647
G0 X137.76 S0.0000
G1 X137.86 S0.9804
X138.06 S0.9686
X138.26 S0.4941
X138.36 S0.0078
G0 X143.76 S0.0000
G1 X143.86 S0.0275
X144.06 S0.5412
X144.26 S1.0000
X144.36 S0.8314
G0 X144.56 Y23.50 S0.0000
G1 X144.46 S0.4431
X144.26 S1.0000
X144.06 S0.8392
X143.96 S0.0235
G0 X137.96 S0.0000
G1 X137.86 S0.7216
X137.66 S1.0000
X137.46 S0.7765
X137.36 S0.0078
G0 X129.16 S0.0000
G1 X129.06 S0.5294
X128.86 S1.0000
X128.66 S0.9922
X128.56 S0.1725
G0 X122.56 S0.0000
G1 X122.46 S0.2353
X122.26 S0.9843
X122.06 S0.9725
X121.96 S0.0824
G0 X113.76 S0.0000
G1 X113.66 S0.0118
X113.46 S0.9216
X113.26 S1.0000
X113.16 S0.5961
G0 X107.16 S0.0000
G1 X107.06 S0.0078
X106.86 S0.8745
X106.66 S1.0000
X106.56 S0.2784
G0 X98.16 S0.0000
G1 X98.06 S0.2000
X97.86 S1.0000
X97.66 S0.9412
X97.56 S0.0471
G0 X91.56 S0.0000
G1 X91.46 S0.5843
X91.26 S1.0000
X91.06 S0.9333
X90.96 S0.0431
G0 X82.56 S0.0000
G1 X82.46 S0.9922
X82.26 S1.0000
X82.16 S0.3216
G0 X76.16 S0.0000
G1 X76.06 S0.0549
X75.86 S0.9412
X75.66 S1.0000
X75.56 S0.5490
G0 X59.16 Y23.70 S0.0000
G1 X59.26 S0.0353
X59.46 S0.0471
X61.46 S0.4157
X61.66 S0.0471
X61.76 S0.0314
G0 X75.36 S0.0000
G1 X75.46 S0.6000
X75.66 S1.0000
X75.86 S0.9216
X75.96 S0.0706
G0 X82.16 S0.0000
G1 X82.26 S0.0118
X82.46 S0.5843
X82.66 S1.0000
X82.86 S0.6941
X82.96 S0.0078
G0 X90.96 S0.0000
G1 X91.06 S0.9373
X91.26 S0.9922
X91.36 S0.5647
G0 X97.76 S0.0000
G1 X97.86 S0.1059
X98.06 S0.9451
X98.26 S0.8745
X98.36 S0.2275
G0 X106.36 S0.0000
G1 X106.46 S0.2902
X106.66 S1.0000
X106.86 S0.8824
X106.96 S0.0745
G0 X113.16 S0.0000
G1 X113.26 S0.0078
X113.46 S0.8471
X113.66 S1.0000
X113.86 S0.8078
X113.96 S0.0039
G0 X121.96 S0.0000
G1 X122.06 S0.9608
X122.26 S0.9961
X122.36 S0.2471
G0 X128.76 S0.0000
G1 X128.86 S0.3098
X129.06 S0.9804
X129.26 S1.0000
X129.36 S0.2471
G0 X137.36 S0.0000
G1 X137.46 S0.7725
X137.66 S1.0000
X137.86 S0.7608
X137.96 S0.0118
G0 X144.16 S0.0000
G1 X144.26 S0.0588
X144.46 S0.8824
X144.66 S0.9725
X144.76 S0.4627
G0 X158.36 S0.0000
G1 X158.46 S0.0392
X158.66 S0.0471
X160.46 S0.4157
X160.66 S0.4118
X161.06 S0.0471
X161.16 S0.0118
G0 X161.56 Y23.90 S0.0000
G1 X161.46 S0.4980
X161.26 S0.7451
X161.06 S0.8941
X158.46 S1.0000
X158.26 S0.9725
X158.06 S0.8627
X157.86 S0.6392
X157.76 S0.5098
G0 X144.96 S0.0000
G1 X144.86 S0.0235
X144.66 S1.0000
X144.46 S0.9647
X144.36 S0.0471
G0 X137.76 S0.0000
G1 X137.66 S0.0078
X137.46 S0.8980
X137.26 S1.0000
X137.16 S0.4745
G0 X129.36 S0.0000
G1 X129.26 S0.9843
X129.06 S1.0000
X128.86 S0.4510
X128.76 S0.0039
G0 X122.36 S0.0000
G1 X122.26 S0.0078
X122.06 S0.5451
X121.86 S1.0000
X121.76 S0.7843
G0 X113.96 S0.0000
G1 X113.86 S0.6039
X113.66 S1.0000
X113.46 S0.8745
X113.36 S0.0549
G0 X106.76 S0.0000
G1 X106.66 S0.1059
X106.46 S0.9529
X106.36 S1.0000
G0 X98.56 S0.0000
G1 X98.46 S0.0039
X98.26 S0.9451
X98.06 S0.9843
X97.96 S0.2275
G0 X91.36 S0.0000
G1 X91.26 S0.0118
X91.06 S0.8235
X90.86 S0.9843
X90.76 S0.6745
G0 X82.96 S0.0000
G1 X82.86 S0.6824
X82.66 S1.0000
X82.46 S0.6039
X82.36 S0.0118
G0 X75.76 S0.0000
G1 X75.66 S0.3216
X75.46 S0.9882
X75.26 S0.9961
X75.16 S0.2667
G0 X62.56 S0.0000
G1 X62.46 S0.0784
X62.26 S0.5098
X62.06 S0.7843
X61.86 S0.8627
X61.66 S0.9529
X59.26 S1.0000
X59.06 S0.9725
X58.86 S0.8627
X58.66 S0.5098
X58.56 S0.2235
G0 X57.76 Y24.10 S0.0000
G1 X57.86 S0.0039
X58.06 S0.1647
X58.26 S0.5608
X59.06 S1.0000
X59.46 S0.9961
X59.66 S0.9647
X61.26 S0.9529
X61.46 S0.9608
X61.86 S0.9961
X63.06 S1.0000
X63.26 S0.3059
X63.46 S0.2471
X63.56 S0.0118
G0 X74.96 S0.0000
G1 X75.06 S0.0392
X75.26 S0.8667
X75.46 S1.0000
X75.56 S0.6471
G0 X82.56 S0.0000
G1 X82.66 S0.0039
X82.86 S0.8863
X83.06 S1.0000
X83.16 S0.2078
G0 X90.56 S0.0000
G1 X90.66 S0.5294
X90.86 S1.0000
X91.06 S0.8745
X91.16 S0.0431
G0 X97.96 S0.0000
G1 X98.06 S0.0039
X98.26 S0.4275
X98.56 S1.0000
G0 X105.96 S0.0000
G1 X106.06 S0.0471
X106.26 S0.9451
X106.46 S0.9961
X106.56 S0.3882
G0 X113.56 S0.0000
G1 X113.66 S0.0902
X113.86 S0.9373
X114.06 S0.9804
X114.16 S0.1647
G0 X121.56 S0.0000
G1 X121.66 S0.7451
X121.86 S1.0000
X122.06 S0.6000
X122.16 S0.0078
G0 X128.96 S0.0000
G1 X129.06 S0.0039
X129.26 S0.7333
X129.46 S0.9451
X129.66 S0.9137
X129.76 S0.0235
G0 X136.96 S0.0000
G1 X137.06 S0.3765
X137.26 S1.0000
X137.46 S0.8588
X137.56 S0.1137
G0 X144.56 S0.0000
G1 X144.66 S0.2078
X144.86 S0.9647
X145.06 S0.9961
X145.16 S0.1216
G0 X156.76 S0.0000
G1 X156.86 S0.0627
X157.06 S0.3059
X157.26 S0.3843
X158.26 S1.0000
X158.66 S0.9961
X160.46 S0.9529
X160.66 S0.9569
X161.06 S0.9961
X162.06 S1.0000
X162.26 S0.2980
X162.36 S0.0157
G0 X162.56 Y24.30 S0.0000
G1 X162.46 S0.0549
X162.26 S0.7608
X161.66 S1.0000
X161.46 S0.9765
X161.26 S0.8745
X161.06 S0.6235
X160.86 S0.2627
X160.66 S0.2667
X160.46 S0.0745
X158.86 S0.0549
X158.66 S0.0627
X158.46 S0.2627
X158.26 S0.3922
X158.06 S0.6471
X157.86 S0.9176
X157.66 S0.9725
X157.26 S1.0000
X157.06 S0.9216
X156.66 S1.0000
X156.46 S0.8706
X156.36 S0.3725
G0 X145.16 S0.0000
G1 X145.06 S0.8549
X144.86 S1.0000
X144.76 S0.4431
G0 X137.36 S0.0000
G1 X137.26 S0.3725
X137.06 S0.9020
X136.86 S0.9529
X136.76 S0.0824
G0 X129.76 S0.0000
G1 X129.66 S0.5804
X129.46 S1.0000
X129.26 S0.9333
X129.16 S0.0824
G0 X121.96 S0.0000
G1 X121.86 S0.0510
X121.66 S0.8941
X121.46 S0.9961
X121.36 S0.3608
G0 X114.36 S0.0000
G1 X114.26 S0.0235
X114.06 S0.9804
X113.86 S0.9922
X113.76 S0.2667
G0 X106.56 S0.0000
G1 X106.46 S0.0078
X106.26 S0.6902
X106.06 S1.0000
X105.96 S0.6980
G0 X98.76 S0.0000
G1 X98.66 S0.6392
X98.46 S1.0000
X98.26 S0.7412
X98.16 S0.0353
G0 X90.96 S0.0000
G1 X90.86 S0.1804
X90.66 S0.9882
X90.46 S0.9922
X90.36 S0.2392
G0 X83.36 S0.0000
G1 X83.26 S0.2980
X83.06 S0.9922
X82.86 S0.8745
X82.76 S0.0824
G0 X75.56 S0.0000
G1 X75.46 S0.0157
X75.26 S0.8706
X75.06 S0.9804
X74.96 S0.8980
G0 X63.96 S0.0000
G1 X63.86 S0.0039
X63.66 S0.3647
X63.46 S0.8941
X62.66 S1.0000
X62.46 S0.9961
X62.26 S0.9647
X62.06 S0.7216
X61.86 S0.6471
X61.66 S0.3529
X61.46 S0.2627
X61.26 S0.0863
X59.66 S0.0549
X59.46 S0.1020
X59.26 S0.2627
X59.06 S0.4078
X58.86 S0.6431
X58.66 S0.9529
X58.46 S0.9843
X57.86 S1.0000
X57.66 S0.8745
X57.56 S0.0039
G0 X57.36 Y24.50 S0.0000
G1 X57.46 S0.3961
X57.66 S0.9804
X57.86 S1.0000
X58.06 S0.9882
X58.26 S0.8549
X58.46 S0.5373
X58.66 S0.1255
X58.76 S0.0275
G0 X62.16 S0.0000
G1 X62.26 S0.0078
X62.46 S0.0314
X62.66 S0.1882
X62.86 S0.3725
X63.06 S0.6824
X63.26 S0.9608
X63.46 S0.9922
X63.86 S1.0000
X64.06 S0.9686
X64.26 S0.7059
X64.36 S0.3569
G0 X74.76 S0.0000
G1 X74.86 S0.6275
X75.06 S0.9961
X75.26 S0.9373
X75.36 S0.0745
G0 X82.96 S0.0000
G1 X83.06 S0.2510
X83.26 S1.0000
X83.46 S0.9294
X83.56 S0.0510
G0 X90.36 S0.0000
G1 X90.66 S1.0000
X90.76 S0.2235
G0 X98.36 S0.0000
G1 X98.46 S0.0196
X98.66 S0.7882
X98.86 S1.0000
X98.96 S0.6275
G0 X105.76 S0.0000
G1 X105.86 S0.7373
X106.06 S1.0000
X106.26 S0.7020
X106.36 S0.0118
G0 X113.76 S0.0000
G1 X113.86 S0.0039
X114.06 S0.5608
X114.26 S1.0000
X114.46 S0.8863
X114.56 S0.0078
G0 X121.36 S0.0000
G1 X121.46 S0.9569
X121.66 S0.9765
X121.76 S0.1686
G0 X129.36 S0.0000
G1 X129.46 S0.1333
X129.66 S0.9529
X129.86 S0.9961
X129.96 S0.1333
G0 X136.76 S0.0000
G1 X136.86 S0.9725
X137.06 S1.0000
X137.16 S0.5294
G0 X144.76 S0.0000
G1 X144.86 S0.0078
X145.06 S0.5451
X145.26 S1.0000
X145.36 S0.8275
G0 X155.96 S0.0000
G1 X156.06 S0.4706
X156.26 S0.9294
X156.86 S1.0000
X157.06 S0.9490
X157.26 S0.9294
X157.46 S0.4824
X157.66 S0.2078
X157.86 S0.0588
X157.96 S0.0235
G0 X161.36 S0.0000
G1 X161.46 S0.0196
X161.66 S0.0745
X161.86 S0.2588
X162.06 S0.6471
X162.26 S0.9647
X162.66 S1.0000
X162.76 S0.4157
G0 X163.16 Y24.70 S0.0000
G1 X163.06 S0.0745
X162.66 S1.0000
X162.46 S0.9843
X162.26 S0.7255
X162.16 S0.0196
G0 X156.96 S0.0000
G1 X156.86 S0.0157
X156.66 S0.2078
X156.46 S0.6510
X156.26 S0.9608
X156.06 S0.9961
X155.66 S1.0000
X155.46 S0.8863
X155.36 S0.1294
G0 X145.56 S0.0000
G1 X145.46 S0.3608
X145.26 S1.0000
X145.06 S0.8549
X144.96 S0.0039
G0 X137.16 S0.0000
G1 X137.06 S0.0078
X136.86 S0.7725
X136.66 S1.0000
X136.56 S0.8588
G0 X130.16 S0.0000
G1 X130.06 S0.1020
X129.66 S1.0000
X129.56 S0.4353
G0 X121.56 S0.0000
G1 X121.46 S0.5176
X121.26 S0.9961
X121.06 S0.8510
X120.96 S0.0157
G0 X114.56 S0.0000
G1 X114.46 S0.4863
X114.26 S1.0000
X114.06 S0.8627
X113.96 S0.0039
G0 X106.16 S0.0000
G1 X106.06 S0.0824
X105.86 S0.9176
X105.66 S1.0000
X105.56 S0.2471
G0 X99.16 S0.0000
G1 X99.06 S0.1804
X98.86 S1.0000
X98.66 S0.9529
X98.56 S0.0941
G0 X90.56 S0.0000
G1 X90.46 S0.6353
X90.26 S1.0000
X90.06 S0.7020
X89.96 S0.0078
G0 X83.56 S0.0000
G1 X83.26 S1.0000
X83.16 S0.2863
G0 X75.16 S0.0000
G1 X75.06 S0.3098
X74.86 S0.9882
X74.66 S1.0000
X74.56 S0.1765
G0 X64.76 S0.0000
G1 X64.66 S0.2039
X64.46 S0.9922
X64.06 S1.0000
X63.86 S0.9961
X63.66 S0.9529
X63.46 S0.6745
X63.36 S0.1020
G0 X57.96 S0.0000
G1 X57.86 S0.1137
X57.66 S0.7490
X57.46 S0.9961
X57.06 S1.0000
X56.96 S0.0353
G0 X56.76 Y24.90 S0.0000
G1 X56.86 S0.0157
X57.06 S0.8431
X57.26 S1.0000
X57.46 S0.9608
X57.66 S0.3373
X57.76 S0.0039
G0 X63.76 S0.0000
G1 X63.86 S0.0902
X64.06 S0.3412
X64.26 S0.7882
X64.46 S0.9922
X64.86 S1.0000
X65.06 S0.8314
X65.16 S0.0941
G0 X74.56 S0.0000
G1 X74.66 S0.8549
X74.86 S1.0000
X74.96 S0.6706
G0 X83.16 S0.0000
G1 X83.26 S0.0196
X83.46 S0.8588
X83.66 S1.0000
X83.76 S0.6902
G0 X89.96 S0.0000
G1 X90.06 S0.6667
X90.26 S1.0000
X90.46 S0.8353
X90.56 S0.0471
G0 X98.76 S0.0000
G1 X98.86 S0.3569
X99.06 S0.9961
X99.16 S0.9725
G0 X105.36 S0.0000
G1 X105.46 S0.0824
X105.66 S0.9647
X105.86 S1.0000
X105.96 S0.3451
G0 X114.16 S0.0000
G1 X114.26 S0.0863
X114.46 S0.9529
X114.66 S1.0000
X114.76 S0.5804
G0 X120.96 S0.0000
G1 X121.06 S0.7412
X121.26 S1.0000
X121.46 S0.7373
X121.56 S0.0039
G0 X129.56 S0.0000
G1 X129.66 S0.0157
X129.86 S0.7294
X130.06 S1.0000
X130.16 S0.5922
G0 X136.36 S0.0000
G1 X136.46 S0.4196
X136.66 S0.9961
X136.86 S0.9529
X136.96 S0.1451
G0 X145.16 S0.0000
G1 X145.26 S0.2510
X145.46 S0.9176
X145.66 S0.9804
X145.76 S0.1725
G0 X154.96 S0.0000
G1 X155.06 S0.0667
X155.26 S0.7569
X155.86 S1.0000
X156.06 S0.9373
X156.26 S0.3922
X156.36 S0.1059
G0 X162.36 S0.0000
G1 X162.46 S0.0039
X162.66 S0.1412
X162.86 S0.9020
X163.06 S1.0000
X163.26 S0.9765
X163.36 S0.1059
G0 X163.56 Y25.10 S0.0000
G1 X163.46 S0.0941
X163.26 S0.9843
X163.06 S1.0000
X162.86 S0.4471
X162.76 S0.0118
G0 X155.76 S0.0000
G1 X155.66 S0.1020
X155.46 S0.7412
X155.26 S0.9961
X154.86 S1.0000
X154.66 S0.8431
X154.56 S0.1373
G0 X145.96 S0.0000
G1 X145.86 S0.0118
X145.66 S0.9882
X145.46 S0.9922
X145.36 S0.3961
G0 X136.76 S0.0000
G1 X136.66 S0.2000
X136.26 S1.0000
X136.16 S0.0784
G0 X130.36 S0.0000
G1 X130.26 S0.5294
X130.06 S1.0000
X129.86 S0.8941
X129.76 S0.0078
G0 X121.36 S0.0000
G1 X121.26 S0.0314
X121.06 S0.9098
X120.86 S1.0000
X120.76 S0.7569
G0 X114.96 S0.0000
G1 X114.86 S0.1569
X114.66 S0.9922
X114.46 S0.9961
X114.36 S0.2157
G0 X105.76 S0.0000
G1 X105.66 S0.3961
X105.46 S1.0000
X105.36 S0.9765
G0 X99.56 S0.0000
G1 X99.46 S0.0353
X99.26 S0.9137
X99.06 S1.0000
X98.86 S0.4902
X98.76 S0.0039
G0 X90.36 S0.0000
G1 X90.26 S0.0392
X90.06 S0.9961
X89.86 S1.0000
X89.76 S0.2157
G0 X83.96 S0.0000
G1 X83.86 S0.6667
X83.66 S1.0000
X83.46 S0.8941
X83.36 S0.0510
G0 X74.76 S0.0000
G1 X74.66 S0.7569
X74.46 S1.0000
X74.36 S0.5843
G0 X65.56 S0.0000
G1 X65.46 S0.3294
X65.26 S0.9647
X64.86 S1.0000
X64.66 S0.9647
X64.46 S0.4157
X64.36 S0.0314
G0 X57.36 S0.0000
G1 X57.26 S0.0314
X57.06 S0.8118
X56.86 S1.0000
X56.76 S0.5412
G0 X56.56 Y25.30 S0.0000
G1 X56.66 S0.4863
X56.86 S1.0000
X57.06 S0.7922
X57.16 S0.0039
G0 X64.76 S0.0000
G1 X64.86 S0.0039
X65.06 S0.5961
X65.26 S0.9725
X65.46 S0.9961
X65.86 S0.9922
X66.06 S0.0902
X66.16 S0.0078
G0 X73.96 S0.0000
G1 X74.06 S0.0039
X74.26 S0.6157
X74.46 S1.0000
X74.66 S0.9373
X74.76 S0.0392
G0 X83.56 S0.0000
G1 X83.66 S0.0431
X83.86 S0.9647
X84.06 S1.0000
X84.16 S0.4863
G0 X89.56 S0.0000
G1 X89.66 S0.0706
X89.86 S1.0000
X90.06 S0.9725
X90.16 S0.2196
G0 X99.16 S0.0000
G1 X99.26 S0.8431
X99.46 S1.0000
X99.56 S0.5373
G0 X104.96 S0.0000
G1 X105.06 S0.0078
X105.26 S0.7529
X105.46 S1.0000
X105.56 S0.8039
G0 X114.56 S0.0000
G1 X114.66 S0.2667
X114.86 S0.9922
X115.06 S1.0000
X115.16 S0.1529
G0 X120.36 S0.0000
G1 X120.46 S0.0157
X120.66 S0.8157
X120.86 S0.9922
X121.06 S0.8745
X121.16 S0.0353
G0 X129.96 S0.0000
G1 X130.06 S0.0039
X130.26 S0.9451
X130.46 S1.0000
X130.56 S0.1255
G0 X135.96 S0.0000
G1 X136.06 S0.0157
X136.26 S0.9961
X136.46 S0.9922
X136.56 S0.5020
G0 X145.36 S0.0000
G1 X145.46 S0.0039
X145.66 S0.6627
X145.86 S1.0000
X146.06 S0.8784
X146.16 S0.0157
G0 X154.16 S0.0000
G1 X154.26 S0.1529
X154.46 S0.9882
X154.66 S0.9961
X154.86 S1.0000
X155.06 S0.9843
X155.26 S0.7882
X155.36 S0.0824
G0 X163.16 S0.0000
G1 X163.26 S0.2353
X163.46 S0.9843
X163.66 S0.9961
X163.76 S0.0706
G0 X163.96 Y25.50 S0.0000
G1 X163.86 S0.1216
X163.66 S0.9765
X163.46 S0.9961
X163.36 S0.3333
G0 X155.16 S0.0000
G1 X155.06 S0.0039
X154.86 S0.1333
X154.66 S0.5725
X154.46 S0.9765
X154.06 S1.0000
X153.86 S0.7725
X153.76 S0.0549
G0 X146.16 S0.0000
G1 X146.06 S0.8157
X145.86 S1.0000
X145.66 S0.6392
X145.56 S0.0118
G0 X136.56 S0.0000
G1 X136.46 S0.0039
X136.26 S0.4902
X136.06 S1.0000
X135.96 S0.7843
G0 X130.76 S0.0000
G1 X130.66 S0.5333
X130.46 S1.0000
X130.26 S0.9725
X130.16 S0.1412
G0 X120.96 S0.0000
G1 X120.86 S0.2039
X120.66 S0.9137
X120.46 S0.9373
X120.36 S0.7412
G0 X115.36 S0.0000
G1 X115.26 S0.2549
X115.06 S0.9922
X114.86 S0.9882
X114.66 S0.3333
X114.56 S0.0039
G0 X105.56 S0.0000
G1 X105.46 S0.0392
X105.26 S0.7765
X105.06 S1.0000
X104.96 S0.7059
G0 X99.76 S0.0000
G1 X99.66 S0.6431
X99.46 S1.0000
X99.26 S0.8000
X99.16 S0.0392
G0 X89.96 S0.0000
G1 X89.86 S0.2745
X89.66 S0.9922
X89.46 S0.9804
X89.36 S0.2392
G0 X84.36 S0.0000
G1 X84.26 S0.3529
X84.06 S0.9216
X83.86 S0.9882
X83.76 S0.3098
G0 X74.56 S0.0000
G1 X74.46 S0.0706
X74.26 S0.9333
X74.06 S1.0000
X73.96 S0.6157
G0 X66.36 S0.0000
G1 X66.26 S0.0980
X66.06 S0.7608
X65.86 S0.9922
X65.66 S1.0000
X65.46 S0.9333
X65.26 S0.4588
X65.16 S0.1098
G0 X56.96 S0.0000
G1 X56.86 S0.0627
X56.66 S0.8157
X56.46 S1.0000
X56.36 S0.5451
G0 X56.16 Y25.70 S0.0000
G1 X56.26 S0.2157
X56.46 S1.0000
X56.66 S0.9294
X56.76 S0.0235
G0 X65.56 S0.0000
G1 X65.66 S0.0196
X65.86 S0.7373
X66.06 S0.9961
X66.46 S1.0000
X66.66 S0.3569
X66.76 S0.0039
G0 X73.76 S0.0000
G1 X73.86 S0.5608
X74.26 S1.0000
X74.36 S0.0431
G0 X83.96 S0.0000
G1 X84.06 S0.3725
X84.26 S0.9922
X84.46 S1.0000
X84.56 S0.2471
G0 X89.16 S0.0000
G1 X89.26 S0.3569
X89.46 S1.0000
X89.66 S0.9961
X89.86 S0.3098
X89.96 S0.0039
G0 X99.36 S0.0000
G1 X99.46 S0.0353
X99.66 S0.8510
X100.06 S1.0000
X100.16 S0.1804
G0 X104.56 S0.0000
G1 X104.66 S0.2549
X105.06 S1.0000
X105.16 S0.8392
G0 X114.76 S0.0000
G1 X114.86 S0.0157
X115.06 S0.5216
X115.26 S0.9059
X115.46 S1.0000
X115.56 S0.1333
G0 X120.16 S0.0000
G1 X120.26 S0.3098
X120.46 S1.0000
X120.66 S0.9961
X120.76 S0.1451
G0 X130.36 S0.0000
G1 X130.46 S0.1373
X130.66 S0.9804
X130.86 S1.0000
X131.06 S0.8824
X131.16 S0.0039
G0 X135.56 S0.0000
G1 X135.66 S0.3294
X136.06 S1.0000
X136.16 S0.5176
G0 X145.76 S0.0000
G1 X145.86 S0.0941
X146.06 S0.9333
X146.26 S1.0000
X146.36 S0.4627
G0 X153.56 S0.0000
G1 X153.66 S0.4784
X154.26 S1.0000
X154.46 S0.9333
X154.56 S0.1961
G0 X163.56 S0.0000
G1 X163.66 S0.5529
X163.86 S1.0000
X163.96 S0.7608
G0 X164.16 Y25.90 S0.0000
G1 X164.06 S0.3647
X163.86 S1.0000
X163.66 S0.9608
X163.56 S0.1098
G0 X154.36 S0.0000
G1 X154.26 S0.0196
X154.06 S0.4275
X153.86 S0.8980
X153.46 S1.0000
X153.26 S0.5216
X153.16 S0.0549
G0 X146.76 S0.0000
G1 X146.66 S0.0157
X146.46 S0.4157
X146.26 S1.0000
X146.06 S0.9137
X145.96 S0.0745
G0 X135.96 S0.0000
G1 X135.86 S0.4980
X135.66 S0.9961
X135.46 S1.0000
X135.26 S0.5176
X135.16 S0.0392
G0 X131.36 S0.0000
G1 X131.26 S0.1765
X131.06 S0.9412
X130.86 S1.0000
X130.66 S0.9451
X130.56 S0.1098
G0 X120.56 S0.0000
G1 X120.46 S0.2941
X120.26 S0.9176
X120.06 S1.0000
X119.86 S0.7961
X119.76 S0.1020
G0 X115.96 S0.0000
G1 X115.86 S0.0275
X115.66 S0.6078
X115.46 S1.0000
X115.26 S0.9922
X115.06 S0.3686
X114.96 S0.0118
G0 X105.16 S0.0000
G1 X105.06 S0.0235
X104.86 S0.7059
X104.46 S0.9961
X104.26 S0.2980
X104.16 S0.0039
G0 X100.56 S0.0000
G1 X100.46 S0.0039
X100.26 S0.6471
X100.06 S1.0000
X99.86 S0.9647
X99.66 S0.8235
X99.56 S0.0196
G0 X89.76 S0.0000
G1 X89.66 S0.0078
X89.46 S0.3176
X89.26 S0.9765
X89.06 S1.0000
X88.86 S0.7137
X88.76 S0.0588
G0 X84.96 S0.0000
G1 X84.86 S0.0392
X84.66 S0.6863
X84.46 S1.0000
X84.26 S0.9686
X84.16 S0.3922
G0 X74.16 S0.0000
G1 X74.06 S0.2667
X73.86 S0.9373
X73.66 S1.0000
X73.46 S0.6157
X73.36 S0.0039
G0 X66.96 S0.0000
G1 X66.86 S0.1176
X66.66 S0.9255
X66.46 S1.0000
X66.26 S0.8784
X66.06 S0.8275
X65.96 S0.3412
G0 X56.56 S0.0000
G1 X56.46 S0.2000
X56.26 S0.9647
X56.06 S0.9961
X55.96 S0.1333
G0 Y26.10 S0.0000
G1 X56.06 S0.7882
X56.26 S1.0000
X56.36 S0.5882
G0 X66.16 S0.0000
G1 X66.26 S0.0314
X66.46 S0.4980
X66.66 S0.9451
X66.86 S0.9098
X67.06 S1.0000
X67.16 S0.4000
G0 X73.36 S0.0000
G1 X73.46 S0.6235
X73.66 S0.9451
X73.86 S0.9961
X73.96 S0.2980
G0 X84.36 S0.0000
G1 X84.46 S0.1608
X84.66 S0.9294
X84.86 S1.0000
X85.06 S0.9176
X85.16 S0.2235
G0 X88.56 S0.0000
G1 X88.66 S0.2980
X88.86 S0.9137
X89.06 S1.0000
X89.26 S0.9843
X89.46 S0.3333
X89.56 S0.0039
G0 X99.76 S0.0000
G1 X99.86 S0.0471
X100.06 S0.4863
X100.26 S0.9961
X100.46 S1.0000
X100.66 S0.6706
X100.76 S0.0078
G0 X104.16 S0.0000
G1 X104.26 S0.7176
X104.66 S1.0000
X104.86 S0.4941
X104.96 S0.0353
G0 X115.36 S0.0000
G1 X115.46 S0.3725
X115.66 S0.9882
X115.86 S1.0000
X116.06 S0.9255
X116.16 S0.1373
G0 X119.56 S0.0000
G1 X119.66 S0.3961
X119.86 S0.9373
X120.06 S1.0000
X120.26 S0.9412
X120.36 S0.1216
G0 X130.76 S0.0000
G1 X130.86 S0.0863
X131.06 S0.8078
X131.26 S1.0000
X131.46 S0.9647
X131.56 S0.4706
G0 X134.96 S0.0000
G1 X135.06 S0.0039
X135.26 S0.9529
X135.46 S1.0000
X135.66 S0.9882
X135.76 S0.3137
G0 X146.16 S0.0000
G1 X146.26 S0.0980
X146.46 S0.8902
X146.66 S1.0000
X146.76 S0.8118
G0 X152.96 S0.0000
G1 X153.06 S0.1804
X153.26 S0.9804
X153.66 S0.9843
X153.86 S0.6039
X153.96 S0.0471
G0 X163.76 S0.0000
G1 X163.86 S0.2941
X164.06 S0.9882
X164.26 S0.9451
X164.36 S0.0235
G0 Y26.30 S0.0000
G1 X164.26 S0.8863
X164.06 S1.0000
X163.86 S0.6784
X163.76 S0.0039
G0 X153.76 S0.0000
G1 X153.66 S0.0039
X153.46 S0.3529
X153.26 S0.8941
X152.86 S1.0000
X152.76 S0.1137
G0 X147.16 S0.0000
G1 X147.06 S0.0667
X146.86 S0.8039
X146.66 S0.9176
X146.46 S0.9216
X146.36 S0.0902
G0 X135.56 S0.0000
G1 X135.46 S0.1373
X135.26 S0.9412
X134.86 S1.0000
X134.66 S0.4980
X134.56 S0.0431
G0 X132.16 S0.0000
G1 X132.06 S0.0118
X131.86 S0.1647
X131.66 S0.9255
X131.46 S1.0000
X131.26 S0.9961
X131.06 S0.7451
X130.96 S0.0392
G0 X120.16 S0.0000
G1 X120.06 S0.0784
X119.86 S0.7490
X119.66 S0.9843
X119.46 S1.0000
X119.26 S0.7686
X119.16 S0.2078
G0 X116.56 S0.0000
G1 X116.46 S0.0549
X116.26 S0.6196
X116.06 S0.9961
X115.86 S0.9843
X115.66 S0.9176
X115.56 S0.2118
G0 X104.56 S0.0000
G1 X104.46 S0.4980
X104.26 S0.9608
X104.06 S1.0000
X103.86 S0.9451
X103.66 S0.3294
X103.56 S0.0353
G0 X101.16 S0.0000
G1 X101.06 S0.0196
X100.86 S0.2902
X100.46 S1.0000
X100.26 S0.9725
X100.16 S0.5451
G0 X89.36 S0.0000
G1 X89.26 S0.0039
X89.06 S0.0706
X88.86 S0.8784
X88.46 S0.9961
X88.26 S0.6706
X88.16 S0.0824
G0 X85.76 S0.0000
G1 X85.66 S0.0275
X85.46 S0.2078
X85.26 S0.7255
X85.06 S1.0000
X84.86 S0.9961
X84.66 S0.8157
X84.56 S0.1176
G0 X73.76 S0.0000
G1 X73.66 S0.2627
X73.46 S0.9451
X73.26 S1.0000
X73.06 S0.5686
X72.96 S0.0314
G0 X67.56 S0.0000
G1 X67.46 S0.0667
X67.26 S0.6902
X67.06 S1.0000
X66.86 S0.9412
X66.66 S0.7804
X66.56 S0.0275
G0 X56.36 S0.0000
G1 X56.26 S0.1216
X56.06 S0.9608
X55.86 S1.0000
X55.76 S0.5333
G0 X55.56 Y26.50 S0.0000
G1 X55.66 S0.0157
X55.86 S0.8902
X56.06 S1.0000
X56.16 S0.6392
G0 X66.76 S0.0000
G1 X66.86 S0.0118
X67.06 S0.3333
X67.26 S0.9961
X67.46 S1.0000
X67.66 S0.9529
X67.76 S0.3725
G0 X72.76 S0.0000
G1 X72.86 S0.0549
X73.06 S0.8784
X73.26 S1.0000
X73.46 S0.9529
X73.56 S0.1922
G0 X84.76 S0.0000
G1 X84.86 S0.0196
X85.06 S0.4078
X85.26 S0.9765
X85.66 S1.0000
X85.86 S0.9333
X86.06 S0.4431
X86.16 S0.0235
G0 X87.56 S0.0000
G1 X87.66 S0.0235
X87.86 S0.4667
X88.06 S0.8431
X88.26 S1.0000
X88.46 S0.8902
X88.66 S0.9961
X88.86 S0.6627
X88.96 S0.0431
G0 X100.36 S0.0000
G1 X100.46 S0.1686
X100.66 S0.8510
X101.06 S1.0000
X101.26 S0.9216
X101.46 S0.6667
X101.66 S0.0235
X101.76 S0.0039
G0 X103.16 S0.0000
G1 X103.26 S0.0941
X103.46 S0.7569
X103.66 S0.9529
X104.06 S1.0000
X104.26 S0.8588
X104.36 S0.1451
G0 X115.76 S0.0000
G1 X115.86 S0.0471
X116.06 S0.6235
X116.26 S0.9255
X116.46 S1.0000
X116.66 S0.9843
X116.86 S0.8863
X117.06 S0.2314
X117.16 S0.0196
G0 X118.56 S0.0000
G1 X118.66 S0.0235
X118.86 S0.5529
X119.06 S0.8863
X119.46 S1.0000
X119.66 S0.9686
X119.86 S0.3725
X119.96 S0.0118
G0 X131.16 S0.0000
G1 X131.26 S0.0039
X131.46 S0.3373
X131.66 S0.9490
X132.06 S1.0000
X132.26 S0.9020
X132.46 S0.6078
X132.56 S0.0235
G0 X133.96 S0.0000
G1 X134.06 S0.0235
X134.26 S0.3098
X134.46 S0.8157
X134.66 S0.9686
X135.06 S1.0000
X135.26 S0.5882
X135.36 S0.0667
G0 X146.56 S0.0000
G1 X146.66 S0.0588
X146.86 S0.6275
X147.26 S1.0000
X147.36 S0.4667
G0 X152.36 S0.0000
G1 X152.46 S0.0078
X152.66 S0.5843
X152.86 S1.0000
X153.06 S0.9961
X153.26 S0.4431
X153.36 S0.0471
G0 X163.96 S0.0000
G1 X164.06 S0.2863
X164.26 S0.9922
X164.46 S0.9843
X164.56 S0.1176
G0 Y26.70 S0.0000
G1 X164.46 S0.5686
X164.26 S1.0000
X164.06 S0.8588
X163.96 S0.0118
G0 X152.96 S0.0000
G1 X152.86 S0.3490
X152.66 S0.9804
X152.46 S1.0000
X152.26 S0.8157
X152.16 S0.0275
G0 X147.56 S0.0000
G1 X147.46 S0.6000
X147.06 S1.0000
X146.86 S0.6588
X146.76 S0.0118
G0 X135.16 S0.0000
G1 X135.06 S0.0118
X134.86 S0.2745
X134.66 S0.8667
X133.86 S1.0000
X133.66 S0.8902
X133.06 S0.4980
X132.86 S0.6392
X132.66 S0.8980
X132.06 S1.0000
X131.86 S0.9922
X131.66 S0.6980
X131.56 S0.0745
G0 X119.56 S0.0000
G1 X119.46 S0.0784
X119.26 S0.7294
X119.06 S0.9725
X118.46 S1.0000
X118.26 S0.8941
X118.06 S0.5765
X117.46 S0.4980
X117.26 S0.8941
X117.06 S0.9882
X116.46 S1.0000
X116.26 S0.9176
X116.06 S0.1765
X115.96 S0.0039
G0 X104.16 S0.0000
G1 X104.06 S0.0549
X103.86 S0.4980
X103.66 S0.9255
X103.06 S1.0000
X102.86 S0.8941
X102.66 S0.8706
X102.06 S0.4980
X101.86 S0.8549
X101.66 S0.9059
X101.06 S1.0000
X100.86 S0.9412
X100.66 S0.4667
X100.56 S0.0196
G0 X88.76 S0.0000
G1 X88.66 S0.0039
X88.46 S0.1882
X88.26 S0.7529
X88.06 S0.9961
X87.46 S1.0000
X87.26 S0.8941
X87.06 S0.5412
X86.66 S0.4980
X86.46 S0.7529
X86.26 S0.9020
X85.66 S1.0000
X85.46 S0.9765
X85.26 S0.7686
X85.06 S0.1529
X84.96 S0.0039
G0 X73.36 S0.0000
G1 X73.26 S0.1020
X73.06 S0.8588
X72.86 S0.9608
X72.66 S0.9843
X72.56 S0.4588
G0 X67.96 S0.0000
G1 X67.86 S0.3294
X67.66 S0.9922
X67.46 S1.0000
X67.26 S0.8588
X67.16 S0.1569
G0 X56.16 S0.0000
G1 X56.06 S0.0314
X55.86 S0.9843
X55.66 S1.0000
X55.56 S0.1451
G0 Y26.90 S0.0000
G1 X55.86 S1.0000
X55.96 S0.8235
G0 X67.56 S0.0000
G1 X67.66 S0.5765
X67.86 S0.9922
X68.26 S1.0000
X68.36 S0.0902
G0 X72.16 S0.0000
G1 X72.26 S0.1922
X72.66 S1.0000
X72.86 S0.9922
X73.06 S0.5804
X73.16 S0.0157
G0 X85.56 S0.0000
G1 X85.66 S0.0392
X85.86 S0.4980
X86.06 S0.9294
X86.26 S0.9882
X87.46 S1.0000
X87.66 S0.9922
X87.86 S0.9255
X88.06 S0.6627
X88.16 S0.0353
G0 X100.96 S0.0000
G1 X101.06 S0.0078
X101.26 S0.4431
X101.46 S0.7725
X101.66 S0.9882
X102.66 S1.0000
X102.86 S0.9961
X103.06 S0.9294
X103.26 S0.9765
X103.46 S0.7216
X103.56 S0.3176
G0 X116.56 S0.0000
G1 X116.66 S0.2118
X116.86 S0.7137
X117.06 S0.9686
X117.26 S0.9961
X118.46 S1.0000
X118.66 S0.9765
X118.86 S0.8941
X119.06 S0.6235
X119.16 S0.0471
G0 X131.96 S0.0000
G1 X132.06 S0.0392
X132.26 S0.5686
X132.46 S0.8824
X132.66 S0.9882
X133.86 S1.0000
X134.06 S0.9882
X134.26 S0.9490
X134.46 S0.7882
X134.66 S0.3569
X134.76 S0.0078
G0 X147.16 S0.0000
G1 X147.26 S0.3529
X147.46 S0.9255
X147.66 S1.0000
X147.86 S0.9922
X148.06 S0.2392
X148.16 S0.0157
G0 X151.76 S0.0000
G1 X151.86 S0.0627
X152.06 S0.8235
X152.26 S1.0000
X152.46 S0.9961
X152.66 S0.8157
X152.76 S0.0431
G0 X164.16 S0.0000
G1 X164.26 S0.4941
X164.56 S1.0000
G0 X164.76 Y27.10 S0.0000
G1 X164.66 S0.1020
X164.46 S1.0000
X164.26 S0.9961
X164.16 S0.1608
G0 X152.56 S0.0000
G1 X152.46 S0.0039
X152.26 S0.4941
X152.06 S0.9961
X151.86 S1.0000
X151.66 S0.9647
X151.56 S0.5529
G0 X148.36 S0.0000
G1 X148.26 S0.0980
X148.06 S0.8863
X147.86 S1.0000
X147.66 S0.9961
X147.46 S0.8667
X147.36 S0.1529
G0 X134.36 S0.0000
G1 X134.26 S0.0039
X134.06 S0.0784
X133.86 S0.1725
X133.66 S0.4235
X133.46 S0.8941
X133.06 S0.8980
X132.86 S0.7843
X132.66 S0.4000
X132.46 S0.1294
X132.36 S0.0196
G0 X118.76 S0.0000
G1 X118.66 S0.0275
X118.46 S0.1569
X118.26 S0.4196
X118.06 S0.8510
X117.66 S0.8980
X117.46 S0.9020
X117.26 S0.4039
X117.06 S0.2863
X116.96 S0.0980
G0 X103.36 S0.0000
G1 X103.26 S0.0039
X103.06 S0.1059
X102.86 S0.4078
X102.66 S0.5451
X102.46 S0.9020
X102.06 S0.8980
X101.86 S0.5686
X101.66 S0.3922
X101.46 S0.1333
X101.36 S0.0039
G0 X87.76 S0.0000
G1 X87.66 S0.0510
X87.46 S0.2588
X87.26 S0.4078
X87.06 S0.8549
X86.66 S0.8980
X86.46 S0.7373
X86.26 S0.4039
X86.06 S0.1647
X85.96 S0.0510
G0 X72.96 S0.0000
G1 X72.86 S0.0118
X72.66 S0.2549
X72.46 S0.9529
X72.06 S1.0000
X71.86 S0.6863
X71.76 S0.0078
G0 X68.56 S0.0000
G1 X68.46 S0.7020
X68.26 S0.9922
X68.06 S1.0000
X67.86 S0.9686
X67.76 S0.3725
G0 X55.96 S0.0000
G1 X55.86 S0.3412
X55.56 S1.0000
G0 X55.36 Y27.30 S0.0000
G1 X55.46 S0.3608
X55.66 S1.0000
X55.86 S0.9843
X55.96 S0.0745
G0 X67.96 S0.0000
G1 X68.06 S0.0275
X68.26 S0.5843
X68.46 S0.9843
X68.66 S0.8314
X68.86 S1.0000
X69.06 S0.9294
X69.26 S0.8667
X69.46 S0.1216
X69.56 S0.2431
G0 X70.96 S0.0000
G1 X71.06 S0.1490
X71.26 S0.4784
X71.46 S0.7059
X71.66 S0.9882
X72.06 S1.0000
X72.26 S0.9922
X72.46 S0.4824
X72.56 S0.0196
G0 X147.56 S0.0000
G1 X147.66 S0.0118
X147.86 S0.3922
X148.06 S0.9451
X148.46 S1.0000
X148.66 S0.9647
X148.86 S0.9490
X149.06 S0.5725
X149.16 S0.4549
G0 X150.56 S0.0000
G1 X150.66 S0.0745
X150.86 S0.4549
X151.06 S0.8157
X151.26 S0.9490
X151.86 S1.0000
X152.06 S0.6667
X152.16 S0.0471
G0 X164.36 S0.0000
G1 X164.46 S0.9490
X164.66 S1.0000
X164.76 S0.7294
G0 Y27.50 S0.0000
G1 X164.46 S1.0000
X164.26 S0.5216
X164.16 S0.0039
G0 X151.76 S0.0000
G1 X151.66 S0.2627
X151.46 S0.8706
X151.26 S0.9843
X148.66 S1.0000
X148.46 S0.9961
X148.26 S0.9686
X148.06 S0.5020
X147.96 S0.0039
G0 X72.16 S0.0000
G1 X72.06 S0.0196
X71.86 S0.7333
X71.66 S0.9804
X71.46 S0.8863
X68.86 S1.0000
X68.66 S0.9804
X68.46 S0.7412
X68.36 S0.0314
G0 X62.56 S0.0000
G1 X62.46 S0.5882
X62.36 S0.4196
G0 X55.96 S0.0000
G1 X55.86 S0.0118
X55.66 S0.9255
X55.46 S1.0000
X55.36 S0.5176
G0 Y27.70 S0.0000
G1 X55.46 S0.8078
X55.66 S1.0000
X55.76 S0.6196
G0 X62.36 S0.0000
G1 X62.46 S0.4196
X62.56 S0.9373
G0 X68.76 S0.0000
G1 X68.86 S0.1176
X69.06 S0.4078
X69.26 S0.8235
X69.66 S0.9961
X70.26 S1.0000
X70.46 S0.9569
X70.66 S1.0000
X70.86 S0.9216
X71.06 S0.9961
X71.26 S0.9765
X71.46 S0.8275
X71.66 S0.3529
X71.86 S0.1333
X71.96 S0.0078
G0 X148.36 S0.0000
G1 X148.46 S0.1020
X148.66 S0.3412
X148.86 S0.7294
X149.06 S0.9490
X149.26 S0.9922
X150.66 S1.0000
X150.86 S0.9922
X151.06 S0.8157
X151.26 S0.5137
X151.46 S0.1804
X151.56 S0.0078
G0 X164.36 S0.0000
G1 X164.46 S0.1412
X164.86 S1.0000
X164.96 S0.1020
G0 Y27.90 S0.0000
G1 X164.86 S0.1176
X164.46 S1.0000
X164.36 S0.0980
G0 X151.06 S0.0000
G1 X150.96 S0.0039
G0 X150.56 S0.0000
G1 X150.46 S0.3490
X150.26 S0.4314
X150.06 S0.8118
X149.66 S0.8078
X149.46 S0.6039
X149.26 S0.3686
X149.16 S0.0235
G0 X70.96 S0.0000
G1 X70.86 S0.2431
X70.66 S0.3804
X70.46 S0.7882
X70.06 S0.8078
X69.86 S0.5647
X69.66 S0.3686
X69.56 S0.1216
G0 X62.76 S0.0000
G1 X62.66 S0.7961
X62.56 S1.0000
G0 X55.76 S0.0000
G1 X55.66 S0.3922
X55.36 S1.0000
G0 Y28.10 S0.0000
G1 X55.66 S1.0000
X55.76 S0.2706
G0 X62.56 S0.0000
G1 X62.66 S0.9412
X62.76 S0.8549
G0 X164.36 S0.0000
G1 X164.46 S0.0941
X164.66 S0.9922
X164.86 S1.0000
X164.96 S0.0510
G0 Y28.30 S0.0000
G1 X164.86 S0.1176
X164.66 S1.0000
X164.46 S0.9020
X164.36 S0.0235
G0 X62.96 S0.0000
G1 X62.86 S0.1059
X62.66 S0.9765
X62.46 S0.8431
X62.26 S0.0902
X62.16 S0.6118
G0 X55.76 S0.0000
G1 X55.66 S0.1882
X55.46 S0.9882
X55.26 S1.0000
X55.16 S0.2078
G0 Y28.50 S0.0000
G1 X55.26 S0.3765
X55.46 S1.0000
X55.66 S0.9686
X55.76 S0.0471
G0 X62.16 S0.0000
G1 X62.26 S0.1569
X62.46 S0.7255
X62.66 S0.4118
X62.86 S1.0000
X62.96 S0.2118
G0 X164.36 S0.0000
G1 X164.46 S0.0196
X164.66 S0.8980
X164.86 S1.0000
X164.96 S0.1176
G0 Y28.70 S0.0000
G1 X164.86 S0.1176
X164.66 S1.0000
X164.46 S0.8980
X164.36 S0.0196
G0 X62.96 S0.0000
G1 X62.86 S0.5686
X62.66 S1.0000
X62.46 S0.4706
X62.26 S0.9059
X62.16 S0.0157
G0 X55.76 S0.0000
G1 X55.66 S0.0471
X55.46 S0.9686
X55.26 S1.0000
X55.16 S0.3765
G0 Y28.90 S0.0000
G1 X55.26 S0.6078
X55.46 S1.0000
X55.66 S0.9569
X55.76 S0.0431
G0 X62.36 S0.0000
G1 X62.46 S0.2000
X62.66 S0.3804
X62.96 S1.0000
G0 X164.36 S0.0000
G1 X164.46 S0.0078
X164.66 S0.7412
X164.86 S1.0000
X164.96 S0.6902
G0 Y29.10 S0.0000
G1 X164.86 S0.7608
X164.66 S1.0000
X164.56 S0.6196
G0 X63.16 S0.0000
G1 X63.06 S0.1020
X62.66 S1.0000
X62.56 S0.9137
G0 X55.56 S0.0000
G1 X55.46 S0.8588
X55.26 S1.0000
X55.16 S0.8118
G0 Y29.30 S0.0000
G1 X55.26 S0.8118
X55.46 S1.0000
X55.56 S0.8627
G0 X62.56 S0.0000
G1 X62.66 S0.4118
X63.06 S1.0000
X63.16 S0.5647
G0 X164.56 S0.0000
G1 X164.66 S0.6196
X164.86 S1.0000
X164.96 S0.7608
G0 Y29.50 S0.0000
G1 X164.86 S0.7608
X164.66 S1.0000
X164.56 S0.6196
G0 X63.16 S0.0000
G1 X63.06 S0.9765
X62.76 S1.0000
G0 X55.56 S0.0000
G1 X55.46 S0.8627
X55.26 S1.0000
X55.16 S0.8118
G0 Y29.70 S0.0000
G1 X55.26 S0.6706
X55.46 S1.0000
X55.66 S0.9216
X55.76 S0.0235
G0 X62.76 S0.0000
G1 X62.86 S0.7255
X63.26 S1.0000
X63.36 S0.2706
G0 X164.56 S0.0000
G1 X164.66 S0.6196
X164.86 S1.0000
X164.96 S0.7608
G0 Y29.90 S0.0000
G1 X164.86 S0.4000
X164.66 S1.0000
X164.46 S0.8157
X164.36 S0.0157
G0 X63.36 S0.0000
G1 X63.26 S0.8627
X63.06 S1.0000
X62.86 S0.6353
X62.76 S0.0078
G0 X55.76 S0.0000
G1 X55.66 S0.0471
X55.46 S0.9686
X55.26 S1.0000
X55.16 S0.3765
G0 Y30.10 S0.0000
G1 X55.26 S0.3765
X55.46 S1.0000
X55.66 S0.9686
X55.76 S0.0471
G0 X62.96 S0.0000
G1 X63.06 S0.2078
X63.26 S0.9569
X63.46 S1.0000
X63.56 S0.7333
G0 X164.36 S0.0000
G1 X164.46 S0.0196
X164.66 S0.8980
X164.86 S1.0000
X164.96 S0.1176
G0 Y30.30 S0.0000
G1 X164.86 S0.1176
X164.66 S1.0000
X164.46 S0.8980
X164.36 S0.0196
G0 X64.16 S0.0000
G1 X64.06 S0.2392
X63.86 S0.3922
X63.66 S0.0745
X63.46 S0.9451
X63.26 S0.9804
X63.06 S0.6196
X62.86 S0.9765
X62.66 S0.4902
X62.46 S0.5882
X62.36 S0.5725
G0 X55.76 S0.0000
G1 X55.66 S0.0471
X55.46 S0.9686
X55.26 S1.0000
X55.16 S0.3765
G0 Y30.50 S0.0000
G1 X55.26 S0.3765
X55.46 S1.0000
X55.66 S0.9725
X55.76 S0.0588
G0 X62.16 S0.0000
G1 X62.26 S0.0235
X62.46 S0.7412
X62.66 S0.2588
X63.06 S1.0000
X63.26 S0.9490
X63.46 S0.2353
X63.66 S1.0000
X63.86 S0.9569
X64.06 S0.3020
X64.26 S1.0000
X64.36 S0.7765
G0 X164.36 S0.0000
G1 X164.46 S0.0235
X164.66 S0.8980
X164.86 S1.0000
X164.96 S0.1176
G0 Y30.70 S0.0000
G1 X164.86 S0.0784
X164.66 S1.0000
X164.46 S0.9843
X164.36 S0.0863
G0 X64.56 S0.0000
G1 X64.46 S0.0902
X64.26 S0.9922
X64.06 S0.2941
X63.86 S0.7804
X63.66 S1.0000
X63.46 S0.4392
X63.26 S0.0510
X62.86 S1.0000
X62.66 S0.1961
X62.46 S0.9020
X62.26 S0.1647
X62.16 S0.1333
G0 X55.76 S0.0000
G1 X55.66 S0.2745
X55.36 S1.0000
G0 Y30.90 S0.0000
G1 X55.66 S1.0000
X55.76 S0.2667
G0 X62.16 S0.0000
G1 X62.26 S0.9373
X62.46 S0.5804
X62.66 S1.0000
X62.86 S0.8078
X63.06 S0.4902
X63.26 S0.9961
X63.36 S0.7725
G0 X63.76 S0.0000
G1 X63.86 S0.6510
X64.06 S0.9922
X64.26 S0.5412
X64.36 S0.4314
G0 X164.36 S0.0000
G1 X164.46 S0.0980
X164.86 S1.0000
X164.96 S0.1176
G0 Y31.10 S0.0000
G1 X164.86 S0.1176
X164.46 S1.0000
X164.36 S0.0980
G0 X64.76 S0.0000
G1 X64.66 S0.8902
X64.56 S0.3686
G0 X64.16 S0.0000
G1 X64.06 S1.0000
X63.96 S0.5882
G0 X63.56 S0.0000
G1 X63.46 S0.2902
X63.26 S0.6314
X63.06 S0.0980
X62.86 S0.1255
X62.66 S0.8863
X62.46 S0.5490
X62.26 S0.5804
X62.16 S1.0000
G0 X55.76 S0.0000
G1 X55.66 S0.5961
X55.46 S1.0000
X55.36 S0.8314
G0 Y31.30 S0.0000
G1 X55.46 S0.8078
X55.66 S0.9922
X55.76 S0.6353
G0 X62.16 S0.0000
G1 X62.26 S0.2039
X62.46 S0.7647
X62.66 S0.4588
X62.86 S0.4784
X63.06 S0.9608
X63.26 S0.9922
X63.46 S0.2235
X63.66 S1.0000
X63.76 S0.8039
G0 X64.16 S0.0000
G1 X64.26 S0.6510
X64.46 S0.9843
X64.66 S0.0941
X64.86 S0.3647
X65.06 S0.0157
X65.16 S0.0314
G0 X98.36 S0.0000
G1 X98.46 S0.0196
X98.56 S0.0039
G0 X118.96 S0.0000
G1 X119.06 S0.0667
X119.66 S0.0863
X119.86 S0.1725
X120.06 S0.0039
X120.16 S0.0471
G0 X120.76 S0.0000
G1 X121.56 S0.0863
G0 X121.96 S0.0000
G1 X122.06 S0.0196
X122.16 S0.0039
G0 X164.36 S0.0000
G1 X164.46 S0.1686
X164.86 S1.0000
X164.96 S0.1098
G0 X164.76 Y31.50 S0.0000
G1 X164.46 S1.0000
X164.36 S0.5529
G0 X122.56 S0.0000
G1 X122.46 S0.0118
X122.26 S0.3765
X122.06 S0.2549
X121.66 S0.2118
X121.46 S1.0000
X121.26 S0.7961
X121.06 S1.0000
X120.86 S0.9961
X120.66 S0.1686
X120.26 S0.5373
X120.06 S0.5961
X119.86 S0.0471
X119.46 S0.9882
X119.26 S0.5255
X119.06 S0.4627
X118.96 S0.0902
G0 X118.56 S0.0000
G1 X118.46 S0.2196
X118.26 S0.5294
X118.06 S0.2941
X117.96 S0.0078
G0 X100.86 S0.0000
G1 X100.76 S0.0118
G0 X97.76 S0.0000
G1 X97.66 S0.0275
X97.56 S0.5294
G0 X65.36 S0.0000
G1 X65.26 S0.0980
X65.06 S0.9255
X64.96 S0.8980
G0 X64.56 S0.0000
G1 X64.46 S0.8039
X64.36 S1.0000
G0 X63.96 S0.0000
G1 X63.86 S0.3608
X63.66 S0.3569
X63.46 S0.5647
X63.26 S0.0824
X63.06 S0.4314
X62.86 S0.3608
X62.66 S1.0000
X62.46 S0.8784
X62.26 S0.2235
X62.16 S0.0118
G0 X55.96 S0.0000
G1 X55.86 S0.0118
X55.66 S0.9451
X55.46 S0.9922
X55.36 S0.4314
G0 Y31.70 S0.0000
G1 X55.46 S0.3804
X55.66 S1.0000
X55.86 S0.9804
X55.96 S0.0392
G0 X62.16 S0.0000
G1 X62.26 S1.0000
X62.46 S0.5490
X62.66 S0.9098
X62.86 S1.0000
X63.06 S0.9686
X63.26 S0.7333
X63.46 S0.7098
X63.66 S0.6039
X63.86 S0.9294
X64.06 S0.9608
X64.26 S0.0980
X64.46 S0.3020
X64.66 S1.0000
X64.86 S0.1490
X65.06 S0.1373
X65.26 S1.0000
X65.36 S0.3647
G0 X94.96 S0.0000
G1 X95.16 S0.0078
G0 X96.56 S0.0000
G1 X96.86 S0.5059
X97.06 S0.0588
X97.26 S0.2588
X97.46 S0.4706
X97.66 S0.4235
X97.86 S0.3922
X97.96 S0.1333
G0 X99.56 S0.0000
G1 X99.66 S0.4627
G0 X100.56 S0.0000
G1 X100.66 S0.0039
X100.86 S0.0706
X100.96 S0.1294
G0 X117.16 S0.0000
G1 X117.26 S0.4353
X117.46 S0.2824
X117.56 S0.1725
G0 X117.96 S0.0000
G1 X118.06 S0.0431
X118.26 S0.0314
X118.46 S0.4000
X118.66 S0.6824
X118.76 S0.3922
G0 X119.96 S0.0000
G1 X120.06 S0.5098
X120.26 S0.9294
X120.46 S0.9137
X120.66 S0.9176
X120.86 S0.1961
X121.06 S0.0392
X121.46 S0.0706
X121.66 S0.1412
X121.86 S0.6706
X122.06 S0.0157
X122.26 S0.3412
X122.46 S0.4510
X122.66 S1.0000
X122.86 S0.9333
X122.96 S0.5059
G0 X164.36 S0.0000
G1 X164.46 S0.8314
X164.66 S1.0000
X164.76 S0.8627
G0 Y31.90 S0.0000
G1 X164.66 S0.6706
X164.46 S1.0000
X164.26 S0.9608
X164.16 S0.0275
G0 X123.76 S0.0000
G1 X123.66 S0.0157
X123.56 S0.0863
G0 X123.16 S0.0000
G1 X123.06 S0.3529
X122.86 S0.8471
X122.66 S0.2745
X122.46 S0.7569
X122.26 S0.3490
X122.06 S0.2588
X121.96 S0.1412
G0 X121.36 S0.0000
G1 X121.26 S0.1020
X121.06 S0.2392
X120.86 S0.0196
X120.66 S0.2078
X120.46 S0.1961
X120.36 S0.5216
G0 X119.76 S0.0000
G1 X119.66 S0.2706
X119.46 S0.9569
X119.26 S0.8980
X119.16 S0.3686
G0 X117.96 S0.0000
G1 X117.86 S0.6784
X117.66 S0.2353
X117.56 S0.0980
G0 X116.96 S0.0000
G1 X116.86 S0.2980
X116.66 S0.2392
X116.56 S0.0431
G0 X102.96 S0.0000
G1 X102.86 S0.0196
X102.66 S0.1529
X102.56 S0.6000
G0 X102.06 S0.0000
G1 X101.96 S0.5922
G0 X101.46 S0.0000
G1 X101.36 S0.0980
G0 X100.76 S0.0000
G1 X100.66 S0.0980
X100.56 S0.0627
G0 X100.16 S0.0000
G1 X100.06 S0.2431
X99.86 S0.5961
X99.46 S0.7569
X99.26 S0.3176
X98.76 S0.3451
G0 X98.36 S0.0000
G1 X98.26 S0.7608
X98.06 S0.7882
X97.86 S0.6863
X97.66 S0.2118
X97.46 S0.2039
X97.26 S0.3098
X97.16 S0.1098
G0 X96.76 S0.0000
G1 X96.66 S0.6549
X96.46 S0.7451
X96.06 S0.2431
X95.86 S0.0314
X95.66 S0.7569
X95.46 S0.4353
X95.36 S0.0275
G0 X65.36 S0.0000
G1 X65.26 S0.4235
X65.16 S0.6510
G0 X64.76 S0.0000
G1 X64.66 S1.0000
X64.56 S0.8078
G0 X64.16 S0.0000
G1 X64.06 S0.5882
X63.66 S1.0000
X63.46 S0.7216
X63.36 S0.4784
G0 X62.96 S0.0000
G1 X62.86 S0.0196
X62.66 S0.0980
X62.46 S0.2471
X62.26 S1.0000
X62.16 S0.8745
G0 X55.96 S0.0000
G1 X55.86 S0.1569
X55.56 S1.0000
G0 Y32.10 S0.0000
G1 X55.86 S1.0000
X55.96 S0.5020
G0 X62.16 S0.0000
G1 X62.46 S1.0000
X62.66 S0.4118
X62.86 S1.0000
X62.96 S0.2980
G0 X63.36 S0.0000
G1 X63.46 S0.8549
X63.66 S0.3647
X63.86 S0.4196
X64.06 S0.9765
X64.16 S0.4275
G0 X64.56 S0.0000
G1 X64.66 S0.1804
X64.86 S1.0000
X64.96 S0.6706
G0 X65.36 S0.0000
G1 X65.46 S0.6549
X65.66 S0.8667
X65.76 S0.6275
G0 X94.36 S0.0000
G1 X94.46 S0.0706
X94.56 S0.2078
G0 X94.96 S0.0000
G1 X95.06 S0.2667
X95.26 S0.7569
X95.46 S0.1686
X95.66 S0.1098
X95.86 S0.1647
X96.06 S0.1216
X96.26 S0.8118
X96.46 S0.7020
X96.66 S0.6863
X96.76 S0.2000
G0 X97.16 S0.0000
G1 X97.26 S0.2000
X97.46 S0.9529
X97.66 S0.9255
X97.86 S1.0000
X98.06 S0.1412
X98.26 S1.0000
X98.46 S0.9843
X98.66 S0.0039
X98.86 S1.0000
X99.06 S0.4824
X99.26 S0.4588
X99.46 S1.0000
X99.66 S0.7294
X99.86 S0.7373
X100.06 S0.6314
X100.26 S0.4627
X100.46 S0.1608
X100.66 S0.6118
X100.86 S0.7059
X101.06 S0.0431
X101.26 S0.4157
X101.46 S0.7059
X101.66 S0.1333
X101.76 S0.0941
G0 X102.76 S0.0000
G1 X102.86 S0.0078
X102.96 S0.0039
G0 X116.56 S0.0000
G1 X116.66 S0.0588
G0 X117.16 S0.0000
G1 X117.26 S0.4118
X117.46 S0.4667
X117.66 S0.1333
X117.76 S0.0078
G0 X118.36 S0.0000
G1 X118.46 S0.5412
X118.66 S0.5725
X118.76 S0.4745
G0 X119.16 S0.0000
G1 X119.46 S0.2941
X119.66 S0.3961
X119.86 S0.3569
X119.96 S0.0157
G0 X120.76 S0.0000
G1 X120.86 S0.0431
X121.06 S0.3176
X121.26 S0.7569
X121.46 S0.8667
X121.66 S0.5765
X121.86 S0.5725
X122.06 S0.2510
X122.26 S0.2549
X122.46 S0.0941
X122.66 S0.1961
X122.86 S0.3020
X123.06 S0.8118
X123.26 S0.4000
X123.46 S0.0510
X123.66 S0.0549
X123.86 S0.2275
X123.96 S0.0039
G0 X164.16 S0.0000
G1 X164.26 S0.1412
X164.46 S0.9961
X164.66 S1.0000
X164.76 S0.1176
G0 X164.56 Y32.30 S0.0000
G1 X164.26 S1.0000
X164.16 S0.5020
G0 X143.76 S0.0000
G1 X143.66 S0.3922
X143.46 S0.4549
X143.26 S0.9059
X143.16 S0.4078
G0 X142.16 S0.0000
G1 X142.06 S0.4549
X141.86 S0.3137
X141.76 S0.0039
G0 X140.16 S0.0000
G1 X140.06 S0.1765
X139.86 S0.0039
X139.76 S0.1176
G0 X139.26 S0.0000
G1 X139.16 S0.2000
G0 X124.36 S0.0000
G1 X124.26 S0.0157
X124.06 S0.4549
X123.96 S0.5373
G0 X123.56 S0.0000
G1 X123.46 S0.2196
X123.26 S0.0667
X123.16 S0.2157
G0 X122.76 S0.0000
G1 X122.66 S0.5529
X122.46 S0.7922
X122.36 S0.5765
G0 X122.06 S0.0000
G1 X121.96 S0.1647
G0 X121.56 S0.0000
G1 X121.26 S0.0039
X121.06 S0.0157
X120.86 S0.4549
X120.06 S0.9922
X119.96 S0.5412
G0 X119.56 S0.0000
G1 X119.46 S0.1176
X119.26 S0.4549
X119.06 S0.2549
X118.86 S0.1020
X118.66 S0.5216
X118.26 S0.9922
X118.06 S0.8039
X117.96 S0.0471
G0 X117.26 S0.0000
G1 X117.16 S0.0039
G0 X116.76 S0.0000
G1 X116.66 S0.1020
X116.56 S0.2196
G0 X103.46 S0.0000
G1 X103.36 S0.0118
G0 X102.26 S0.0000
G1 X102.16 S0.0039
G0 X101.56 S0.0000
G1 X101.46 S0.0039
X101.26 S0.3059
X101.16 S0.4196
G0 X100.76 S0.0000
G1 X100.66 S0.3451
X100.56 S0.9216
G0 X100.16 S0.0000
G1 X100.06 S1.0000
X99.86 S0.5843
X99.66 S0.5451
X99.26 S1.0000
X99.16 S0.0392
G0 X98.36 S0.0000
G1 X98.26 S0.0471
X97.86 S0.5451
X97.66 S0.0510
X97.46 S0.2471
X97.26 S0.4549
X97.16 S0.4510
G0 X96.76 S0.0000
G1 X96.66 S0.0549
X96.46 S0.5412
X96.26 S0.5373
X96.06 S0.8000
X95.86 S0.4627
X95.66 S0.5451
X95.46 S0.2980
X95.26 S0.5725
X95.06 S0.4157
X94.86 S0.2000
X94.66 S0.2510
X94.46 S0.5373
X94.26 S0.3294
X93.96 S0.0078
G0 X93.66 S0.0000
G1 X93.56 S0.0039
G0 X93.16 S0.0000
G1 X93.06 S0.2627
X92.96 S0.2745
G0 X65.76 S0.0000
G1 X65.66 S0.5255
X65.46 S1.0000
X65.26 S0.8902
X65.06 S0.1765
X64.86 S1.0000
X64.76 S0.6588
G0 X64.36 S0.0000
G1 X64.26 S0.3373
X64.06 S0.7451
X63.86 S0.0863
X63.66 S0.9922
X63.46 S1.0000
X63.26 S0.9686
X63.06 S0.0549
X62.86 S0.2039
X62.66 S0.5059
X62.46 S0.5686
X62.26 S1.0000
X62.16 S0.1333
G0 X55.96 S0.0000
G1 X55.86 S0.8902
X55.66 S1.0000
X55.56 S0.6196
G0 Y32.50 S0.0000
G1 X55.66 S0.1569
X55.86 S1.0000
X55.96 S0.9569
G0 X62.36 S0.0000
G1 X62.46 S0.5412
X62.66 S0.3176
X62.86 S1.0000
X63.06 S0.5490
X63.26 S0.1804
X63.46 S0.2392
X63.86 S1.0000
X64.06 S0.1373
X64.26 S1.0000
X64.36 S0.2157
G0 X64.96 S0.0000
G1 X65.06 S1.0000
X65.16 S0.5882
G0 X65.56 S0.0000
G1 X65.66 S0.6471
X65.86 S0.1255
X66.06 S0.7020
X66.16 S0.0275
G0 X92.76 S0.0000
G1 X93.46 S0.0549
X93.66 S0.0039
X93.86 S0.0392
X93.96 S0.2392
G0 X94.36 S0.0000
G1 X94.46 S0.1882
X94.66 S0.2549
X94.86 S0.6980
X94.96 S0.0196
G0 X95.36 S0.0000
G1 X95.46 S0.0118
X95.66 S0.0431
X95.76 S0.0902
G0 X96.56 S0.0000
G1 X96.66 S0.4941
X96.86 S0.7098
X97.06 S0.2196
X97.26 S0.3098
X97.46 S0.5137
X97.66 S0.5255
X97.86 S0.3529
X98.06 S0.0510
X98.26 S0.2824
X98.46 S0.9412
X98.66 S1.0000
X98.86 S0.6235
X99.06 S0.2549
X99.26 S0.3529
X99.46 S0.0941
X99.56 S0.0078
G0 X100.36 S0.0000
G1 X100.86 S0.9059
X101.06 S0.5882
X101.26 S0.8275
X101.46 S1.0000
X101.66 S0.2549
X101.86 S0.0235
X102.06 S0.1020
X102.16 S0.0431
G0 X102.76 S0.0000
G1 X102.86 S0.2431
X103.06 S0.0078
X103.26 S0.2824
X103.36 S0.0078
G0 X116.36 S0.0000
G1 X116.46 S0.2667
G0 X116.96 S0.0000
G1 X117.06 S0.0784
G0 X117.56 S0.0000
G1 X117.66 S0.0196
X118.06 S0.0941
X118.16 S0.2314
G0 X118.76 S0.0000
G1 X118.86 S0.5412
G0 X119.16 S0.0000
G1 X119.26 S0.8549
X119.46 S0.7765
X119.66 S0.5373
X119.86 S0.6431
X120.06 S0.0902
X120.26 S0.4392
X120.46 S0.2275
X120.66 S0.6549
X120.76 S0.5490
G0 X121.16 S0.0000
G1 X121.26 S0.6118
X121.76 S0.0941
G0 X122.16 S0.0000
G1 X122.26 S0.6431
X122.46 S0.4627
X122.66 S0.5725
X122.86 S0.7451
X122.96 S0.1961
G0 X123.36 S0.0000
G1 X123.46 S0.5333
X123.66 S0.5176
X123.86 S0.3098
X123.96 S0.0941
G0 X124.76 S0.0000
G1 X124.86 S0.3451
X125.06 S0.6314
X125.26 S0.8118
X125.46 S0.1529
X125.56 S0.0392
G0 X138.76 S0.0000
G1 X138.86 S0.0157
X139.06 S0.0627
X139.26 S0.1529
X139.46 S0.0667
X139.66 S0.0196
X139.76 S0.0941
G0 X140.96 S0.0000
G1 X141.06 S0.0157
X141.26 S0.1333
X141.46 S1.0000
X141.66 S0.1137
X141.76 S0.0745
G0 X142.56 S0.0000
G1 X142.66 S0.2588
X142.86 S0.0941
X142.96 S0.0314
G0 X143.76 S0.0000
G1 X143.86 S0.0118
X144.06 S0.2784
X144.26 S0.4667
X144.46 S0.0431
X144.66 S0.2980
X144.86 S0.2824
X144.96 S0.0941
G0 X164.16 S0.0000
G1 X164.26 S0.7725
X164.46 S1.0000
X164.56 S0.8627
G0 Y32.70 S0.0000
G1 X164.46 S0.2941
X164.26 S1.0000
X164.06 S0.9569
X163.96 S0.0941
G0 X145.16 S0.0000
G1 X145.06 S0.5765
X144.86 S0.4314
X144.66 S0.2118
X144.46 S0.2314
X144.26 S0.0235
X144.06 S0.6196
X143.86 S0.5059
X143.76 S0.8314
G0 X142.96 S0.0000
G1 X142.86 S0.6510
X142.66 S0.7098
X142.46 S0.1333
X141.86 S0.5765
X141.66 S0.1059
X141.46 S0.6510
X141.26 S0.7098
X141.06 S0.1373
X140.96 S0.0235
G0 X139.76 S0.0000
G1 X139.66 S0.1333
X139.46 S0.2549
X139.26 S0.0039
X139.06 S0.0863
X138.86 S0.3216
X138.66 S0.0235
X138.56 S0.0824
G0 X125.16 S0.0000
G1 X125.06 S0.5412
X124.86 S0.0235
X124.66 S0.2471
X124.46 S0.4980
X124.26 S0.4118
X124.06 S0.1216
X123.86 S0.9961
X123.66 S0.2431
X123.46 S0.0549
X123.26 S0.0196
X123.06 S0.5686
X122.86 S0.7059
X122.66 S0.8941
X122.46 S0.4235
X122.26 S0.0353
X122.06 S0.0863
X121.86 S0.6157
X121.66 S0.4235
X121.46 S0.1843
X121.26 S0.7098
X121.06 S0.5882
X120.86 S0.2392
X120.66 S0.5765
X120.46 S0.5843
X120.26 S0.4549
X120.06 S0.0392
X119.86 S0.3216
X119.66 S0.7098
X119.46 S0.7882
X119.06 S0.4235
X118.86 S0.0157
X118.56 S0.5765
G0 X118.16 S0.0000
G1 X118.06 S0.3922
X117.86 S0.5490
X117.66 S0.2039
X117.46 S0.5843
X117.36 S0.5882
G0 X116.96 S0.0000
G1 X116.86 S0.1098
X116.66 S0.5765
X116.56 S0.0863
G0 X103.36 S0.0000
G1 X103.26 S0.0118
X103.16 S0.3373
G0 X102.56 S0.0000
G1 X102.46 S0.1922
X102.26 S0.4784
X102.06 S0.6471
X101.96 S0.0275
G0 X101.56 S0.0000
G1 X101.46 S0.1569
X101.26 S0.4235
X101.06 S0.3176
X100.96 S0.1451
G0 X100.16 S0.0000
G1 X99.66 S0.5765
X99.46 S0.0627
X99.26 S0.7098
X99.06 S1.0000
X98.66 S0.8667
X98.46 S1.0000
X98.26 S0.9020
X98.06 S0.1255
X97.86 S0.1608
X97.66 S0.4235
X97.46 S0.3490
X97.26 S0.9882
X97.06 S0.9412
X96.86 S0.8510
X96.66 S0.6627
X96.56 S0.0745
G0 X96.16 S0.0000
G1 X96.06 S0.5216
X95.86 S0.2510
X95.66 S0.1725
X95.46 S0.3176
X95.36 S0.5922
G0 X94.76 S0.0000
G1 X94.66 S0.0706
X94.46 S0.2588
X94.26 S0.1176
X94.06 S0.1412
X93.86 S0.4078
X93.66 S0.6314
X93.46 S0.1686
X93.26 S0.0745
X93.06 S0.6784
X92.66 S0.0471
X92.56 S0.2667
G0 X66.16 S0.0000
G1 X66.06 S0.0078
X65.86 S0.3961
X65.66 S0.8667
X65.46 S0.1451
X65.26 S0.3804
X65.06 S1.0000
X64.96 S0.5529
G0 X64.36 S0.0000
G1 X64.26 S0.7529
X64.06 S1.0000
X63.86 S0.1373
X63.46 S1.0000
X63.26 S0.0784
X63.06 S0.8980
X62.86 S0.9412
X62.66 S1.0000
X62.56 S0.1765
G0 X56.16 S0.0000
G1 X56.06 S0.0196
X55.86 S0.9804
X55.66 S1.0000
X55.56 S0.1569
G0 Y32.90 S0.0000
G1 X55.66 S0.0235
X55.86 S0.9176
X56.06 S1.0000
X56.16 S0.6275
G0 X62.36 S0.0000
G1 X62.46 S0.0196
X62.66 S0.0627
X63.06 S1.0000
X63.26 S0.3490
X63.36 S0.0196
G0 X63.96 S0.0000
G1 X64.06 S0.0314
X64.26 S0.0902
X64.46 S0.0078
X64.56 S0.0784
G0 X64.96 S0.0000
G1 X65.06 S0.0314
X65.26 S0.9294
X65.46 S1.0000
X65.66 S0.0353
X65.86 S0.9098
X66.06 S1.0000
X66.16 S0.2745
G0 X91.56 S0.0000
G1 X91.66 S0.0275
G0 X91.96 S0.0000
G1 X92.06 S0.0157
X92.16 S0.3569
G0 X92.56 S0.0000
G1 X92.66 S0.0039
X92.86 S0.2157
X93.06 S0.1373
X93.26 S0.1451
X93.46 S0.6980
X93.56 S0.2549
G0 X93.96 S0.0000
G1 X94.06 S0.2510
X94.26 S0.2314
X94.66 S0.3529
X94.76 S0.0235
G0 X95.16 S0.0000
G1 X95.26 S0.2235
X95.46 S0.3804
X95.66 S0.6431
X95.86 S0.6235
X96.06 S0.6039
X96.16 S0.7255
G0 X96.56 S0.0000
G1 X96.66 S0.4353
X96.86 S0.9529
X97.06 S0.8196
X97.26 S0.9608
X97.46 S0.2157
X97.66 S0.6824
X97.86 S0.0196
X98.06 S0.0431
X98.26 S0.2588
X98.46 S0.9255
X98.66 S0.9529
X98.86 S0.8000
X99.16 S0.6000
G0 X99.56 S0.0000
G1 X99.66 S0.4000
X100.06 S0.9569
X100.26 S0.9529
X100.46 S0.8745
X100.66 S0.3961
X100.86 S0.4000
X100.96 S0.0275
G0 X101.36 S0.0000
G1 X101.46 S0.3529
X101.66 S0.7176
X101.86 S0.3529
X102.06 S0.4235
X102.26 S0.7451
X102.46 S0.0039
X102.66 S0.6902
X102.86 S0.3961
X103.06 S0.0078
X103.26 S0.3686
X103.46 S0.6078
X103.66 S0.1490
X103.76 S0.0235
G0 X115.36 S0.0000
G1 X115.46 S0.2000
X115.66 S0.0353
X115.86 S0.0706
X116.06 S0.2157
X116.26 S0.0196
X116.46 S0.4745
X116.66 S0.4980
X116.76 S0.6745
G0 X117.16 S0.0000
G1 X117.26 S0.0471
X117.46 S0.7059
X117.66 S0.4667
X117.86 S0.5412
X118.06 S0.2157
X118.26 S0.1137
X118.46 S0.4000
X118.66 S0.9608
X118.86 S0.7961
X119.06 S0.3412
X119.16 S0.2863
G0 X119.56 S0.0000
G1 X119.66 S0.0353
X119.86 S0.4118
X120.06 S0.0471
X120.26 S0.0314
X120.46 S0.3529
X120.66 S0.3922
X120.86 S0.7686
X121.06 S0.6510
X121.16 S0.0824
G0 X121.76 S0.0000
G1 X121.86 S0.3569
X122.06 S0.9804
X122.26 S0.9098
X122.46 S0.2510
X122.66 S0.2000
X122.86 S0.0471
X123.06 S0.0863
X123.26 S0.9804
X123.46 S0.1765
X123.66 S0.3137
X123.86 S0.3725
X124.06 S0.8824
X124.26 S0.7255
X124.46 S0.0431
X124.66 S0.9882
X124.86 S0.6392
X125.06 S0.0588
X125.26 S0.0824
X125.46 S0.7529
X125.66 S0.4431
X125.86 S0.0196
X125.96 S0.0275
G0 X137.56 S0.0000
G1 X137.66 S0.0196
G0 X137.96 S0.0000
G1 X138.06 S0.1373
X138.26 S0.2784
X138.36 S0.0392
G0 X139.56 S0.0000
G1 X139.66 S0.7529
X139.76 S0.4902
G0 X140.56 S0.0000
G1 X140.66 S0.3137
X140.86 S0.9686
X141.06 S0.6510
X141.16 S0.0471
G0 X141.76 S0.0000
G1 X141.86 S0.4392
X142.06 S0.6118
X142.26 S0.6471
X142.36 S0.2745
G0 X142.96 S0.0000
G1 X143.06 S0.1020
X143.26 S0.0863
X143.46 S0.6078
X143.66 S0.2039
X143.86 S0.0471
X144.06 S0.2941
X144.26 S0.4196
X144.46 S0.0078
X144.66 S0.1529
X144.86 S0.5333
X145.06 S0.0118
X145.26 S0.7020
X145.46 S0.2353
X145.66 S0.5961
X145.86 S0.6627
X146.06 S0.6902
X146.26 S0.4000
X146.36 S0.1569
G0 X163.96 S0.0000
G1 X164.06 S0.2667
X164.26 S0.9922
X164.46 S0.9882
X164.56 S0.1490
G0 X164.36 Y33.10 S0.0000
G1 X164.26 S0.9569
X164.06 S1.0000
X163.96 S0.4667
G0 X146.76 S0.0000
G1 X146.66 S0.0941
X146.46 S0.8627
X146.26 S0.8667
X146.06 S0.9098
X145.86 S0.1373
X145.66 S0.6431
X145.46 S0.8706
X145.36 S0.3490
G0 X144.76 S0.0000
G1 X144.66 S0.1490
X144.56 S0.4549
G0 X144.16 S0.0000
G1 X144.06 S0.0471
X143.96 S0.0118
G0 X143.36 S0.0000
G1 X143.26 S0.4941
X143.16 S0.5569
G0 X142.76 S0.0000
G1 X142.66 S0.0706
X142.46 S0.4392
X142.26 S0.3451
X142.06 S0.0588
X141.86 S0.0157
X141.66 S0.4196
X141.46 S0.4314
X141.26 S0.1255
X141.06 S0.8078
X140.86 S0.5608
X140.66 S0.1843
X140.46 S0.1765
X140.26 S0.7216
X140.06 S0.2784
X139.86 S0.0275
X139.66 S0.6667
X139.46 S0.2824
X139.26 S0.0078
X139.06 S0.2627
X138.86 S0.4667
X138.66 S0.5137
X138.46 S0.1490
X138.26 S0.5765
X138.06 S0.8824
X137.86 S0.7216
X137.66 S0.0667
X137.46 S0.0235
X137.26 S0.1137
X137.16 S0.0667
G0 X126.56 S0.0000
G1 X126.46 S0.0784
X126.26 S0.0824
X126.06 S0.4549
X125.86 S0.3725
X125.66 S0.2392
X125.46 S0.4314
X125.26 S0.0431
X125.06 S0.6078
X124.86 S0.5216
X124.66 S0.6941
X124.46 S0.0431
X124.26 S0.4471
X124.16 S0.5333
G0 X123.76 S0.0000
G1 X123.66 S0.5647
X123.46 S0.5686
X123.26 S0.5137
X123.06 S0.3608
X122.86 S0.6196
X122.66 S1.0000
X122.46 S0.7804
X122.26 S0.6980
X122.06 S0.0549
X121.86 S0.0314
X121.66 S0.0157
X121.46 S0.3804
X121.26 S0.2667
X121.06 S0.8824
X120.86 S0.9882
X120.66 S0.7882
X120.46 S0.5490
X120.26 S0.1020
X120.06 S0.4392
X119.86 S0.4980
X119.66 S0.8980
X119.46 S0.6196
X119.26 S0.5020
X119.06 S0.0706
X118.66 S0.0588
X118.46 S0.2157
X118.26 S0.7490
X118.16 S0.0588
G0 X117.36 S0.0000
G1 X117.26 S0.1490
X117.06 S0.0157
X116.96 S0.0588
G0 X116.56 S0.0000
G1 X116.46 S0.0510
X116.26 S0.6157
X116.06 S0.3529
X115.86 S0.0275
X115.66 S0.5961
X115.56 S0.4000
G0 X115.16 S0.0000
G1 X115.06 S0.1216
X114.86 S0.0941
X114.76 S0.0235
G0 X104.26 S0.0000
G1 X104.16 S0.4549
G0 X103.76 S0.0000
G1 X103.66 S0.0314
X103.46 S0.0706
X103.26 S0.0392
X103.06 S0.1725
X102.86 S0.2471
X102.66 S0.3529
X102.46 S0.0078
X102.26 S0.5804
X102.06 S0.7490
X101.86 S0.6863
X101.66 S0.8275
X101.46 S0.9412
X101.26 S0.4941
X101.06 S0.7059
X100.86 S0.0941
X100.66 S0.4000
X100.46 S0.5765
X100.26 S0.8588
X100.06 S0.7020
X99.86 S0.9098
X99.66 S0.9412
X99.06 S0.5020
X98.86 S0.6235
X98.66 S0.8667
X98.46 S0.9373
X98.26 S0.2275
X98.06 S0.0392
X97.86 S0.4902
X97.66 S0.3647
X97.46 S0.1647
X97.26 S0.0039
X96.96 S0.0588
G0 X96.56 S0.0000
G1 X96.46 S0.0627
X96.26 S0.0706
X96.06 S0.0471
X95.86 S0.8196
X95.66 S0.4549
X95.46 S0.3725
X95.26 S0.5333
X95.06 S0.2314
X94.86 S0.0392
X94.66 S0.5725
X94.46 S0.6980
X94.26 S0.8667
X94.06 S0.4980
X93.96 S0.5333
G0 X92.96 S0.0000
G1 X92.86 S0.0275
X92.66 S0.0902
X92.46 S0.0039
X92.26 S0.0078
X92.16 S0.0275
G0 X91.66 S0.0000
G1 X91.56 S0.0353
G0 X66.36 S0.0000
G1 X66.26 S0.1059
X66.06 S0.9569
X65.86 S0.9961
X65.66 S0.2667
X65.46 S0.7412
X65.26 S1.0000
X65.16 S0.2784
G0 X64.76 S0.0000
G1 X64.66 S0.0118
X64.46 S0.7647
X64.26 S0.0235
X64.06 S0.9608
X63.96 S0.0549
G0 X63.56 S0.0000
G1 X63.46 S0.0392
X63.26 S0.0039
X63.06 S0.6314
X62.86 S1.0000
X62.66 S0.2510
X62.46 S0.4157
X62.36 S0.0549
G0 X56.36 S0.0000
G1 X56.26 S0.0039
X56.06 S0.9137
X55.86 S1.0000
X55.76 S0.4353
G0 Y33.30 S0.0000
G1 X55.86 S0.0471
X56.06 S1.0000
X56.26 S0.9804
X56.36 S0.2196
G0 X62.36 S0.0000
G1 X62.46 S0.4157
X62.66 S0.5529
X62.86 S0.2039
X63.06 S1.0000
X63.26 S0.6314
X63.46 S0.2157
X63.56 S0.5373
G0 X64.16 S0.0000
G1 X64.26 S0.6078
X64.46 S0.0235
X64.66 S1.0000
X64.76 S0.3882
G0 X65.36 S0.0000
G1 X65.46 S0.9020
X65.56 S0.9412
G0 X65.96 S0.0000
G1 X66.06 S0.1059
X66.26 S1.0000
X66.36 S0.7961
G0 X91.96 S0.0000
G1 X92.06 S0.2706
X92.26 S0.2353
X92.46 S0.0118
X92.66 S0.5882
X92.86 S0.9137
X93.06 S0.6078
X93.26 S0.2314
X93.36 S0.3529
G0 X93.76 S0.0000
G1 X93.86 S0.6235
X94.06 S0.3922
X94.26 S0.6784
X94.46 S0.8196
X94.66 S0.4235
X94.86 S0.4157
X94.96 S0.0588
G0 X95.36 S0.0000
G1 X95.46 S0.3686
X95.66 S0.1373
X95.86 S0.0431
X95.96 S0.4902
G0 X96.36 S0.0000
G1 X96.46 S0.6784
X96.66 S0.6627
X96.86 S0.6431
X97.06 S0.1569
X97.26 S0.3216
X97.46 S0.0275
X97.86 S0.8863
X98.06 S0.9922
X98.26 S0.9529
X98.46 S0.2392
X98.66 S0.2431
X98.86 S0.0784
X99.06 S0.1882
X99.26 S0.7333
X99.46 S0.8863
X99.66 S0.5922
X99.86 S0.1020
X100.06 S0.6000
X100.26 S0.6784
X100.46 S0.3765
X100.66 S0.3451
X100.86 S0.5647
X101.06 S0.6627
X101.26 S0.1804
X101.46 S0.4627
X101.86 S1.0000
X102.06 S0.8980
X102.26 S0.8353
X102.46 S0.4510
X102.66 S0.0745
X102.76 S0.2314
G0 X103.36 S0.0000
G1 X103.46 S0.2980
X103.66 S0.8392
X103.86 S0.7373
X104.06 S0.1647
X104.26 S0.5647
X104.36 S0.3686
G0 X104.76 S0.0000
G1 X104.86 S0.1882
X105.06 S0.1451
X105.16 S0.1725
G0 X114.76 S0.0000
G1 X114.86 S0.0392
X115.06 S0.3490
X115.16 S0.1333
G0 X115.56 S0.0000
G1 X115.66 S0.1059
G0 X116.16 S0.0000
G1 X116.26 S0.1059
G0 X116.56 S0.0000
G1 X116.66 S0.5608
X116.86 S0.2549
X117.06 S0.8314
X117.16 S0.1294
G0 X117.56 S0.0000
G1 X117.66 S0.3686
X118.06 S0.8863
X118.26 S0.8235
X118.46 S0.1137
X118.66 S0.1333
X118.86 S0.3294
X119.06 S0.0157
X119.26 S0.1804
X119.46 S0.7686
X120.26 S1.0000
X120.46 S0.1412
X120.56 S0.4588
G0 X120.96 S0.0000
G1 X121.06 S0.0902
G0 X121.36 S0.0000
G1 X121.46 S0.5451
X121.66 S1.0000
X121.86 S0.9137
X122.06 S0.8863
X122.26 S0.1686
X122.46 S0.4039
X122.66 S1.0000
X122.86 S0.6941
X123.06 S1.0000
X123.16 S0.6314
G0 X123.56 S0.0000
G1 X123.66 S0.8706
X123.86 S1.0000
X123.96 S0.8863
G0 X124.36 S0.0000
G1 X124.46 S0.4000
G0 X124.76 S0.0000
G1 X124.86 S0.1843
X125.06 S0.8863
X125.26 S0.9216
X125.46 S0.4078
X125.66 S0.4745
X125.86 S0.2196
X126.06 S0.0196
X126.26 S0.6118
X126.36 S0.1294
G0 X137.16 S0.0000
G1 X137.26 S0.1059
G0 X137.56 S0.0000
G1 X137.66 S0.4549
X137.86 S0.4275
X138.06 S0.1569
X138.16 S0.1176
G0 X138.56 S0.0000
G1 X138.66 S0.0706
X138.86 S0.3686
X139.06 S0.1843
X139.26 S0.1294
X139.36 S0.0392
G0 X140.16 S0.0000
G1 X140.26 S0.9333
X140.46 S0.8863
X140.66 S0.9843
X140.76 S0.4431
G0 X141.16 S0.0000
G1 X141.26 S0.0039
X141.46 S0.8078
X141.66 S0.9882
X141.86 S0.9686
X142.06 S0.8000
X142.26 S0.0078
X142.46 S0.5059
X142.86 S0.6784
X143.06 S0.4039
X143.16 S0.0863
G0 X143.56 S0.0000
G1 X143.66 S0.4706
X143.86 S0.8863
X144.06 S0.6392
X144.26 S0.2588
X144.46 S0.8510
X144.66 S0.4196
X144.86 S0.1529
X145.06 S0.5647
X145.16 S0.4000
G0 X145.56 S0.0000
G1 X145.66 S0.9059
X145.86 S0.9647
X146.06 S0.0588
X146.26 S0.4510
X146.46 S0.8667
X146.56 S0.9647
G0 X146.96 S0.0000
G1 X147.06 S0.2275
X147.16 S0.5647
G0 X163.76 S0.0000
G1 X163.86 S0.0235
X164.06 S0.8784
X164.26 S1.0000
X164.36 S0.3922
G0 Y33.50 S0.0000
G1 X164.26 S0.2706
X164.06 S1.0000
X163.86 S0.9333
X163.76 S0.1686
G0 X147.36 S0.0000
G1 X147.26 S0.3882
X147.16 S0.6314
G0 X146.56 S0.0000
G1 X146.46 S0.0078
X146.26 S0.1961
X146.06 S0.0157
X145.86 S0.1255
X145.76 S0.0275
G0 X145.36 S0.0000
G1 X145.26 S0.6824
X145.06 S0.5176
X144.86 S0.8980
X144.66 S0.2667
X144.46 S0.9412
X144.26 S0.9725
X144.06 S0.0275
X143.86 S0.9333
X143.66 S0.9176
X143.46 S0.8196
X143.26 S0.1490
X143.06 S1.0000
X142.86 S0.3686
X142.76 S0.0196
G0 X142.36 S0.0000
G1 X142.26 S0.2745
X142.06 S0.9686
X141.96 S0.3686
G0 X141.56 S0.0000
G1 X141.46 S0.1137
X141.06 S0.3686
X140.86 S0.3647
X140.66 S0.2196
X140.46 S0.9961
X140.26 S1.0000
X140.06 S0.9725
X139.86 S0.0196
X139.66 S0.3686
X139.46 S0.8667
X139.26 S0.8275
X139.06 S0.0784
X138.86 S0.3490
X138.66 S0.6667
X138.46 S0.5216
X138.36 S0.0078
G0 X137.96 S0.0000
G1 X137.86 S0.5686
X137.66 S0.0471
X137.46 S0.1216
X137.26 S0.5529
X137.16 S0.2784
G0 X126.76 S0.0000
G1 X126.66 S0.0196
X126.46 S0.2667
X126.36 S0.8745
G0 X125.96 S0.0000
G1 X125.86 S0.2824
X125.66 S0.8588
X125.46 S0.1176
X125.26 S0.7647
X125.06 S0.4706
X124.86 S0.0157
X124.66 S0.5725
X124.46 S1.0000
X124.26 S0.6510
X124.06 S0.1843
X123.86 S1.0000
X123.66 S0.9686
X123.46 S0.1765
X122.86 S1.0000
X122.66 S0.9059
X122.46 S0.3569
X122.26 S0.9451
X121.66 S1.0000
X121.46 S0.5882
X121.26 S0.2980
X120.86 S1.0000
X120.66 S0.9882
X120.46 S1.0000
X120.26 S0.7176
X120.06 S0.2196
X119.86 S0.0824
X119.66 S0.5490
X119.46 S0.6314
X119.26 S0.0549
X118.46 S1.0000
X118.26 S0.0314
X118.06 S0.8627
X117.86 S0.7608
X117.66 S0.7882
X117.46 S0.9843
X117.26 S0.6471
X117.06 S0.2157
X116.86 S0.4745
X116.66 S0.9333
X116.46 S0.5373
X116.26 S0.3098
X116.06 S0.2510
X115.86 S0.7922
X115.66 S0.1059
X115.46 S0.8157
X115.26 S0.2588
X115.06 S0.2118
X114.86 S0.1686
X114.66 S0.0157
X114.46 S0.2863
X114.26 S0.4863
X114.16 S0.0784
G0 X105.36 S0.0000
G1 X105.26 S0.4000
X105.06 S0.3020
X104.86 S0.8196
X104.66 S0.4078
X104.46 S0.2118
X104.26 S0.5765
X104.06 S0.8000
X103.86 S0.3373
X103.66 S0.8549
X103.46 S0.4314
X103.26 S0.0275
X103.06 S0.3412
X102.86 S0.8196
X102.66 S0.7294
X102.46 S0.3686
X102.26 S0.0824
X102.06 S0.0118
X101.66 S0.0824
X101.46 S0.3294
X101.26 S0.9725
X101.06 S0.9686
X100.96 S0.6784
G0 X100.56 S0.0000
G1 X100.46 S0.1098
X100.06 S0.2863
X99.86 S0.0392
X99.66 S0.9255
X99.26 S1.0000
X99.06 S0.8627
X98.66 S0.7137
X98.46 S0.0471
X98.26 S0.2353
X98.06 S0.8431
X97.46 S1.0000
X97.26 S0.9176
X97.06 S0.1804
X96.86 S0.0392
X96.66 S0.9451
X96.06 S1.0000
X95.96 S0.9176
G0 X95.56 S0.0000
G1 X95.46 S0.0039
X95.26 S0.3373
X94.66 S0.3686
X94.56 S0.0549
G0 X94.16 S0.0000
G1 X94.06 S0.1373
X93.86 S0.9373
X93.66 S0.9176
X93.46 S0.1608
X93.26 S0.2980
X93.06 S0.4039
X92.86 S0.6784
X92.66 S0.3569
X92.46 S1.0000
X92.26 S0.2863
X92.16 S0.0353
G0 X91.56 S0.0000
G1 X91.46 S0.2510
X91.36 S0.0471
G0 X90.76 S0.0000
G1 X90.66 S0.0235
X90.46 S0.0902
X90.36 S0.0941
G0 X66.56 S0.0000
G1 X66.46 S0.2667
X66.26 S0.0824
X66.16 S0.0275
G0 X65.76 S0.0000
G1 X65.66 S0.5647
X65.56 S1.0000
G0 X64.76 S0.0000
G1 X64.66 S0.9176
X64.46 S0.6588
X64.26 S0.2784
X64.16 S0.4549
G0 X63.56 S0.0000
G1 X63.46 S0.1255
X63.26 S0.6784
X63.06 S1.0000
X62.86 S0.9294
X62.66 S0.0314
X62.46 S0.8471
X62.36 S0.5686
G0 X56.36 S0.0000
G1 X56.26 S0.5490
X56.06 S0.9843
X55.96 S0.8196
G0 Y33.70 S0.0000
G1 X56.06 S0.3294
X56.26 S1.0000
X56.46 S0.9098
X56.56 S0.0118
G0 X62.36 S0.0000
G1 X62.46 S0.3961
X62.66 S0.4588
X62.86 S0.0235
X63.06 S0.7961
X63.26 S1.0000
X63.46 S0.0627
X63.66 S0.1059
X63.76 S0.1490
G0 X64.16 S0.0000
G1 X64.26 S0.0471
X64.46 S0.0745
X64.66 S0.2157
X64.86 S0.5216
X65.06 S0.4980
X65.16 S0.0157
G0 X65.56 S0.0000
G1 X65.66 S0.5882
X65.86 S1.0000
X66.06 S0.0431
X66.26 S0.3020
X66.46 S0.9961
X66.66 S0.9725
X66.86 S0.7373
X66.96 S0.0039
G0 X90.16 S0.0000
G1 X90.26 S0.1059
X90.46 S0.1569
X90.56 S0.1098
G0 X90.96 S0.0000
G1 X91.06 S0.0549
X91.26 S0.2863
X91.46 S0.3373
X91.66 S0.3059
X91.76 S0.0549
G0 X92.16 S0.0000
G1 X92.26 S0.3922
X92.46 S0.9059
X92.66 S0.6627
X92.86 S0.5020
X93.06 S0.9294
X93.16 S0.3490
G0 X93.56 S0.0000
G1 X93.66 S0.0157
X94.06 S0.0314
X94.26 S0.0392
X94.46 S0.5373
X94.66 S0.6471
X94.86 S0.8235
X95.06 S0.7686
X95.26 S0.5490
X95.46 S0.8941
X95.66 S0.0078
X95.86 S0.3843
X96.06 S0.6706
X96.26 S0.9725
X96.46 S1.0000
X96.66 S0.8745
X96.86 S0.0549
X97.06 S0.0824
X97.26 S0.1333
X97.46 S0.4549
X98.06 S0.1333
X98.26 S0.0549
X98.46 S0.2353
X98.66 S0.4667
X98.86 S0.5765
X99.66 S1.0000
X99.86 S0.6863
X100.06 S0.0039
X100.26 S0.7020
X100.66 S0.8980
X100.86 S0.6706
X101.06 S0.5020
X101.26 S0.3451
X101.46 S0.9882
X101.66 S0.3333
X101.86 S0.1333
X102.06 S0.1373
X102.26 S0.4471
X102.46 S1.0000
X102.66 S0.4941
X102.86 S0.9020
X103.06 S0.8627
X103.26 S0.6039
X103.46 S0.2392
X103.66 S0.0157
X103.76 S0.0314
G0 X104.16 S0.0000
G1 X104.26 S0.7804
X104.46 S0.9216
X104.66 S0.5569
X104.86 S0.1922
X105.06 S0.2118
X105.26 S0.2784
X105.46 S0.9098
X105.56 S0.0471
G0 X114.16 S0.0000
G1 X114.26 S0.0392
X114.36 S0.0627
G0 X114.76 S0.0000
G1 X114.86 S0.0196
X115.26 S0.0078
X115.46 S0.2510
X115.66 S0.8000
X115.86 S0.3373
X116.06 S0.3098
X116.26 S0.8157
X116.46 S0.2078
X116.66 S0.4196
X116.76 S0.1059
G0 X117.16 S0.0000
G1 X117.26 S0.0118
X117.46 S0.3647
X117.66 S0.6471
X117.86 S0.5373
X118.06 S0.6431
X118.26 S0.1020
X118.46 S0.8784
X118.66 S0.9961
X119.06 S1.0000
X119.26 S0.9922
X119.46 S0.1804
X119.66 S0.7686
X119.86 S0.9255
X120.06 S0.9137
X120.26 S0.0118
X120.46 S0.8314
X120.66 S1.0000
X120.86 S0.4941
X121.06 S0.5059
X121.26 S0.4784
X121.46 S0.9804
X121.66 S0.2000
X121.86 S0.1059
X122.26 S0.9686
X122.36 S0.9294
G0 X122.76 S0.0000
G1 X122.86 S0.3137
X123.06 S0.9882
X123.46 S1.0000
X123.66 S0.3608
X123.86 S0.2078
X124.06 S1.0000
X124.26 S0.9765
X124.46 S0.5529
X124.66 S0.7608
X124.86 S1.0000
X125.06 S0.9020
X125.26 S0.0157
X125.46 S0.4784
X125.66 S0.1137
X125.86 S0.1333
X126.06 S0.9294
X126.26 S0.5608
X126.46 S0.0235
X126.66 S0.4196
X126.76 S0.2863
G0 X127.16 S0.0000
G1 X127.26 S0.0039
G0 X135.76 S0.0000
G1 X135.86 S0.0118
G0 X136.76 S0.0000
G1 X136.86 S0.4510
X136.96 S0.2745
G0 X137.36 S0.0000
G1 X137.46 S0.3647
G0 X137.96 S0.0000
G1 X138.06 S0.3333
X138.26 S0.6588
X138.46 S0.0431
X138.66 S0.6549
X138.86 S0.5804
X138.96 S0.4510
G0 X139.36 S0.0000
G1 X139.46 S0.8588
X139.66 S1.0000
X139.86 S0.9922
X140.06 S0.0157
X140.26 S0.0980
X140.46 S0.1333
X140.66 S0.1020
X140.86 S0.1608
X141.06 S0.9961
X141.46 S1.0000
X141.56 S0.9882
G0 X141.96 S0.0000
G1 X142.06 S0.9922
X142.26 S0.6118
X142.46 S0.8275
X142.66 S0.1451
X142.86 S0.4863
X143.06 S0.3490
X143.26 S0.9255
X143.46 S0.9373
X143.66 S0.1216
X143.86 S0.0118
X144.06 S0.0196
X144.26 S0.0549
X144.46 S0.4784
X144.66 S0.7647
X144.86 S0.7098
X145.06 S0.0039
X145.26 S0.6196
X145.46 S0.4588
X145.66 S0.0078
X145.86 S0.3176
X146.06 S0.8235
X146.26 S0.8392
X146.36 S0.1412
G0 X146.76 S0.0000
G1 X146.86 S0.4157
X146.96 S0.3804
G0 X147.36 S0.0000
G1 X147.46 S0.2667
G0 X163.76 S0.0000
G1 X163.86 S0.6706
X164.06 S0.9686
X164.26 S0.9922
X164.36 S0.0196
G0 X164.16 Y33.90 S0.0000
G1 X164.06 S0.8039
X163.86 S1.0000
X163.66 S0.9647
X163.56 S0.0941
G0 X147.96 S0.0000
G1 X147.86 S0.1686
X147.66 S0.8784
X147.46 S0.6314
X147.26 S0.2745
X147.06 S0.9216
X146.86 S0.7255
X146.66 S0.4471
X146.46 S0.0745
X146.26 S0.8510
X146.06 S0.9255
X145.86 S0.1529
X145.66 S0.5098
X145.56 S0.0039
G0 X145.16 S0.0000
G1 X145.06 S0.3922
X144.86 S0.5333
X144.66 S0.5922
X144.46 S0.1216
X144.26 S0.6000
X144.16 S0.7098
G0 X143.76 S0.0000
G1 X143.66 S0.9373
X143.46 S0.2980
X143.26 S0.9294
X143.06 S0.7765
X142.86 S0.5098
X142.66 S0.9255
X142.56 S0.4745
G0 X142.06 S0.0000
G1 X141.96 S0.0549
G0 X141.56 S0.0000
G1 X141.46 S1.0000
X141.26 S0.8667
X141.06 S0.0784
X140.86 S0.1608
X140.66 S0.0510
X140.46 S0.3725
X140.26 S0.4667
X140.06 S1.0000
X139.86 S0.8980
X139.66 S0.0549
X139.46 S0.0745
X139.36 S0.0039
G0 X138.76 S0.0000
G1 X138.66 S0.0157
X138.46 S0.0745
X138.26 S0.4980
X138.06 S0.1137
X137.96 S0.3804
G0 X136.76 S0.0000
G1 X136.66 S0.1490
X136.56 S0.0471
G0 X135.96 S0.0000
G1 X135.86 S0.0941
X135.76 S0.0275
G0 X127.36 S0.0000
G1 X127.26 S0.1647
X127.16 S0.7098
G0 X126.66 S0.0000
G1 X126.56 S0.0941
G0 X125.56 S0.0000
G1 X125.46 S0.5765
X125.26 S0.2314
X125.06 S0.3137
X124.66 S1.0000
X124.46 S0.3961
X124.26 S0.3843
X124.06 S0.7725
X123.86 S0.0745
X123.66 S0.4431
X123.46 S0.0314
X123.26 S0.4667
X123.06 S0.3059
X122.96 S0.0471
G0 X122.66 S0.0000
G1 X122.56 S0.2314
G0 X121.96 S0.0000
G1 X121.86 S0.2314
X121.66 S0.0039
X121.46 S0.0471
X121.26 S0.7725
X121.06 S0.3961
X120.86 S0.1490
X120.66 S0.0745
X120.46 S0.4471
X120.26 S0.4863
X120.06 S0.1373
X119.46 S0.9255
X119.26 S0.6157
X119.06 S0.0627
X118.86 S0.0745
X118.66 S0.2392
X118.46 S0.2941
X118.26 S0.1373
X118.16 S0.0157
G0 X117.86 S0.0000
G1 X117.76 S0.0549
G0 X117.16 S0.0000
G1 X117.06 S0.3569
X116.96 S0.4314
G0 X116.66 S0.0000
G1 X116.56 S0.4471
G0 X116.16 S0.0000
G1 X116.06 S0.4706
X115.86 S0.7373
X115.66 S0.2824
X115.46 S0.0314
X115.26 S0.6706
X115.06 S0.7059
X114.86 S0.8706
X114.66 S0.0980
X114.46 S0.0078
X114.36 S0.3373
G0 X114.06 S0.0000
G1 X113.96 S0.8039
G0 X106.26 S0.0000
G1 X106.16 S0.1098
G0 X105.76 S0.0000
G1 X105.66 S0.3765
X105.46 S0.2157
X105.26 S0.3529
X105.06 S0.0314
X104.86 S0.8431
X104.66 S0.5843
X104.46 S0.0039
X104.36 S0.0353
G0 X103.56 S0.0000
G1 X103.46 S0.9412
X103.26 S0.6392
X103.06 S0.6353
X102.86 S0.6078
X102.66 S0.9725
X102.46 S1.0000
X102.36 S0.4392
G0 X101.96 S0.0000
G1 X101.86 S0.3529
X101.46 S0.6078
X101.36 S0.5725
G0 X100.96 S0.0000
G1 X100.86 S0.6902
X100.26 S1.0000
X100.06 S0.8118
X99.96 S0.2118
G0 X99.56 S0.0000
G1 X99.26 S0.0745
X98.86 S0.4667
X98.66 S0.1294
X98.46 S0.3020
X98.26 S0.0471
X98.06 S0.8745
X97.46 S1.0000
X97.26 S0.9490
X96.86 S1.0000
X96.66 S0.9725
X96.46 S0.3216
X96.26 S0.0745
X96.06 S0.4510
X95.86 S0.7725
X95.66 S0.9686
X95.46 S0.2196
X95.26 S0.2627
X95.06 S0.9922
X94.86 S0.9137
X94.66 S0.6039
X94.46 S0.4588
X94.26 S0.6275
X94.06 S0.0824
X93.86 S0.3490
X93.66 S0.6588
X93.46 S0.4353
X93.26 S0.9020
X93.06 S0.5765
X92.86 S0.0314
X92.76 S0.0353
G0 X92.46 S0.0000
G1 X92.36 S0.3333
G0 X91.76 S0.0000
G1 X91.66 S0.0431
X91.46 S0.5608
X91.26 S0.4588
X91.06 S0.7020
X90.96 S0.1529
G0 X89.66 S0.0000
G1 X89.56 S0.3255
G0 X66.96 S0.0000
G1 X66.86 S0.3647
X66.46 S1.0000
X66.36 S0.6314
G0 X65.96 S0.0000
G1 X65.86 S0.6667
X65.66 S0.7137
X65.56 S0.0275
G0 X65.16 S0.0000
G1 X65.06 S0.8235
X64.66 S1.0000
X64.46 S0.4157
X64.26 S0.4039
X64.06 S0.9255
X63.86 S0.4980
X63.66 S0.0039
X63.46 S0.0157
X63.26 S0.0353
X63.06 S1.0000
X62.86 S0.4510
X62.66 S0.7961
X62.46 S0.9882
X62.36 S0.5490
G0 X56.56 S0.0000
G1 X56.46 S0.0471
X56.16 S1.0000
G0 Y34.10 S0.0000
G1 X56.26 S0.6863
X56.46 S0.9725
X56.66 S0.8039
X56.76 S0.0039
G0 X62.36 S0.0000
G1 X62.46 S0.0431
X62.56 S0.8000
G0 X62.96 S0.0000
G1 X63.06 S0.1294
X63.26 S0.7765
X63.46 S0.2941
X63.66 S0.8000
X63.86 S0.2706
X64.06 S0.6980
X64.26 S1.0000
X64.46 S0.9529
X64.66 S0.3725
X65.06 S1.0000
X65.26 S0.5882
X65.36 S0.1412
G0 X65.76 S0.0000
G1 X65.86 S0.4235
X66.06 S1.0000
X66.26 S0.2941
X66.46 S0.3020
X66.86 S1.0000
X66.96 S0.4078
G0 X89.36 S0.0000
G1 X89.46 S0.0941
X89.66 S0.5529
X89.76 S0.1373
G0 X90.16 S0.0000
G1 X90.26 S0.0941
X90.66 S0.0078
X90.86 S0.4314
X91.06 S0.9098
X91.26 S0.2667
X91.46 S0.6510
X91.66 S0.4039
X91.86 S0.0706
X92.06 S0.2431
X92.46 S0.9294
X92.66 S0.9490
X92.86 S0.0706
X93.06 S0.3451
X93.26 S1.0000
X93.46 S0.8667
X93.66 S0.6314
X93.86 S0.9882
X94.06 S0.0941
X94.26 S0.3569
X94.46 S0.9569
X94.66 S0.9882
X94.86 S0.8784
X94.96 S0.3412
G0 X95.56 S0.0000
G1 X95.66 S0.2980
X95.86 S0.0667
X96.06 S0.3725
X96.26 S0.2980
X96.46 S0.8039
X96.66 S0.0431
X96.86 S0.0745
X97.06 S0.0078
X97.36 S0.1020
G0 X97.76 S0.0000
G1 X97.86 S0.0510
X98.06 S0.7373
X98.26 S0.6588
X98.46 S0.1020
X98.66 S0.6353
X98.86 S1.0000
X99.06 S0.7333
X99.26 S0.6392
X99.46 S0.3529
X99.66 S0.2314
X99.86 S0.2549
X100.06 S0.3176
X100.26 S0.6549
X100.46 S0.8941
X100.66 S0.6588
X100.76 S0.2510
G0 X101.16 S0.0000
G1 X101.26 S0.3020
X101.46 S0.7451
X101.86 S1.0000
X102.06 S0.6784
X102.26 S1.0000
X102.36 S0.5686
G0 X102.76 S0.0000
G1 X102.86 S0.0824
X103.06 S0.2314
X103.26 S0.1961
X103.46 S0.4353
X103.56 S0.6196
G0 X103.96 S0.0000
G1 X104.06 S0.1804
X104.26 S0.8078
X104.46 S0.4980
X104.56 S0.1098
G0 X104.96 S0.0000
G1 X105.06 S0.7686
X105.26 S0.8549
X105.46 S0.0863
X105.66 S0.4118
X105.76 S0.3725
G0 X106.16 S0.0000
G1 X106.26 S0.4588
X106.36 S0.0471
G0 X113.76 S0.0000
G1 X113.86 S0.2392
X114.06 S0.5333
X114.26 S0.1176
X114.46 S0.5608
X114.66 S0.0118
X114.86 S0.7922
X115.06 S0.6000
X115.26 S0.7176
X115.36 S0.6902
G0 X115.96 S0.0000
G1 X116.06 S0.0549
X116.26 S0.2471
X116.46 S0.2000
X116.66 S0.0941
X116.86 S0.4510
X117.06 S1.0000
X117.26 S0.9882
X117.46 S0.7176
X117.66 S0.3686
X117.86 S1.0000
X118.06 S0.7686
X118.26 S0.8039
X118.46 S0.3333
X118.66 S1.0000
X118.86 S0.8549
X119.06 S0.7412
X119.26 S0.3294
X119.46 S0.8510
X119.66 S0.9961
X119.86 S0.8941
X120.06 S0.7059
X120.26 S0.2314
X120.46 S0.2471
X120.66 S0.2275
X120.86 S0.8000
X121.06 S0.6275
X121.26 S0.7333
X121.46 S0.1294
X121.66 S0.1333
X121.86 S0.9451
X122.06 S0.7608
X122.26 S0.2549
X122.46 S0.0745
X122.66 S0.9647
X122.86 S0.7608
X123.06 S0.4863
X123.26 S0.7333
X123.46 S0.1686
X123.66 S0.8549
X123.86 S0.8941
X123.96 S0.3569
G0 X124.36 S0.0000
G1 X124.46 S0.0275
G0 X124.76 S0.0000
G1 X124.86 S0.7882
X125.06 S0.9569
X125.16 S1.0000
G0 X125.56 S0.0000
G1 X125.66 S0.8314
X125.86 S0.6039
X126.06 S0.1686
X126.26 S0.6863
X126.46 S0.5647
X126.66 S0.1255
X126.86 S0.5529
X127.06 S0.5647
X127.26 S0.0235
X127.46 S0.3569
X127.56 S0.0431
G0 X135.56 S0.0000
G1 X135.66 S0.0941
X135.76 S0.2667
G0 X136.56 S0.0000
G1 X136.66 S0.5176
X136.86 S0.1020
X137.06 S0.1608
X137.26 S0.9294
X137.46 S0.7451
X137.56 S0.3569
G0 X137.96 S0.0000
G1 X138.06 S0.3804
X138.26 S0.9255
X138.46 S0.9020
X138.66 S0.7020
X138.86 S0.0039
X139.06 S0.7059
X139.26 S1.0000
X139.46 S0.9529
X139.66 S0.1020
X139.86 S0.0275
X140.06 S0.0039
X140.26 S0.6392
X140.46 S0.9686
X140.66 S0.3451
X140.76 S0.1843
G0 X141.16 S0.0000
G1 X141.26 S0.1882
X141.46 S0.1020
X141.66 S0.0275
X142.06 S1.0000
X142.26 S0.9922
X142.46 S0.1961
X142.66 S1.0000
X142.86 S0.9961
X143.06 S0.6392
X143.26 S0.0549
X144.06 S1.0000
X144.26 S0.2941
X144.46 S0.4000
X144.66 S0.7451
X144.86 S0.0980
X145.06 S0.3569
X145.26 S0.8196
X145.46 S0.8314
X145.66 S0.0078
X145.86 S0.7176
X146.06 S0.3216
X146.26 S0.5098
X146.46 S0.8039
X146.66 S0.9922
X146.86 S0.0275
X147.06 S1.0000
X147.26 S0.9961
X147.36 S0.0314
G0 X147.76 S0.0000
G1 X147.86 S0.8980
X148.06 S0.4784
X148.26 S0.2000
X148.46 S0.1137
X148.66 S0.4980
X148.76 S0.2078
G0 X163.56 S0.0000
G1 X163.66 S0.3608
X164.06 S1.0000
X164.16 S0.1333
G0 Y34.30 S0.0000
G1 X164.06 S0.0235
X163.86 S0.7843
X163.66 S1.0000
X163.46 S0.7373
X163.36 S0.0039
G0 X148.76 S0.0000
G1 X148.66 S0.2314
X148.46 S0.0902
X148.26 S0.0549
X148.06 S0.2157
X147.86 S0.7843
X147.76 S0.4039
G0 X147.36 S0.0000
G1 X147.26 S0.5333
X147.06 S1.0000
X146.86 S0.3333
X146.66 S0.0314
X146.46 S0.1529
X146.26 S0.2157
X146.06 S0.1216
X145.96 S0.5725
G0 X145.36 S0.0000
G1 X145.26 S0.9725
X145.06 S0.8824
X144.86 S0.9490
X144.66 S0.6784
X144.46 S1.0000
X144.26 S0.9922
X144.06 S0.4941
X143.86 S0.6706
X143.46 S1.0000
X143.26 S0.1647
X143.06 S0.6980
X142.86 S0.5882
X142.66 S0.6824
X142.46 S0.2667
X142.26 S0.3059
X141.86 S1.0000
X141.66 S0.9216
X141.46 S0.5216
X141.26 S0.7059
X141.06 S0.9608
X140.86 S0.2275
X140.66 S0.3020
X140.46 S0.8902
X140.36 S0.2196
G0 X139.96 S0.0000
G1 X139.86 S0.8824
X139.66 S0.9098
X139.46 S0.1569
X139.26 S0.1725
X139.06 S0.5804
X138.86 S0.8157
X138.66 S0.4588
X138.46 S0.0902
X138.26 S0.4118
X138.06 S1.0000
X137.86 S0.3059
X137.66 S0.0235
X137.46 S0.0431
X137.26 S0.6000
X137.06 S0.1216
X136.96 S0.4275
G0 X136.36 S0.0000
G1 X136.26 S0.1098
X136.06 S0.0471
X135.86 S0.5255
X135.66 S0.2000
X135.46 S0.9882
X135.36 S0.0667
G0 X127.56 S0.0000
G1 X127.46 S0.4902
X127.26 S0.0157
X127.06 S0.5137
X126.86 S0.8275
X126.66 S0.4549
X126.46 S0.0078
X126.26 S0.1882
X126.06 S0.1216
X125.86 S0.3294
X125.66 S1.0000
X125.46 S0.6078
X125.26 S0.3020
X125.06 S1.0000
X124.86 S0.8667
X124.66 S0.2471
X124.46 S0.8549
X124.26 S0.4431
X124.06 S0.1255
X123.66 S1.0000
X123.46 S0.1882
X123.26 S0.4196
X123.06 S0.6471
X122.86 S0.8314
X122.66 S0.6784
X122.46 S0.1843
X122.26 S0.5333
X122.06 S0.5686
X121.86 S0.2941
X121.66 S0.3529
X121.46 S0.0157
X121.26 S0.4157
X121.06 S0.5843
X120.86 S0.2314
X120.66 S0.8745
X120.46 S0.8706
X120.36 S0.0863
G0 X119.96 S0.0000
G1 X119.66 S0.5804
X119.46 S0.7020
X119.26 S0.0667
X119.06 S0.4706
X118.86 S0.1843
X118.66 S0.7804
X118.46 S0.9529
X118.26 S0.9020
X118.06 S0.5569
X117.86 S0.6000
X117.66 S0.9804
X117.46 S1.0000
X117.26 S0.0196
X117.06 S0.5137
X116.86 S0.7922
X116.66 S0.9843
X116.46 S0.2980
X116.26 S0.7137
X116.06 S0.4196
X115.86 S0.3059
X115.76 S0.5490
G0 X115.36 S0.0000
G1 X115.26 S0.0588
X115.06 S0.0549
X114.86 S0.5333
X114.66 S0.5686
X114.46 S0.4235
X114.26 S0.7020
X114.06 S0.7608
X113.86 S0.1137
X113.76 S0.1098
G0 X106.46 S0.0000
G1 X106.36 S0.1059
G0 X105.56 S0.0000
G1 X105.46 S0.6510
X105.26 S0.4549
X105.06 S0.8000
X104.86 S0.1529
X104.66 S0.1059
X104.46 S0.7412
X104.26 S0.7882
X104.06 S0.7373
X103.86 S0.7020
X103.66 S0.0431
X103.46 S0.2431
X103.26 S0.0078
X103.06 S0.3137
X102.86 S0.6745
X102.66 S0.6039
X102.46 S0.2706
X102.26 S0.6118
X101.26 S1.0000
X101.06 S0.3804
X100.86 S0.6157
X100.66 S0.5804
X100.46 S0.6941
X100.26 S0.6196
X100.06 S0.5451
X99.86 S0.0235
X99.66 S0.5804
X99.46 S0.8510
X99.26 S0.7451
X99.06 S0.2941
X98.86 S0.3059
X98.66 S0.1647
X98.46 S0.8784
X98.06 S1.0000
X97.86 S0.4118
X97.66 S0.2784
X97.46 S0.3176
X97.06 S1.0000
X96.86 S0.3412
X96.66 S0.8902
X96.46 S0.6706
X96.26 S0.0588
X96.06 S0.3176
X95.86 S0.8745
X95.66 S0.9255
X95.46 S0.6235
X95.26 S0.8745
X95.06 S0.5804
X94.96 S0.2706
G0 X94.56 S0.0000
G1 X94.46 S0.1098
X94.26 S0.0745
X94.06 S0.2706
X93.86 S0.1882
X93.66 S0.2824
X93.06 S1.0000
X92.86 S0.6471
X92.66 S0.0196
X92.46 S0.9569
X92.06 S1.0000
X91.86 S0.9843
X91.76 S0.5451
G0 X91.36 S0.0000
G1 X91.26 S0.2627
X91.06 S0.0627
X90.86 S0.3137
X90.66 S0.4118
X90.46 S0.2588
X90.26 S0.2824
X90.06 S0.4941
X89.96 S0.4510
G0 X89.56 S0.0000
G1 X89.46 S0.1882
X89.36 S0.6275
G0 X88.76 S0.0000
G1 X88.66 S0.1843
X88.56 S0.3294
G0 X66.96 S0.0000
G1 X66.86 S0.1608
X66.46 S1.0000
X66.26 S0.1098
X66.06 S0.9451
X65.96 S1.0000
G0 X65.56 S0.0000
G1 X65.46 S0.4510
X65.26 S0.1647
X64.86 S1.0000
X64.66 S0.9098
X64.46 S0.0039
X64.26 S0.7529
X64.06 S1.0000
X63.86 S0.1608
X63.66 S0.9647
X63.46 S0.8000
X63.26 S0.3373
X63.06 S0.0471
X62.86 S0.1490
X62.66 S0.6941
X62.46 S0.0510
X62.36 S0.1765
G0 X56.76 S0.0000
G1 X56.66 S0.0627
X56.46 S0.9922
X56.26 S0.9020
X56.16 S0.0902
G0 X56.36 Y34.50 S0.0000
G1 X56.46 S0.7804
X56.66 S1.0000
X56.76 S0.5765
G0 X62.56 S0.0000
G1 X62.66 S0.0863
X62.76 S0.9451
G0 X63.56 S0.0000
G1 X63.66 S0.8000
X63.86 S1.0000
X64.06 S0.3765
X64.26 S0.4118
X64.46 S0.0118
X64.66 S0.2824
X64.86 S0.0078
X65.06 S0.4902
X65.26 S0.0118
X65.46 S0.2392
X65.56 S0.5647
G0 X65.96 S0.0000
G1 X66.06 S0.3490
X66.26 S1.0000
X66.46 S0.5216
X66.66 S0.1529
X66.86 S1.0000
X67.06 S0.1608
X67.26 S0.2157
X67.36 S0.0784
G0 X75.36 S0.0000
G1 X75.46 S0.4863
X75.56 S0.0196
G0 X88.76 S0.0000
G1 X88.86 S0.3020
G0 X89.16 S0.0000
G1 X89.26 S0.4824
X89.36 S0.2980
G0 X89.76 S0.0000
G1 X89.86 S0.0157
X90.06 S0.7765
X90.26 S0.4941
X90.46 S0.2510
X90.66 S0.4902
X90.86 S0.2784
X91.06 S0.9255
X91.26 S0.7843
X91.46 S1.0000
X91.66 S0.3020
X91.86 S0.0118
X92.46 S1.0000
X92.56 S0.2902
G0 X92.96 S0.0000
G1 X93.06 S0.0196
G0 X93.36 S0.0000
G1 X93.46 S0.4510
G0 X93.96 S0.0000
G1 X94.06 S0.3059
X94.26 S0.7412
X94.46 S0.7882
X94.56 S0.9490
G0 X94.96 S0.0000
G1 X95.06 S0.4902
X95.26 S0.9451
X95.46 S0.7725
X95.66 S0.5137
X95.86 S0.5098
X96.06 S0.5686
X96.16 S1.0000
G0 X96.56 S0.0000
G1 X96.66 S0.9882
X97.46 S1.0000
X97.66 S0.0118
X97.86 S0.0588
X98.06 S0.5059
X98.26 S0.7176
X98.46 S1.0000
X98.66 S0.7961
X98.86 S0.0118
X99.06 S0.3373
X99.86 S1.0000
X100.06 S0.9490
X100.16 S0.0431
G0 X100.56 S0.0000
G1 X100.66 S0.0235
X100.86 S0.4863
X100.96 S0.4118
G0 X101.36 S0.0000
G1 X101.46 S0.0196
X102.06 S0.5137
X102.16 S0.2627
G0 X102.56 S0.0000
G1 X102.66 S0.6588
X102.86 S0.8000
X103.06 S1.0000
X103.26 S0.8471
X103.46 S0.6353
X103.66 S0.3137
X103.86 S0.2588
X104.06 S0.4549
X104.26 S0.2980
X104.46 S0.7529
X104.66 S0.5451
X104.76 S0.4196
G0 X105.36 S0.0000
G1 X105.46 S0.5020
X105.66 S0.9647
X105.86 S0.6745
X105.96 S0.2549
G0 X106.36 S0.0000
G1 X106.46 S0.0510
X106.56 S0.2431
G0 X106.96 S0.0000
G1 X107.06 S0.0627
X107.16 S0.0157
G0 X112.96 S0.0000
G1 X113.06 S0.4902
X113.26 S0.2549
X113.46 S0.1333
X113.66 S0.2078
X113.86 S0.2784
X114.06 S0.6039
X114.16 S0.0118
G0 X114.56 S0.0000
G1 X114.66 S0.3490
X114.76 S0.0118
G0 X115.36 S0.0000
G1 X115.46 S0.0902
X115.66 S0.0275
X115.86 S0.5608
X116.06 S0.5098
X116.26 S0.5804
X116.46 S0.0863
X116.66 S0.4941
X116.86 S0.1451
X117.06 S0.0196
X117.26 S0.3255
X117.46 S0.3804
X117.66 S0.9059
X117.86 S0.9569
X118.06 S0.5137
X118.26 S0.2078
X118.46 S1.0000
X118.66 S0.5137
X118.86 S0.4980
X119.06 S0.5137
X119.26 S0.0078
X119.46 S0.8078
X119.66 S0.8627
X119.86 S0.7255
X120.06 S0.5333
X120.26 S0.6784
X120.46 S0.1725
X120.66 S0.4824
X120.86 S0.3255
X120.96 S0.4039
G0 X121.36 S0.0000
G1 X121.46 S0.2078
X121.66 S0.1412
X121.86 S0.1137
X122.06 S0.0039
X122.16 S0.0471
G0 X122.96 S0.0000
G1 X123.06 S0.0824
X123.26 S0.4235
X123.36 S0.5843
G0 X123.76 S0.0000
G1 X123.86 S0.4118
X124.06 S1.0000
X124.26 S0.6078
X124.46 S0.6980
X124.66 S0.9843
X124.86 S0.5922
X125.06 S0.0392
X125.26 S0.8353
X125.46 S0.4078
X125.66 S0.8431
X125.86 S1.0000
X126.06 S0.9961
X126.26 S0.0902
X126.46 S0.1804
X126.56 S0.6157
G0 X126.96 S0.0000
G1 X127.06 S0.1373
X127.26 S0.9294
X127.46 S0.5725
X127.66 S0.2902
X127.86 S0.4353
X127.96 S0.1725
G0 X135.16 S0.0000
G1 X135.26 S0.7020
G0 X135.76 S0.0000
G1 X135.86 S0.5451
X136.06 S0.1333
X136.16 S0.4824
G0 X136.56 S0.0000
G1 X136.66 S0.4510
X136.86 S0.6392
X137.06 S0.4980
X137.26 S0.0118
X137.46 S0.1059
X137.66 S0.6941
X137.76 S0.4863
G0 X138.56 S0.0000
G1 X138.66 S0.1333
X138.76 S0.4863
G0 X139.16 S0.0000
G1 X139.26 S0.0078
X139.46 S0.0706
X139.66 S0.8471
X140.06 S1.0000
X140.16 S0.9961
G0 X140.96 S0.0000
G1 X141.06 S0.2980
X141.46 S1.0000
X141.66 S0.1373
X141.86 S0.0157
X142.06 S0.0196
X142.26 S0.4980
X142.46 S0.8275
X142.66 S0.9804
X142.86 S0.0392
X143.06 S0.6706
X143.26 S1.0000
X143.46 S0.9725
X143.66 S0.0157
X143.86 S0.5059
X144.06 S0.5137
X144.26 S0.0078
X144.66 S0.0196
X144.76 S0.1490
G0 X145.16 S0.0000
G1 X145.26 S0.0196
X145.46 S0.0157
X145.66 S0.9020
X145.86 S0.4863
X146.06 S0.4157
X146.26 S0.9020
X146.46 S0.1529
X146.66 S0.4863
X146.86 S0.6353
X146.96 S0.4902
G0 X147.36 S0.0000
G1 X147.46 S0.1686
X147.56 S0.2431
G0 X147.96 S0.0000
G1 X148.06 S0.0157
X148.16 S0.0039
G0 X148.76 S0.0000
G1 X148.86 S0.4196
G0 X149.56 S0.0000
G1 X149.66 S0.1333
G0 X163.36 S0.0000
G1 X163.46 S0.1804
X163.66 S0.9882
X163.86 S1.0000
X163.96 S0.4431
G0 X163.76 Y34.70 S0.0000
G1 X163.66 S0.8824
X163.46 S0.9255
X163.26 S0.5882
X163.16 S0.0039
G0 X149.86 S0.0000
G1 X149.76 S0.0706
G0 X149.36 S0.0000
G1 X149.26 S0.1059
X149.06 S0.9294
X148.96 S0.6392
G0 X148.56 S0.0000
G1 X148.46 S0.2471
X148.36 S0.6510
G0 X147.96 S0.0000
G1 X147.86 S0.2000
X147.66 S0.6980
X147.46 S0.8588
X147.26 S0.2627
X147.06 S0.1059
X146.86 S0.5216
X146.66 S0.6235
X146.46 S0.0784
X146.26 S0.7137
X146.06 S0.7255
X145.86 S0.8510
X145.66 S1.0000
X145.46 S0.8588
X145.26 S0.2784
X144.86 S1.0000
X144.66 S0.8941
X144.46 S0.3333
X144.06 S1.0000
X143.86 S0.8941
X143.66 S0.1725
X143.46 S0.2157
X143.26 S0.9137
X143.06 S0.9725
X142.86 S0.3020
X142.66 S0.9765
X142.46 S1.0000
X142.26 S0.9333
X142.06 S0.8588
X141.86 S0.5725
X141.66 S1.0000
X141.46 S0.9137
X141.26 S0.1804
X141.06 S0.0824
X140.86 S0.3059
X140.46 S1.0000
X140.36 S0.2549
G0 X139.96 S0.0000
G1 X139.86 S0.1373
X139.66 S0.1647
X139.46 S0.0745
X139.26 S0.3373
X139.06 S0.1373
X138.86 S0.3294
X138.76 S0.9608
G0 X138.36 S0.0000
G1 X138.26 S0.4431
X138.06 S0.4941
X137.86 S0.0941
X137.66 S0.0078
X137.26 S1.0000
X137.06 S0.2627
X136.86 S0.5647
X136.66 S0.7216
X136.56 S0.5490
G0 X135.76 S0.0000
G1 X135.66 S0.0275
X135.56 S0.0667
G0 X135.16 S0.0000
G1 X135.06 S0.0588
X134.86 S0.0431
X134.76 S0.0392
G0 X128.66 S0.0000
G1 X128.56 S0.1412
G0 X128.16 S0.0000
G1 X128.06 S0.3804
X127.86 S0.9608
X127.66 S0.9529
X127.46 S0.0824
X127.26 S0.7804
X127.06 S0.0471
X126.86 S0.0431
X126.66 S0.9608
X126.46 S0.9098
X126.26 S0.5529
X126.06 S0.3843
X125.86 S0.9804
X125.66 S1.0000
X125.46 S0.5412
X125.26 S0.2118
X125.06 S0.1059
X124.86 S0.1608
X124.66 S0.9569
X124.46 S0.8314
X124.26 S0.6510
X124.16 S0.2706
G0 X123.76 S0.0000
G1 X123.66 S0.1529
X123.46 S0.7451
X123.26 S0.6118
X123.06 S0.5529
X122.86 S0.4314
X122.66 S0.8902
X122.46 S0.4196
X122.26 S0.5373
X122.06 S0.2510
X121.86 S0.9451
X121.66 S0.7686
X121.26 S0.6392
X121.06 S0.7255
X120.86 S0.2431
X120.66 S0.3216
X120.46 S0.9647
X120.26 S0.5725
X120.06 S0.8706
X119.86 S0.9020
X119.66 S0.8392
X119.46 S0.9216
X119.26 S0.4824
X119.06 S0.0824
X118.86 S0.2588
X118.66 S0.2353
X118.26 S0.0157
X118.06 S0.1176
X117.86 S0.5647
X117.66 S0.2824
X117.46 S0.3608
X117.26 S0.3020
X117.06 S0.7647
X116.86 S0.6706
X116.66 S0.9843
X116.46 S0.3333
X116.26 S0.3216
X116.06 S0.3059
X115.96 S0.0549
G0 X115.56 S0.0000
G1 X115.46 S0.9961
X115.26 S1.0000
X115.06 S0.5137
X114.96 S0.2980
G0 X114.56 S0.0000
G1 X114.46 S0.7647
X114.26 S0.4706
X114.06 S0.3804
X113.86 S0.1451
X113.76 S0.0588
G0 X113.36 S0.0000
G1 X113.26 S0.0157
X113.06 S0.0471
X112.86 S0.3922
X112.76 S0.0118
G0 X106.76 S0.0000
G1 X106.66 S0.1059
X106.46 S0.6863
X106.26 S0.4627
X106.06 S0.3098
X105.86 S0.2275
X105.66 S0.0039
X105.46 S0.0353
X105.26 S0.0706
X105.06 S0.3451
X104.86 S0.1176
X104.66 S0.3255
X104.46 S0.1059
X104.26 S0.6353
X104.06 S0.2275
X103.86 S1.0000
X103.66 S0.9137
X103.46 S0.2706
X103.26 S0.9961
X103.06 S1.0000
X102.86 S0.8941
X102.66 S0.8824
X102.46 S0.3529
X102.26 S0.4039
X102.06 S1.0000
X101.86 S0.8941
X101.66 S0.8745
X101.46 S0.6392
X101.26 S0.3490
X100.66 S1.0000
X100.46 S0.8078
X100.26 S0.2706
X100.06 S0.0392
X99.86 S0.9216
X99.66 S1.0000
X99.46 S0.8941
X99.26 S0.5451
X99.06 S0.2627
X98.86 S0.1725
X98.66 S0.1451
X98.46 S0.2667
X98.26 S0.6588
X98.06 S0.9843
X97.86 S1.0000
X97.66 S0.6980
X97.46 S0.2588
X97.26 S0.0549
X97.06 S0.7804
X96.86 S0.9490
X96.66 S1.0000
X96.46 S0.8510
X96.26 S0.3490
X96.06 S0.7373
X95.86 S1.0000
X95.66 S0.9373
X95.46 S0.9804
X95.26 S0.7412
X95.06 S1.0000
X94.86 S0.3333
X94.66 S0.1137
X94.46 S0.2314
X94.26 S0.9255
X94.06 S1.0000
X93.86 S0.5961
X93.66 S0.7725
X93.46 S0.1490
X93.26 S0.1216
X93.06 S1.0000
X92.86 S0.6863
X92.66 S0.9451
X92.46 S0.3529
X92.26 S0.2392
X92.06 S0.6392
X91.86 S0.6431
X91.76 S0.6275
G0 X91.36 S0.0000
G1 X90.86 S1.0000
X90.66 S0.3059
X90.46 S0.1686
X90.26 S0.5961
X90.06 S0.6078
X89.96 S0.5686
G0 X89.56 S0.0000
G1 X89.46 S0.5647
X89.26 S0.4667
X89.16 S0.2353
G0 X88.76 S0.0000
G1 X88.66 S0.1608
X88.46 S0.3569
X88.26 S0.3686
X88.06 S0.3961
X87.96 S0.1804
G0 X78.56 S0.0000
G1 X78.46 S0.0471
X78.36 S0.2667
G0 X77.96 S0.0000
G1 X77.86 S0.0863
X77.66 S0.0706
X77.46 S0.2078
X77.26 S0.2157
X77.06 S0.8118
X76.86 S0.8784
X76.66 S0.3961
X76.46 S0.8157
X76.26 S0.6902
X76.06 S0.2627
X75.86 S0.7490
X75.66 S1.0000
X75.46 S0.7608
X75.36 S0.8980
G0 X74.96 S0.0000
G1 X74.86 S0.7373
X74.66 S0.2588
X74.46 S0.2353
X74.36 S0.1059
G0 X67.36 S0.0000
G1 X67.26 S0.3608
X67.06 S0.8627
X66.86 S0.1647
X66.66 S0.6235
X66.46 S0.0118
X66.26 S1.0000
X66.16 S0.9922
G0 X65.76 S0.0000
G1 X65.66 S0.1216
X65.46 S0.0392
X65.06 S1.0000
X64.86 S0.9176
X64.66 S0.3059
X64.46 S1.0000
X64.36 S0.1059
G0 X63.96 S0.0000
G1 X63.86 S0.0627
X63.66 S0.8941
X63.56 S0.2980
G0 X63.26 S0.0000
G1 X63.16 S0.7647
G0 X62.76 S0.0000
G1 X62.66 S0.8510
X62.56 S0.1098
G0 X56.96 S0.0000
G1 X56.86 S0.0784
X56.66 S0.9294
X56.46 S1.0000
X56.36 S0.4275
G0 Y34.90 S0.0000
G1 X56.46 S0.0549
X56.66 S0.9569
X56.86 S0.9843
X56.96 S0.5059
G0 X62.96 S0.0000
G1 X63.06 S0.3922
X63.26 S1.0000
X63.36 S0.0196
G0 X63.96 S0.0000
G1 X64.06 S0.6039
X64.26 S0.1647
X64.46 S0.9020
X64.66 S1.0000
X64.86 S0.6863
X65.06 S0.0745
X65.46 S1.0000
X65.66 S0.0039
X65.76 S0.2000
G0 X66.16 S0.0000
G1 X66.26 S0.3922
X66.36 S1.0000
G0 X66.96 S0.0000
G1 X67.06 S0.4549
X67.26 S1.0000
X67.46 S0.8902
X67.56 S0.0706
G0 X74.36 S0.0000
G1 X74.46 S0.9804
X74.66 S0.7216
X74.86 S0.3255
X75.06 S0.1176
X75.26 S0.1490
X75.46 S0.9843
X75.66 S0.7490
X75.86 S0.6863
X76.06 S0.3647
X76.26 S0.5216
X76.46 S0.7216
X76.66 S0.8078
X76.86 S0.3490
X77.06 S1.0000
X77.26 S0.3961
X77.46 S0.0431
X77.66 S0.9843
X77.86 S0.9529
X78.06 S0.9804
X78.26 S0.7529
X78.46 S0.0706
X78.66 S0.6549
X78.86 S0.8510
X79.06 S0.5922
X79.16 S0.0588
G0 X87.76 S0.0000
G1 X87.86 S0.3137
X88.06 S0.0392
X88.26 S0.6627
X88.46 S0.6706
X88.56 S0.4275
G0 X89.16 S0.0000
G1 X89.26 S0.8627
X89.46 S0.4784
X89.56 S0.9647
G0 X89.96 S0.0000
G1 X90.06 S0.7333
X90.26 S0.1882
X90.46 S0.0118
X90.66 S0.8314
X90.86 S0.9059
X91.26 S1.0000
X91.36 S0.2745
G0 X91.76 S0.0000
G1 X91.86 S0.6980
X91.96 S0.7333
G0 X92.56 S0.0000
G1 X92.66 S0.3137
X92.86 S0.7176
X93.06 S0.5608
X93.26 S0.6510
X93.46 S0.4314
X93.66 S0.3373
X94.06 S1.0000
X94.26 S0.4039
X94.46 S0.2471
X94.66 S0.1804
X94.86 S0.8000
X95.06 S0.2941
X95.26 S0.4078
X95.46 S0.1294
X95.66 S0.2824
X95.86 S0.3333
X96.06 S0.3725
X96.26 S0.0118
X96.46 S0.2784
X96.66 S0.4863
X96.86 S0.4314
X96.96 S0.0667
G0 X97.76 S0.0000
G1 X97.86 S0.3843
X98.06 S0.2353
X98.26 S0.1137
X98.46 S0.7176
X99.06 S0.8706
X99.16 S0.2941
G0 X99.76 S0.0000
G1 X99.86 S0.1294
X100.06 S0.3216
X100.26 S0.1804
X100.46 S0.8902
X101.16 S1.0000
G0 X101.56 S0.0000
G1 X101.66 S0.1255
X101.86 S0.0863
X102.06 S0.5333
X102.26 S0.1255
X102.46 S0.9451
X102.66 S0.9412
X102.86 S0.8706
X103.06 S0.6000
X103.26 S0.4471
X103.46 S0.1255
X103.66 S0.0196
X103.86 S0.3333
X104.06 S0.1294
X104.26 S0.4078
X104.46 S0.8706
X104.66 S0.3176
X104.86 S0.0392
X105.06 S0.6235
X105.26 S0.7608
X105.46 S0.6471
X105.66 S0.5451
X105.86 S0.2353
X106.06 S0.6902
X106.26 S0.5765
X106.46 S0.3373
X106.66 S0.1608
X106.86 S0.2980
X106.96 S0.1373
G0 X112.96 S0.0000
G1 X113.06 S0.0824
X113.16 S0.1333
G0 X113.76 S0.0000
G1 X113.86 S0.0196
X114.06 S0.3137
X114.26 S0.3961
X114.46 S0.2353
X114.66 S0.1098
X114.86 S0.1490
X115.06 S0.6667
X115.26 S0.6235
X115.46 S0.6275
X115.66 S0.5373
X115.86 S0.7647
X116.06 S0.9412
X116.46 S1.0000
X116.66 S0.1137
X116.86 S0.9922
X117.06 S0.9490
X117.26 S0.9882
X117.46 S0.4667
X117.66 S0.6706
X117.86 S0.8863
X118.06 S0.2941
X118.26 S0.6314
X118.46 S0.0353
X118.66 S0.8000
X118.86 S0.6980
X119.06 S0.2902
X119.26 S0.5569
X119.46 S0.0588
X119.66 S0.2039
X119.86 S0.0706
X119.96 S0.0078
G0 X120.36 S0.0000
G1 X120.66 S0.4078
X120.86 S0.3176
X121.06 S0.4863
X121.26 S0.6980
X121.46 S0.8157
X121.66 S0.2549
X121.86 S0.7686
X122.06 S0.5451
X122.26 S0.1216
X122.46 S0.4471
X122.66 S0.0745
X122.86 S0.0078
X123.06 S0.1686
X123.26 S0.3255
X123.46 S0.5922
X123.66 S0.8863
X123.86 S0.8941
X124.06 S0.0039
X124.26 S0.3098
X124.46 S0.0431
X124.66 S0.1294
X124.86 S0.7294
X125.06 S0.7647
X125.26 S0.8627
X125.46 S1.0000
X125.66 S0.8745
X125.86 S0.4118
X126.06 S0.8706
X126.26 S0.1294
X126.46 S0.2627
X126.66 S0.9922
X126.86 S1.0000
X126.96 S0.6235
G0 X127.56 S0.0000
G1 X127.66 S0.0275
X127.86 S0.9098
X128.06 S0.8275
X128.16 S0.1608
G0 X128.56 S0.0000
G1 X128.66 S0.1098
X128.76 S0.1882
G0 X134.76 S0.0000
G1 X134.86 S0.4824
G0 X135.56 S0.0000
G1 X135.66 S0.0275
X135.86 S0.2824
X136.06 S0.0039
X136.26 S0.5686
X136.46 S0.6078
X136.66 S0.1059
X136.86 S0.1922
X137.06 S0.2118
X137.46 S0.8157
X137.56 S0.3412
G0 X137.96 S0.0000
G1 X138.06 S0.3922
X138.26 S1.0000
X138.36 S0.4980
G0 X138.76 S0.0000
